; generated by PrusaSlicer 2.3.0+win64 on 2021-05-17 at 18:07:40 UTC

; 

; external perimeters extrusion width = 0.65mm
; perimeters extrusion width = 0.65mm
; infill extrusion width = 0.65mm
; solid infill extrusion width = 0.65mm
; top infill extrusion width = 0.60mm
; support material extrusion width = 0.55mm
; first layer extrusion width = 0.65mm

M73 P0 R179
M73 Q0 S180
M201 X1000 Y1000 Z1000 E5000 ; sets maximum accelerations, mm/sec^2
M203 X200 Y200 Z12 E120 ; sets maximum feedrates, mm/sec
M204 P1250 R1250 T1250 ; sets acceleration (P, T) and retract acceleration (R), mm/sec^2
M205 X8.00 Y8.00 Z0.40 E1.50 ; sets the jerk limits, mm/sec
M205 S0 T0 ; sets the minimum extruding and travel feed rate, mm/sec
M107
;TYPE:Custom
G28 ; home all without mesh bed level
G90 ; use absolute coordinates
M83 ; extruder relative mode
M140 S50 ; set bed temp
M104 S240 ; set extruder temp
M190 S50; wait for bed temp
M109 S240 ; wait for extruder temp
G29 A L1; mesh bed leveling
;G29 J; mesh bed leveling. I don't think this is needed and may cause issues.
G0 X0 Y0 Z0.4 F5000.0; move head to start location
G92 E0.0
G1 X60.0 Z0.4 E9.0 F1000.0 ; intro line
G1 X100.0 E12.5 F1000.0 ; intro line
G92 E0.0
M221 S95
G21 ; set units to millimeters
G90 ; use absolute coordinates
M83 ; use relative distances for extrusion
M900 K0.04 ; Filament gcode LA 1.5
M900 K18 ; Filament gcode LA 1.0
;LAYER_CHANGE
;Z:0.2
;HEIGHT:0.2
;BEFORE_LAYER_CHANGE
G92 E0.0
;0.2


G1 E-0.80000 F2100.000
G1 Z0.600 F10800.000
;AFTER_LAYER_CHANGE
;0.2
G1 X50.849 Y50.885
G1 Z0.200
G1 E0.80000 F2100.000
M204 S1000
;TYPE:Skirt
;WIDTH:0.65
G1 F1200.000
G1 X51.068 Y50.667 E0.01561
G1 X51.514 Y50.327 E0.02834
G1 X56.773 Y47.860 E0.29322
G1 X57.577 Y47.727 E0.04111
G1 X78.837 Y47.727 E1.07322
G1 X79.770 Y47.900 E0.04786
G1 X91.746 Y52.675 E0.65082
G1 X141.918 Y75.253 E2.77725
G1 X162.460 Y85.568 E1.16034
G1 X166.938 Y90.013 E0.31851
G1 X167.342 Y90.623 E0.03693
G1 X167.560 Y91.321 E0.03693
G1 X167.594 Y112.090 E1.04837
G1 X167.452 Y112.884 E0.04071
G1 X167.077 Y113.593 E0.04051
G1 X160.856 Y119.852 E0.44544
G1 X160.118 Y120.355 E0.04508
M73 Q0 S179
G1 X79.304 Y153.400 E4.40730
G1 X78.466 Y153.543 E0.04290
G1 X54.664 Y153.543 E1.20149
G1 X53.861 Y153.405 E0.04111
G1 X53.141 Y153.025 E0.04111
G1 X46.788 Y146.312 E0.46656
G1 X46.363 Y145.613 E0.04131
G1 X46.176 Y144.816 E0.04131
G1 X46.169 Y59.151 E4.32425
G1 X46.243 Y58.535 E0.03134
G1 X46.432 Y58.011 E0.02814
G1 X48.962 Y52.950 E0.28561
G1 X49.428 Y52.306 E0.04012
G1 X50.786 Y50.949 E0.09690
; printing object Main_Body.stl id:0 copy 0
;WIPE_START
G1 F8640.000
G1 X51.068 Y50.667 E-0.09216
G1 X51.514 Y50.327 E-0.12962
G1 X53.625 Y49.337 E-0.53822
;WIPE_END
G1 E-0.04000 F2100.000
G1 Z0.800 F10800.000
G1 X54.700 Y150.936
G1 Z0.200
G1 E0.80000 F2100.000
;TYPE:Support material
G1 F1200.000
G1 X78.451 Y150.936 E1.19893
G1 X79.318 Y150.069 E0.06191
G1 X54.219 Y150.069 E1.26699
G1 X53.790 Y149.640 E0.03060
G1 X53.790 Y149.202 E0.02214
G1 X79.747 Y149.202 E1.31026
G1 X79.747 Y148.713 E0.02468
G1 X80.675 Y148.713 E0.04682
G1 X81.053 Y148.334 E0.02701
G1 X52.485 Y148.334 E1.44210
G1 X51.617 Y147.467 E0.06191
G1 X81.920 Y147.467 E1.52966
G1 X82.254 Y147.133 E0.02384
G1 X82.254 Y146.600 E0.02692
G1 X51.283 Y146.600 E1.56337
G1 X51.283 Y146.206 E0.01990
G1 X50.356 Y146.206 E0.04682
G1 X49.883 Y145.733 E0.03377
G1 X83.655 Y145.733 E1.70477
G1 X84.522 Y144.865 E0.06191
G1 X49.015 Y144.865 E1.79232
G1 X48.776 Y144.626 E0.01708
G1 X48.776 Y143.998 E0.03170
G1 X84.761 Y143.998 E1.81648
G1 X84.761 Y143.698 E0.01512
G1 X85.689 Y143.698 E0.04682
G1 X86.256 Y143.131 E0.04053
G1 X48.776 Y143.131 E1.89196
G1 X48.776 Y142.264 E0.04378
M73 P0 R178
G1 X87.124 Y142.264 E1.93574
G1 X87.268 Y142.119 E0.01032
G1 X87.268 Y141.396 E0.03648
G1 X48.776 Y141.396 E1.94303
G1 X48.776 Y140.529 E0.04378
G1 X88.858 Y140.529 E2.02329
G1 X89.725 Y139.662 E0.06191
G1 X48.776 Y139.662 E2.06707
G1 X48.776 Y138.794 E0.04378
G1 X89.775 Y138.794 E2.06959
G1 X89.775 Y138.684 E0.00556
G1 X90.703 Y138.684 E0.04682
G1 X91.460 Y137.927 E0.05405
G1 X48.776 Y137.927 E2.15463
G1 X48.776 Y137.060 E0.04378
G1 X92.282 Y137.060 E2.19614
G1 X92.282 Y136.193 E0.04378
G1 X48.776 Y136.193 E2.19614
G1 X48.776 Y135.325 E0.04378
G1 X94.062 Y135.325 E2.28596
G1 X94.789 Y134.598 E0.05195
G1 X94.789 Y134.458 E0.00704
G1 X48.776 Y134.458 E2.32270
G1 X48.776 Y133.591 E0.04378
G1 X95.796 Y133.591 E2.37352
G1 X96.663 Y132.724 E0.06191
G1 X48.776 Y132.724 E2.41730
G1 X48.776 Y131.856 E0.04378
G1 X97.297 Y131.856 E2.44925
G1 X97.297 Y131.163 E0.03500
G1 X98.224 Y131.163 E0.04682
G1 X98.398 Y130.989 E0.01241
G1 X48.776 Y130.989 E2.50485
G1 X48.776 Y130.122 E0.04378
M73 Q0 S178
G1 X99.265 Y130.122 E2.54863
G1 X99.804 Y129.584 E0.03843
G1 X99.804 Y129.255 E0.01660
G1 X48.776 Y129.255 E2.57581
G1 X48.776 Y128.387 E0.04378
G1 X101.000 Y128.387 E2.63619
G1 X101.867 Y127.520 E0.06191
G1 X48.776 Y127.520 E2.67996
G1 X48.776 Y126.653 E0.04378
G1 X102.311 Y126.653 E2.70236
G1 X102.311 Y126.149 E0.02544
G1 X103.238 Y126.149 E0.04682
G1 X103.602 Y125.786 E0.02593
G1 X48.776 Y125.786 E2.76752
G1 X48.776 Y124.918 E0.04378
G1 X104.469 Y124.918 E2.81130
G1 X104.818 Y124.569 E0.02492
G1 X104.818 Y124.051 E0.02616
G1 X48.776 Y124.051 E2.82892
G1 X48.776 Y123.184 E0.04378
G1 X106.203 Y123.184 E2.89885
G1 X107.071 Y122.317 E0.06191
G1 X48.776 Y122.317 E2.94263
G1 X48.776 Y121.449 E0.04378
M73 P0 R177
G1 X107.325 Y121.449 E2.95547
G1 X107.325 Y121.135 E0.01588
G1 X108.252 Y121.135 E0.04682
G1 X108.805 Y120.582 E0.03945
G1 X48.776 Y120.582 E3.03019
G1 X48.776 Y119.715 E0.04378
M73 P1 R177
M73 Q1 S178
G1 X109.672 Y119.715 E3.07397
G1 X109.832 Y119.555 E0.01140
G1 X109.832 Y118.848 E0.03572
G1 X48.776 Y118.848 E3.08203
G1 X48.776 Y117.980 E0.04378
G1 X159.041 Y117.980 E5.56606
G1 X159.909 Y117.113 E0.06191
G1 X48.776 Y117.113 E5.60984
G1 X48.776 Y116.246 E0.04378
G1 X159.974 Y116.246 E5.61312
G1 X159.974 Y116.121 E0.00632
G1 X160.901 Y116.121 E0.04682
G1 X161.643 Y115.379 E0.05297
G1 X48.776 Y115.379 E5.69739
G1 X48.776 Y114.511 E0.04378
M73 Q1 S177
G1 X162.481 Y114.511 E5.73967
G1 X162.481 Y113.644 E0.04378
G1 X48.776 Y113.644 E5.73967
G1 X48.776 Y112.777 E0.04378
G1 X164.245 Y112.777 E5.82873
G1 X164.988 Y112.034 E0.05303
G1 X164.988 Y111.910 E0.00628
G1 X48.776 Y111.910 E5.86623
G1 X48.776 Y111.042 E0.04378
G1 X164.988 Y111.042 E5.86623
G1 X164.988 Y110.175 E0.04378
M73 P1 R176
G1 X48.776 Y110.175 E5.86623
G1 X48.776 Y109.308 E0.04378
G1 X164.988 Y109.308 E5.86623
G1 X164.988 Y108.441 E0.04378
G1 X48.776 Y108.441 E5.86623
G1 X48.776 Y107.573 E0.04378
G1 X164.988 Y107.573 E5.86623
G1 X164.988 Y106.706 E0.04378
G1 X48.776 Y106.706 E5.86623
G1 X48.776 Y105.839 E0.04378
M73 Q1 S176
G1 X164.988 Y105.839 E5.86623
G1 X164.988 Y104.971 E0.04378
G1 X48.776 Y104.971 E5.86623
G1 X48.776 Y104.104 E0.04378
G1 X164.988 Y104.104 E5.86623
G1 X164.988 Y103.237 E0.04378
G1 X48.776 Y103.237 E5.86623
G1 X48.776 Y102.370 E0.04378
M73 P2 R176
M73 Q2 S176
G1 X164.988 Y102.370 E5.86623
G1 X164.988 Y101.502 E0.04378
M73 P2 R175
G1 X48.776 Y101.502 E5.86622
G1 X48.776 Y100.635 E0.04378
G1 X164.988 Y100.635 E5.86622
G1 X164.988 Y99.768 E0.04378
G1 X48.776 Y99.768 E5.86622
G1 X48.776 Y98.901 E0.04378
G1 X164.988 Y98.901 E5.86622
G1 X164.988 Y98.033 E0.04378
G1 X48.776 Y98.033 E5.86622
G1 X48.776 Y97.166 E0.04378
M73 Q2 S175
G1 X164.988 Y97.166 E5.86622
G1 X164.988 Y96.299 E0.04378
G1 X48.776 Y96.299 E5.86622
G1 X48.776 Y95.432 E0.04378
G1 X164.988 Y95.432 E5.86622
G1 X164.988 Y94.564 E0.04378
G1 X48.776 Y94.564 E5.86622
G1 X48.776 Y93.697 E0.04378
G1 X164.988 Y93.697 E5.86622
G1 X164.988 Y92.830 E0.04378
M73 P2 R174
G1 X48.776 Y92.830 E5.86622
G1 X48.776 Y91.963 E0.04378
G1 X164.988 Y91.963 E5.86622
G1 X164.988 Y91.744 E0.01106
G1 X164.340 Y91.095 E0.04627
G1 X48.776 Y91.095 E5.83351
G1 X48.776 Y90.228 E0.04378
G1 X163.472 Y90.228 E5.78973
G1 X163.408 Y90.164 E0.00458
G1 X162.481 Y90.164 E0.04682
G1 X162.481 Y89.361 E0.04054
G1 X48.776 Y89.361 E5.73967
G1 X48.776 Y88.494 E0.04378
G1 X161.738 Y88.494 E5.70217
G1 X160.901 Y87.657 E0.05973
M73 Q2 S174
G1 X157.466 Y87.657 E0.17338
G1 X157.466 Y87.626 E0.00154
G1 X48.776 Y87.626 E5.48656
G1 X48.776 Y86.759 E0.04378
M73 P3 R174
M73 Q3 S174
G1 X157.466 Y86.759 E5.48656
G1 X157.466 Y86.729 E0.00150
G1 X156.629 Y85.892 E0.05979
G1 X48.776 Y85.892 E5.44429
G1 X48.776 Y85.025 E0.04378
G1 X152.452 Y85.025 E5.23345
G1 X152.452 Y84.222 E0.04050
G1 X152.387 Y84.157 E0.00463
G1 X48.776 Y84.157 E5.23018
G1 X48.776 Y83.290 E0.04378
M73 P3 R173
G1 X151.520 Y83.290 E5.18640
G1 X150.873 Y82.643 E0.04621
G1 X147.438 Y82.643 E0.17338
G1 X147.438 Y82.423 E0.01110
G1 X48.776 Y82.423 E4.98034
G1 X48.776 Y81.556 E0.04378
G1 X147.279 Y81.556 E4.97229
G1 X146.411 Y80.688 E0.06191
G1 X48.776 Y80.688 E4.92851
G1 X48.776 Y79.821 E0.04378
G1 X142.424 Y79.821 E4.72723
G1 X142.424 Y79.208 E0.03094
G1 X142.170 Y78.954 E0.01815
G1 X48.776 Y78.954 E4.71440
G1 X48.776 Y78.087 E0.04378
M73 Q3 S173
G1 X141.302 Y78.087 E4.67062
G1 X140.844 Y77.629 E0.03270
G1 X134.903 Y77.629 E0.29993
G1 X134.903 Y77.219 E0.02066
G1 X48.776 Y77.219 E4.34757
G1 X48.776 Y76.352 E0.04378
G1 X134.554 Y76.352 E4.32995
G1 X133.687 Y75.485 E0.06191
G1 X48.776 Y75.485 E4.28618
G1 X48.776 Y74.618 E0.04378
G1 X129.889 Y74.618 E4.09446
G1 X129.889 Y74.194 E0.02138
G1 X129.445 Y73.750 E0.03167
G1 X48.776 Y73.750 E4.07207
G1 X48.776 Y72.883 E0.04378
M73 P3 R172
G1 X128.578 Y72.883 E4.02829
G1 X128.309 Y72.614 E0.01918
G1 X124.874 Y72.614 E0.17338
G1 X124.874 Y72.016 E0.03022
G1 X48.776 Y72.016 E3.84135
G1 X48.776 Y71.149 E0.04378
G1 X124.336 Y71.149 E3.81418
G1 X123.469 Y70.281 E0.06191
G1 X48.776 Y70.281 E3.77040
G1 X48.776 Y69.414 E0.04378
G1 X119.860 Y69.414 E3.58824
G1 X119.860 Y69.180 E0.01182
G1 X119.227 Y68.547 E0.04519
G1 X48.776 Y68.547 E3.55629
G1 X48.776 Y67.679 E0.04378
G1 X118.360 Y67.679 E3.51251
G1 X118.281 Y67.600 E0.00566
G1 X112.339 Y67.600 E0.29993
G1 X112.339 Y66.812 E0.03978
G1 X48.776 Y66.812 E3.20858
G1 X48.776 Y65.945 E0.04378
M73 P4 R172
M73 Q4 S173
G1 X111.611 Y65.945 E3.17184
G1 X110.759 Y65.093 E0.06081
M73 Q4 S172
G1 X107.325 Y65.093 E0.17338
G1 X107.325 Y65.078 E0.00078
G1 X48.776 Y65.078 E2.95547
G1 X48.776 Y64.210 E0.04378
G1 X107.325 Y64.210 E2.95547
G1 X107.325 Y64.166 E0.00226
G1 X106.502 Y63.343 E0.05871
G1 X48.776 Y63.343 E2.91396
G1 X48.776 Y62.476 E0.04378
G1 X102.311 Y62.476 E2.70236
G1 X102.311 Y61.659 E0.04126
G1 X102.261 Y61.609 E0.00356
G1 X48.776 Y61.609 E2.69984
G1 X48.776 Y60.741 E0.04378
G1 X101.394 Y60.741 E2.65607
G1 X100.731 Y60.079 E0.04729
G1 X97.297 Y60.079 E0.17338
G1 X97.297 Y59.874 E0.01034
G1 X48.776 Y59.874 E2.44925
G1 X48.776 Y59.151 E0.03648
G1 X48.921 Y59.007 E0.01032
G1 X97.152 Y59.007 E2.43466
G1 X96.285 Y58.140 E0.06191
G1 X49.788 Y58.140 E2.34710
G1 X50.356 Y57.572 E0.04053
G1 X51.283 Y57.572 E0.04682
G1 X51.283 Y57.272 E0.01512
G1 X92.282 Y57.272 E2.06959
G1 X92.282 Y56.644 E0.03170
M73 P4 R171
G1 X92.043 Y56.405 E0.01708
G1 X51.283 Y56.405 E2.05751
G1 X51.283 Y55.538 E0.04378
G1 X91.176 Y55.538 E2.01373
G1 X90.703 Y55.065 E0.03377
G1 X84.761 Y55.065 E0.29993
G1 X84.761 Y54.671 E0.01990
G1 X51.283 Y54.671 E1.68993
G1 X51.283 Y54.137 E0.02692
G1 X51.617 Y53.803 E0.02384
G1 X84.427 Y53.803 E1.65621
G1 X83.560 Y52.936 E0.06191
G1 X52.484 Y52.936 E1.56866
G1 X52.863 Y52.558 E0.02701
G1 X56.297 Y52.558 E0.17338
G1 X56.297 Y52.069 E0.02468
G1 X79.747 Y52.069 E1.18371
G1 X79.747 Y51.630 E0.02214
G1 X79.318 Y51.202 E0.03060
G1 X56.726 Y51.202 E1.14043
G1 X57.593 Y50.334 E0.06191
G1 X78.837 Y50.334 E1.07238
; stop printing object Main_Body.stl id:0 copy 0
;LAYER_CHANGE
;Z:0.65
;HEIGHT:0.45
;BEFORE_LAYER_CHANGE
G92 E0.0
;0.65


;WIPE_START
G1 F8640.000
G1 X75.546 Y50.334 E-0.76000
;WIPE_END
G1 E-0.04000 F2100.000
G1 Z0.800 F10800.000
;AFTER_LAYER_CHANGE
;0.65
M104 S260 ; set temperature
G1 X75.546 Y47.727
G1 Z0.650
G1 E0.80000 F2100.000
;TYPE:Skirt
G1 F722.766
G1 X78.837 Y47.727 E0.34080
G1 X79.770 Y47.900 E0.09816
G1 X91.746 Y52.675 E1.33494
G1 X141.918 Y75.253 E5.69658
G1 X162.460 Y85.568 E2.38004
G1 X166.938 Y90.013 E0.65331
G1 X167.342 Y90.623 E0.07575
G1 X167.560 Y91.321 E0.07575
G1 X167.594 Y112.090 E2.15038
G1 X167.452 Y112.884 E0.08351
G1 X167.077 Y113.593 E0.08310
G1 X160.856 Y119.852 E0.91366
G1 X160.118 Y120.355 E0.09247
G1 X79.304 Y153.400 E9.04007
G1 X78.466 Y153.543 E0.08799
M73 Q4 S171
G1 X54.664 Y153.543 E2.46444
G1 X53.861 Y153.405 E0.08432
G1 X53.141 Y153.025 E0.08432
G1 X46.788 Y146.312 E0.95699
G1 X46.363 Y145.613 E0.08473
G1 X46.176 Y144.816 E0.08473
G1 X46.169 Y59.151 E8.86971
G1 X46.243 Y58.535 E0.06428
G1 X46.432 Y58.011 E0.05771
G1 X48.962 Y52.950 E0.58582
G1 X49.428 Y52.306 E0.08228
G1 X51.068 Y50.667 E0.24008
G1 X51.514 Y50.327 E0.05812
G1 X56.773 Y47.860 E0.60143
G1 X57.577 Y47.727 E0.08432
G1 X75.456 Y47.727 E1.85122
; printing object Main_Body.stl id:0 copy 0
;WIPE_START
G1 F8640.000
G1 X78.747 Y47.727 E-0.76000
;WIPE_END
G1 E-0.04000 F2100.000
G1 Z1.250 F10800.000
G1 X161.763 Y110.892
G1 Z0.650
G1 E0.80000 F2100.000
;TYPE:Support material interface
;WIDTH:0.55
G1 F882.166
G1 X161.763 Y93.114 E1.50811
G1 X160.956 Y93.114 E0.06847
G1 X160.956 Y110.664 E1.48875
G1 X160.149 Y110.664 E0.06847
G1 X160.149 Y93.114 E1.48875
G1 X159.531 Y93.114 E0.05247
G1 X159.531 Y90.607 E0.21268
G1 X159.342 Y90.607 E0.01599
G1 X159.342 Y113.171 E1.91411
G1 X158.535 Y113.171 E0.06847
G1 X158.535 Y90.607 E1.91411
G1 X157.728 Y90.607 E0.06847
G1 X157.728 Y113.171 E1.91411
G1 X157.024 Y113.171 E0.05975
G1 X157.024 Y115.678 E0.21268
G1 X156.921 Y115.678 E0.00871
G1 X156.921 Y90.607 E2.12679
G1 X156.114 Y90.607 E0.06847
G1 X156.114 Y115.678 E2.12679
G1 X155.307 Y115.678 E0.06847
G1 X155.307 Y90.607 E2.12679
G1 X154.516 Y90.607 E0.06704
M73 P4 R170
G1 X154.516 Y88.100 E0.21268
G1 X154.500 Y88.100 E0.00143
G1 X154.500 Y115.678 E2.33947
G1 X153.693 Y115.678 E0.06847
G1 X153.693 Y88.100 E2.33947
G1 X152.885 Y88.100 E0.06847
G1 X152.885 Y115.678 E2.33947
G1 X152.078 Y115.678 E0.06847
G1 X152.078 Y88.100 E2.33947
G1 X151.271 Y88.100 E0.06847
G1 X151.271 Y115.678 E2.33947
G1 X150.464 Y115.678 E0.06847
G1 X150.464 Y88.100 E2.33947
G1 X149.657 Y88.100 E0.06847
G1 X149.657 Y115.678 E2.33947
G1 X148.850 Y115.678 E0.06847
G1 X148.850 Y85.593 E2.55215
G1 X148.043 Y85.593 E0.06847
M73 P5 R170
G1 X148.043 Y115.678 E2.55215
G1 X147.236 Y115.678 E0.06847
M73 Q5 S171
G1 X147.236 Y85.593 E2.55215
G1 X146.429 Y85.593 E0.06847
G1 X146.429 Y115.678 E2.55215
G1 X145.622 Y115.678 E0.06847
G1 X145.622 Y85.593 E2.55215
G1 X144.815 Y85.593 E0.06847
G1 X144.815 Y115.678 E2.55215
G1 X144.008 Y115.678 E0.06847
G1 X144.008 Y83.086 E2.76483
G1 X143.201 Y83.086 E0.06847
G1 X143.201 Y115.678 E2.76483
G1 X142.393 Y115.678 E0.06847
G1 X142.393 Y83.086 E2.76483
G1 X141.586 Y83.086 E0.06847
M73 Q5 S170
G1 X141.586 Y115.678 E2.76483
G1 X140.779 Y115.678 E0.06847
G1 X140.779 Y83.086 E2.76483
G1 X139.972 Y83.086 E0.06847
G1 X139.972 Y115.678 E2.76483
G1 X139.165 Y115.678 E0.06847
G1 X139.165 Y80.579 E2.97750
G1 X138.358 Y80.579 E0.06847
G1 X138.358 Y115.678 E2.97750
G1 X137.551 Y115.678 E0.06847
G1 X137.551 Y80.579 E2.97750
G1 X136.744 Y80.579 E0.06847
G1 X136.744 Y115.678 E2.97750
G1 X135.937 Y115.678 E0.06847
G1 X135.937 Y80.579 E2.97750
G1 X135.130 Y80.579 E0.06847
G1 X135.130 Y115.678 E2.97750
G1 X134.323 Y115.678 E0.06847
G1 X134.323 Y80.579 E2.97750
G1 X133.516 Y80.579 E0.06847
G1 X133.516 Y115.678 E2.97750
G1 X132.708 Y115.678 E0.06847
M73 P5 R169
G1 X132.708 Y80.579 E2.97750
G1 X131.953 Y80.579 E0.06411
G1 X131.953 Y78.071 E0.21268
G1 X131.901 Y78.071 E0.00436
G1 X131.901 Y115.678 E3.19018
G1 X131.094 Y115.678 E0.06847
G1 X131.094 Y78.071 E3.19018
G1 X130.287 Y78.071 E0.06847
G1 X130.287 Y115.678 E3.19018
G1 X129.480 Y115.678 E0.06847
G1 X129.480 Y78.071 E3.19018
G1 X128.673 Y78.071 E0.06847
G1 X128.673 Y115.678 E3.19018
G1 X127.866 Y115.678 E0.06847
G1 X127.866 Y78.071 E3.19018
G1 X127.059 Y78.071 E0.06847
G1 X127.059 Y115.678 E3.19018
G1 X126.252 Y115.678 E0.06847
G1 X126.252 Y75.564 E3.40286
