; generated by PrusaSlicer 2.3.0+win64 on 2021-05-17 at 18:05:59 UTC

; 

; external perimeters extrusion width = 0.65mm
; perimeters extrusion width = 0.65mm
; infill extrusion width = 0.65mm
; solid infill extrusion width = 0.65mm
; top infill extrusion width = 0.60mm
; first layer extrusion width = 0.65mm

M73 P0 R61
M73 Q0 S61
M201 X1000 Y1000 Z1000 E5000 ; sets maximum accelerations, mm/sec^2
M203 X200 Y200 Z12 E120 ; sets maximum feedrates, mm/sec
M204 P1250 R1250 T1250 ; sets acceleration (P, T) and retract acceleration (R), mm/sec^2
M205 X8.00 Y8.00 Z0.40 E1.50 ; sets the jerk limits, mm/sec
M205 S0 T0 ; sets the minimum extruding and travel feed rate, mm/sec
M107
;TYPE:Custom
G28 ; home all without mesh bed level
G90 ; use absolute coordinates
M83 ; extruder relative mode
M140 S50 ; set bed temp
M104 S240 ; set extruder temp
M190 S50; wait for bed temp
M109 S240 ; wait for extruder temp
G29 A L1; mesh bed leveling
;G29 J; mesh bed leveling. I don't think this is needed and may cause issues.
G0 X0 Y0 Z0.4 F5000.0; move head to start location
G92 E0.0
G1 X60.0 Z0.4 E9.0 F1000.0 ; intro line
G1 X100.0 E12.5 F1000.0 ; intro line
G92 E0.0
M221 S95
G21 ; set units to millimeters
G90 ; use absolute coordinates
M83 ; use relative distances for extrusion
M900 K0.04 ; Filament gcode LA 1.5
M900 K18 ; Filament gcode LA 1.0
;LAYER_CHANGE
;Z:0.2
;HEIGHT:0.2
;BEFORE_LAYER_CHANGE
G92 E0.0
;0.2


G1 E-0.80000 F2100.000
G1 Z0.600 F10800.000
;AFTER_LAYER_CHANGE
;0.2
G1 X72.258 Y59.714
G1 Z0.200
G1 E0.80000 F2100.000
M204 S1000
;TYPE:Skirt
;WIDTH:0.65
G1 F1200.000
G1 X73.506 Y59.394 E0.06504
G1 X106.361 Y59.366 E1.65852
G1 X107.224 Y59.449 E0.04374
G1 X108.023 Y59.679 E0.04198
G1 X108.814 Y60.077 E0.04472
G1 X109.407 Y60.523 E0.03744
G1 X112.782 Y63.923 E0.24182
G1 X113.408 Y64.959 E0.06111
G1 X113.728 Y66.041 E0.05695
G1 X113.793 Y66.795 E0.03822
G1 X113.792 Y99.213 E1.63640
G1 X113.718 Y99.967 E0.03826
G1 X113.549 Y100.620 E0.03403
G1 X113.246 Y101.322 E0.03861
G1 X112.815 Y101.982 E0.03982
G1 X109.202 Y105.596 E0.25794
G1 X108.091 Y106.241 E0.06485
G1 X106.780 Y106.561 E0.06812
G1 X73.942 Y106.579 E1.65760
G1 X73.192 Y106.506 E0.03806
G1 X72.539 Y106.337 E0.03403
G1 X71.837 Y106.033 E0.03861
G1 X71.177 Y105.602 E0.03982
G1 X67.571 Y101.998 E0.25734
G1 X66.919 Y100.882 E0.06524
G1 X66.598 Y99.565 E0.06844
G1 X66.580 Y66.730 E1.65748
G1 X66.654 Y65.976 E0.03823
G1 X66.820 Y65.334 E0.03346
G1 X67.125 Y64.626 E0.03891
G1 X67.560 Y63.961 E0.04013
G1 X71.154 Y60.363 E0.25674
G1 X72.180 Y59.760 E0.06006
;WIPE_START
G1 F8640.000
G1 X73.506 Y59.394 E-0.31753
G1 X75.422 Y59.393 E-0.44247
;WIPE_END
G1 E-0.04000 F2100.000
G1 Z0.800 F10800.000
G1 X73.185 Y57.471
G1 Z0.200
G1 E0.80000 F2100.000
G1 F1200.000
G1 X106.726 Y57.435 E1.69313
G1 X107.727 Y57.563 E0.05092
G1 X108.288 Y57.711 E0.02931
G1 X108.857 Y57.915 E0.03049
G1 X109.954 Y58.496 E0.06269
G1 X110.928 Y59.276 E0.06297
G1 X114.328 Y62.737 E0.24490
G1 X114.808 Y63.439 E0.04296
G1 X115.209 Y64.222 E0.04439
G1 X115.492 Y65.025 E0.04295
G1 X115.671 Y65.868 E0.04353
G1 X115.739 Y66.733 E0.04381
G1 X115.739 Y99.237 E1.64075
G1 X115.632 Y100.315 E0.05469
M73 P0 R60
G1 X115.366 Y101.320 E0.05246
G1 X114.940 Y102.280 E0.05301
G1 X114.374 Y103.145 E0.05218
G1 X113.862 Y103.736 E0.03946
G1 X110.947 Y106.651 E0.20809
G1 X110.339 Y107.176 E0.04056
G1 X109.631 Y107.648 E0.04295
G1 X108.828 Y108.043 E0.04518
G1 X107.945 Y108.329 E0.04684
G1 X107.100 Y108.486 E0.04339
G1 X73.924 Y108.526 E1.67471
G1 X72.844 Y108.419 E0.05479
G1 X71.839 Y108.153 E0.05246
G1 X70.879 Y107.727 E0.05301
G1 X70.014 Y107.162 E0.05218
G1 X69.423 Y106.650 E0.03946
G1 X66.508 Y103.735 E0.20809
G1 X65.983 Y103.127 E0.04056
G1 X65.511 Y102.419 E0.04295
G1 X65.116 Y101.616 E0.04518
G1 X64.830 Y100.733 E0.04684
G1 X64.673 Y99.888 E0.04339
G1 X64.633 Y66.711 E1.67473
G1 X64.741 Y65.626 E0.05503
G1 X65.005 Y64.628 E0.05213
G1 X65.433 Y63.664 E0.05323
G1 X65.999 Y62.799 E0.05217
G1 X66.521 Y62.199 E0.04014
G1 X69.950 Y58.831 E0.24263
G1 X70.657 Y58.348 E0.04324
G1 X71.487 Y57.927 E0.04698
G1 X72.298 Y57.650 E0.04327
G1 X73.096 Y57.489 E0.04109
G1 X73.215 Y58.084 F10800.000
G1 F1200.000
G1 X106.669 Y58.039 E1.68875
G1 X107.593 Y58.156 E0.04697
G1 X108.099 Y58.288 E0.02643
G1 X108.595 Y58.463 E0.02655
G1 X109.599 Y58.990 E0.05720
G1 X110.508 Y59.715 E0.05873
G1 X113.843 Y63.103 E0.23998
G1 X114.277 Y63.734 E0.03865
G1 X114.659 Y64.480 E0.04230
G1 X114.912 Y65.205 E0.03876
G1 X115.072 Y65.972 E0.03958
G1 X115.132 Y66.745 E0.03911
G1 X115.132 Y99.223 E1.63945
G1 X115.038 Y100.186 E0.04885
G1 X114.800 Y101.099 E0.04762
G1 X114.417 Y101.969 E0.04798
G1 X113.878 Y102.795 E0.04981
G1 X113.426 Y103.314 E0.03472
G1 X110.525 Y106.214 E0.20705
G1 X109.985 Y106.683 E0.03612
G1 X109.343 Y107.113 E0.03900
G1 X108.619 Y107.472 E0.04079
G1 X107.778 Y107.745 E0.04465
G1 X107.019 Y107.883 E0.03896
G1 X73.938 Y107.919 E1.66989
G1 X72.973 Y107.826 E0.04893
G1 X72.060 Y107.587 E0.04762
G1 X71.190 Y107.205 E0.04798
G1 X70.364 Y106.665 E0.04981
G1 X69.845 Y106.213 E0.03472
G1 X66.945 Y103.313 E0.20706
G1 X66.476 Y102.772 E0.03612
G1 X66.045 Y102.131 E0.03900
G1 X65.687 Y101.407 E0.04079
G1 X65.414 Y100.565 E0.04465
G1 X65.275 Y99.806 E0.03896
G1 X65.240 Y66.725 E1.66990
G1 X65.334 Y65.756 E0.04916
G1 X65.571 Y64.849 E0.04729
G1 X65.955 Y63.975 E0.04820
G1 X66.495 Y63.149 E0.04980
G1 X66.954 Y62.624 E0.03524
G1 X70.316 Y59.316 E0.23807
G1 X70.950 Y58.880 E0.03884
G1 X71.742 Y58.479 E0.04480
G1 X72.473 Y58.232 E0.03896
G1 X73.127 Y58.102 E0.03364
G1 X73.244 Y58.697 F10800.000
G1 F1200.000
G1 X73.361 Y58.674 E0.00606
G1 X106.614 Y58.644 E1.67856
G1 X107.459 Y58.748 E0.04296
G1 X107.933 Y58.872 E0.02473
G1 X108.371 Y59.028 E0.02348
G1 X109.289 Y59.512 E0.05240
G1 X110.088 Y60.154 E0.05173
G1 X113.359 Y63.471 E0.23518
G1 X113.746 Y64.029 E0.03429
M73 P1 R60
M73 Q1 S61
G1 X114.109 Y64.737 E0.04014
G1 X114.331 Y65.383 E0.03449
G1 X114.473 Y66.075 E0.03565
G1 X114.525 Y66.756 E0.03448
G1 X114.525 Y99.208 E1.63813
G1 X114.436 Y100.101 E0.04533
M73 Q1 S60
G1 X114.220 Y100.919 E0.04269
G1 X113.873 Y101.699 E0.04308
G1 X113.383 Y102.443 E0.04499
G1 X112.990 Y102.891 E0.03010
G1 X110.103 Y105.778 E0.20607
G1 X109.630 Y106.190 E0.03166
G1 X109.022 Y106.598 E0.03697
G1 X108.372 Y106.917 E0.03656
G1 X107.613 Y107.160 E0.04026
G1 X106.938 Y107.281 E0.03458
G1 X73.952 Y107.312 E1.66510
G1 X73.058 Y107.224 E0.04538
G1 X72.240 Y107.007 E0.04269
G1 X71.460 Y106.661 E0.04308
G1 X70.716 Y106.170 E0.04498
G1 X70.268 Y105.777 E0.03010
G1 X67.381 Y102.891 E0.20607
G1 X66.969 Y102.418 E0.03166
G1 X66.561 Y101.810 E0.03697
G1 X66.242 Y101.160 E0.03656
G1 X65.998 Y100.400 E0.04026
G1 X65.878 Y99.726 E0.03458
G1 X65.847 Y66.740 E1.66512
G1 X65.936 Y65.840 E0.04561
G1 X66.151 Y65.029 E0.04237
G1 X66.499 Y64.245 E0.04330
G1 X66.990 Y63.502 E0.04495
G1 X67.388 Y63.049 E0.03047
G1 X70.684 Y59.800 E0.23360
G1 X71.244 Y59.412 E0.03438
G1 X71.996 Y59.031 E0.04257
G1 X72.645 Y58.814 E0.03456
G1 X73.155 Y58.714 E0.02623
;WIPE_START
G1 F8640.000
G1 X73.361 Y58.674 E-0.04851
G1 X76.443 Y58.671 E-0.71149
;WIPE_END
G1 E-0.04000 F2100.000
G1 Z0.800 F10800.000
G1 X73.385 Y59.906
G1 Z0.200
G1 E0.80000 F2100.000
G1 F1200.000
G1 X73.536 Y59.877 E0.00775
G1 X106.508 Y59.854 E1.66441
G1 X107.197 Y59.934 E0.03499
G1 X107.553 Y60.026 E0.01857
G1 X107.924 Y60.157 E0.01986
G1 X108.623 Y60.527 E0.03991
G1 X109.250 Y61.032 E0.04063
G1 X112.396 Y64.211 E0.22578
G1 X112.687 Y64.624 E0.02548
G1 X112.992 Y65.213 E0.03350
G1 X113.159 Y65.699 E0.02593
G1 X113.275 Y66.276 E0.02971
G1 X113.310 Y66.777 E0.02535
G1 X113.310 Y99.180 E1.63567
G1 X113.248 Y99.847 E0.03382
G1 X113.088 Y100.476 E0.03279
G1 X112.809 Y101.114 E0.03515
G1 X112.397 Y101.733 E0.03753
G1 X112.119 Y102.045 E0.02105
G1 X109.258 Y104.906 E0.20427
G1 X108.917 Y105.206 E0.02291
G1 X108.409 Y105.550 E0.03096
G1 X107.957 Y105.775 E0.02551
G1 X107.284 Y105.991 E0.03569
G1 X106.784 Y106.076 E0.02557
G1 X73.980 Y106.098 E1.65595
G1 X73.312 Y106.036 E0.03384
G1 X72.682 Y105.875 E0.03279
G1 X72.045 Y105.596 E0.03515
G1 X71.426 Y105.184 E0.03753
G1 X71.114 Y104.907 E0.02105
G1 X68.253 Y102.045 E0.20427
G1 X67.953 Y101.705 E0.02291
G1 X67.609 Y101.197 E0.03096
G1 X67.384 Y100.745 E0.02551
G1 X67.168 Y100.071 E0.03569
G1 X67.083 Y99.572 E0.02557
G1 X67.061 Y66.767 E1.65596
G1 X67.124 Y66.095 E0.03405
G1 X67.283 Y65.472 E0.03249
G1 X67.564 Y64.830 E0.03536
G1 X67.976 Y64.212 E0.03748
G1 X68.255 Y63.899 E0.02120
G1 X71.424 Y60.763 E0.22502
G1 X71.836 Y60.473 E0.02545
G1 X72.467 Y60.150 E0.03578
G1 X72.953 Y59.989 E0.02585
G1 X73.297 Y59.923 E0.01767
G1 X73.412 Y60.519 F10800.000
G1 F1200.000
G1 X73.622 Y60.478 E0.01083
G1 X106.458 Y60.459 E1.65750
G1 X107.067 Y60.528 E0.03093
G1 X107.388 Y60.610 E0.01674
G1 X107.697 Y60.721 E0.01658
G1 X108.310 Y61.048 E0.03505
G1 X108.830 Y61.471 E0.03382
G1 X111.917 Y64.585 E0.22133
G1 X112.158 Y64.923 E0.02098
G1 X112.442 Y65.471 E0.03115
G1 X112.577 Y65.873 E0.02140
G1 X112.676 Y66.373 E0.02577
G1 X112.703 Y66.786 E0.02089
G1 X112.703 Y99.167 E1.63453
G1 X112.653 Y99.725 E0.02827
G1 X112.521 Y100.257 E0.02771
G1 X112.264 Y100.845 E0.03237
G1 X111.906 Y101.374 E0.03225
G1 X111.685 Y101.620 E0.01670
G1 X108.834 Y104.471 E0.20350
G1 X108.560 Y104.715 E0.01853
G1 X108.087 Y105.035 E0.02882
G1 X107.711 Y105.220 E0.02116
G1 X107.123 Y105.405 E0.03110
G1 X106.711 Y105.473 E0.02109
G1 X73.992 Y105.491 E1.65161
G1 X73.434 Y105.441 E0.02829
G1 X72.901 Y105.308 E0.02771
G1 X72.314 Y105.051 E0.03237
G1 X71.784 Y104.694 E0.03225
G1 X71.539 Y104.473 E0.01670
G1 X68.688 Y101.622 E0.20350
G1 X68.444 Y101.348 E0.01853
G1 X68.124 Y100.875 E0.02882
G1 X67.939 Y100.499 E0.02116
G1 X67.754 Y99.911 E0.03110
G1 X67.686 Y99.499 E0.02109
G1 X67.668 Y66.780 E1.65161
G1 X67.719 Y66.218 E0.02848
G1 X67.850 Y65.691 E0.02742
G1 X68.109 Y65.099 E0.03258
G1 X68.466 Y64.571 E0.03219
G1 X68.688 Y64.324 E0.01677
G1 X71.797 Y61.242 E0.22098
G1 X72.135 Y61.001 E0.02098
G1 X72.683 Y60.717 E0.03115
G1 X73.089 Y60.581 E0.02157
G1 X73.323 Y60.536 E0.01207
G1 X73.438 Y61.132 F10800.000
G1 F1200.000
G1 X73.709 Y61.080 E0.01392
G1 X106.410 Y61.065 E1.65070
G1 X106.938 Y61.121 E0.02680
G1 X107.222 Y61.194 E0.01483
G1 X107.470 Y61.284 E0.01332
G1 X107.951 Y61.539 E0.02748
G1 X108.411 Y61.911 E0.02981
G1 X111.439 Y64.960 E0.21696
G1 X111.631 Y65.226 E0.01654
G1 X111.876 Y65.692 E0.02655
G1 X111.986 Y66.011 E0.01708
G1 X112.076 Y66.470 E0.02362
G1 X112.096 Y66.795 E0.01641
G1 X112.096 Y99.153 E1.63338
G1 X112.051 Y99.646 E0.02502
G1 X111.953 Y100.042 E0.02060
G1 X111.743 Y100.532 E0.02692
G1 X111.440 Y100.985 E0.02751
G1 X111.250 Y101.197 E0.01435
G1 X108.410 Y104.037 E0.20274
G1 X108.202 Y104.224 E0.01415
G1 X107.766 Y104.519 E0.02655
G1 X107.469 Y104.663 E0.01667
G1 X106.967 Y104.818 E0.02655
G1 X106.641 Y104.869 E0.01662
G1 X74.006 Y104.884 E1.64737
G1 X73.513 Y104.838 E0.02502
G1 X73.117 Y104.740 E0.02060
G1 X72.627 Y104.530 E0.02692
G1 X72.173 Y104.227 E0.02751
G1 X71.962 Y104.037 E0.01435
G1 X69.122 Y101.197 E0.20274
G1 X68.935 Y100.989 E0.01415
G1 X68.640 Y100.554 E0.02655
G1 X68.496 Y100.256 E0.01667
G1 X68.341 Y99.754 E0.02655
G1 X68.289 Y99.429 E0.01662
G1 X68.275 Y66.794 E1.64737
G1 X68.321 Y66.297 E0.02521
G1 X68.418 Y65.906 E0.02032
G1 X68.630 Y65.412 E0.02712
G1 X68.932 Y64.960 E0.02745
G1 X69.122 Y64.749 E0.01435
G1 X72.173 Y61.720 E0.21702
G1 X72.438 Y61.528 E0.01654
G1 X72.904 Y61.283 E0.02654
G1 X73.225 Y61.173 E0.01715
G1 X73.350 Y61.149 E0.00640
;WIPE_START
G1 F8640.000
G1 X73.709 Y61.080 E-0.08444
G1 X76.635 Y61.078 E-0.67556
;WIPE_END
G1 E-0.04000 F2100.000
G1 Z0.800 F10800.000
G1 X72.745 Y62.052
G1 Z0.200
G1 E0.80000 F2100.000
G1 F1200.000
G1 X73.129 Y61.847 E0.02198
G1 X73.364 Y61.765 E0.01254
G1 X73.796 Y61.681 E0.02220
G1 X106.364 Y61.670 E1.64404
G1 X106.812 Y61.716 E0.02273
G1 X107.031 Y61.771 E0.01136
G1 X107.242 Y61.847 E0.01135
G1 X107.637 Y62.059 E0.02261
G1 X107.991 Y62.349 E0.02309
G1 X110.965 Y65.340 E0.21290
G1 X111.107 Y65.532 E0.01209
G1 X111.312 Y65.917 E0.02198
G1 X111.395 Y66.152 E0.01258
G1 X111.476 Y66.566 E0.02132
G1 X111.489 Y66.802 E0.01192
G1 X111.489 Y99.138 E1.63228
G1 X111.449 Y99.566 E0.02173
M73 P2 R60
G1 X111.383 Y99.831 E0.01376
G1 X111.219 Y100.223 E0.02147
G1 X110.972 Y100.598 E0.02264
G1 X110.815 Y100.774 E0.01192
G1 X107.813 Y103.758 E0.21366
G1 X107.449 Y104.001 E0.02207
M73 Q2 S60
G1 X107.232 Y104.104 E0.01216
G1 X106.814 Y104.230 E0.02204
G1 X106.576 Y104.266 E0.01216
G1 X74.021 Y104.277 E1.64332
G1 X73.592 Y104.236 E0.02173
G1 X73.328 Y104.171 E0.01376
G1 X72.935 Y104.007 E0.02147
G1 X72.561 Y103.760 E0.02264
G1 X72.385 Y103.602 E0.01192
G1 X69.401 Y100.600 E0.21366
G1 X69.158 Y100.237 E0.02207
G1 X69.055 Y100.019 E0.01216
G1 X68.929 Y99.601 E0.02204
G1 X68.893 Y99.363 E0.01216
G1 X68.882 Y66.809 E1.64332
G1 X68.923 Y66.377 E0.02190
G1 X68.987 Y66.117 E0.01349
G1 X69.153 Y65.721 E0.02166
G1 X69.400 Y65.348 E0.02258
G1 X69.557 Y65.173 E0.01188
G1 X72.552 Y62.194 E0.21325
G1 X72.673 Y62.105 E0.00755
; printing object Motor_Mount.stl id:0 copy 0
;WIPE_START
G1 F8640.000
G1 X73.129 Y61.847 E-0.12115
G1 X73.364 Y61.765 E-0.05738
G1 X73.796 Y61.681 E-0.10155
G1 X75.874 Y61.681 E-0.47993
;WIPE_END
G1 E-0.04000 F2100.000
G1 Z0.800 F10800.000
G1 X103.672 Y96.339
G1 Z0.200
G1 E0.80000 F2100.000
;TYPE:Perimeter
G1 F1200.000
G1 X103.934 Y96.120 E0.01722
G1 X104.219 Y95.932 E0.01722
G1 X104.524 Y95.779 E0.01722
G1 X104.844 Y95.662 E0.01722
G1 X105.176 Y95.584 E0.01722
G1 X105.515 Y95.544 E0.01722
G1 X105.856 Y95.544 E0.01722
G1 X106.195 Y95.584 E0.01722
G1 X106.527 Y95.662 E0.01722
G1 X106.848 Y95.779 E0.01722
G1 X107.153 Y95.932 E0.01722
G1 X107.438 Y96.120 E0.01722
G1 X107.699 Y96.339 E0.01722
G1 X107.933 Y96.587 E0.01722
G1 X108.137 Y96.861 E0.01722
G1 X108.308 Y97.156 E0.01722
G1 X108.443 Y97.470 E0.01722
G1 X108.541 Y97.797 E0.01722
G1 X108.600 Y98.133 E0.01722
G1 X108.620 Y98.473 E0.01722
G1 X108.600 Y98.814 E0.01722
G1 X108.541 Y99.150 E0.01722
G1 X108.443 Y99.477 E0.01722
G1 X108.308 Y99.790 E0.01722
G1 X108.137 Y100.085 E0.01722
G1 X107.933 Y100.359 E0.01722
G1 X107.699 Y100.607 E0.01722
G1 X107.456 Y100.811 E0.01599
G1 X107.157 Y101.012 E0.01823
G1 X106.848 Y101.167 E0.01744
G1 X106.527 Y101.284 E0.01722
G1 X106.195 Y101.363 E0.01722
G1 X105.856 Y101.402 E0.01722
G1 X105.515 Y101.402 E0.01722
G1 X105.176 Y101.363 E0.01722
G1 X104.844 Y101.284 E0.01722
G1 X104.524 Y101.167 E0.01722
G1 X104.240 Y101.025 E0.01600
G1 X103.937 Y100.829 E0.01823
G1 X103.672 Y100.607 E0.01744
G1 X103.438 Y100.359 E0.01722
G1 X103.234 Y100.085 E0.01722
G1 X103.064 Y99.790 E0.01722
G1 X102.929 Y99.477 E0.01722
G1 X102.831 Y99.150 E0.01722
G1 X102.772 Y98.814 E0.01722
G1 X102.752 Y98.473 E0.01722
G1 X102.772 Y98.133 E0.01722
G1 X102.831 Y97.797 E0.01722
G1 X102.929 Y97.470 E0.01722
G1 X103.064 Y97.156 E0.01722
G1 X103.234 Y96.861 E0.01722
G1 X103.438 Y96.587 E0.01722
G1 X103.611 Y96.405 E0.01268
G1 X104.090 Y96.781 F10800.000
;TYPE:External perimeter
G1 F1200.000
G1 X104.297 Y96.608 E0.01365
G1 X104.523 Y96.459 E0.01365
G1 X104.764 Y96.338 E0.01365
G1 X105.019 Y96.245 E0.01365
G1 X105.282 Y96.183 E0.01365
G1 X105.550 Y96.151 E0.01365
G1 X105.821 Y96.151 E0.01365
G1 X106.090 Y96.183 E0.01365
G1 X106.353 Y96.245 E0.01365
G1 X106.607 Y96.338 E0.01365
G1 X106.849 Y96.459 E0.01365
G1 X107.075 Y96.608 E0.01365
G1 X107.282 Y96.781 E0.01365
G1 X107.467 Y96.978 E0.01365
G1 X107.629 Y97.195 E0.01365
G1 X107.764 Y97.429 E0.01365
G1 X107.871 Y97.678 E0.01365
G1 X107.949 Y97.937 E0.01365
G1 X107.996 Y98.203 E0.01365
G1 X108.012 Y98.473 E0.01365
G1 X107.996 Y98.743 E0.01365
G1 X107.949 Y99.010 E0.01365
G1 X107.871 Y99.269 E0.01365
G1 X107.764 Y99.517 E0.01365
G1 X107.629 Y99.751 E0.01365
G1 X107.467 Y99.968 E0.01365
G1 X107.282 Y100.165 E0.01365
G1 X107.091 Y100.325 E0.01257
G1 X106.850 Y100.487 E0.01466
G1 X106.607 Y100.609 E0.01373
G1 X106.353 Y100.701 E0.01365
G1 X106.090 Y100.764 E0.01365
G1 X105.821 Y100.795 E0.01365
G1 X105.550 Y100.795 E0.01365
G1 X105.282 Y100.764 E0.01365
G1 X105.019 Y100.701 E0.01365
