; generated by PrusaSlicer 2.2.0-alpha2+win64 on 2020-01-13 at 21:40:47 UTC

; 

; external perimeters extrusion width = 0.45mm
; perimeters extrusion width = 0.45mm
; infill extrusion width = 0.45mm
; solid infill extrusion width = 0.45mm
; top infill extrusion width = 0.40mm
; first layer extrusion width = 0.42mm

M73 P0 R103
M73 Q0 S103
M201 X1000 Y1000 Z1000 E5000 ; sets maximum accelerations, mm/sec^2
M203 X200 Y200 Z12 E120 ; sets maximum feedrates, mm/sec
M204 P1250 R1250 T1250 ; sets acceleration (P, T) and retract acceleration (R), mm/sec^2
M205 X8.00 Y8.00 Z0.40 E1.50 ; sets the jerk limits, mm/sec
M205 S0 T0 ; sets the minimum extruding and travel feed rate, mm/sec
M107
M862.3 P "MK3S" ; printer model check
M862.1 P0.4 ; nozzle diameter check
M115 U3.8.1 ; tell printer latest fw version
G90 ; use absolute coordinates
M83 ; extruder relative mode
M104 S215 ; set extruder temp
M140 S60 ; set bed temp
M190 S60 ; wait for bed temp
M109 S215 ; wait for extruder temp
G28 W ; home all without mesh bed level
G80 ; mesh bed leveling
G1 Y-3.0 F1000.0 ; go outside print area
G92 E0.0
G1 X60.0 E9.0 F1000.0 ; intro line
M73 Q0 S103
M73 P0 R103
G1 X100.0 E12.5 F1000.0 ; intro line
G92 E0.0
M221 S95
G21 ; set units to millimeters
G90 ; use absolute coordinates
M83 ; use relative distances for extrusion
M900 K30 ; Filament gcode
;BEFORE_LAYER_CHANGE
G92 E0.0
;0.2


G1 E-0.80000 F2100.00000
G1 Z0.600 F10800.000
;AFTER_LAYER_CHANGE
;0.2
G1 X95.506 Y86.493
G1 Z0.200
G1 E0.80000 F2100.00000
M204 S1000
G1 F1200.000
G1 X96.992 Y84.916 E0.06794
G1 X98.606 Y83.397 E0.06949
G1 X100.306 Y81.981 E0.06937
G1 X102.035 Y80.707 E0.06734
G1 X104.014 Y79.427 E0.07391
G1 X105.886 Y78.373 E0.06734
G1 X107.854 Y77.413 E0.06866
G1 X149.056 Y60.301 E1.39886
G1 X150.357 Y59.842 E0.04323
G1 X151.214 Y59.627 E0.02771
G1 X152.627 Y59.411 E0.04483
G1 X154.062 Y59.363 E0.04501
G1 X155.628 Y59.503 E0.04930
G1 X157.163 Y59.845 E0.04930
G1 X159.140 Y60.612 E0.06651
G1 X160.507 Y61.398 E0.04942
G1 X161.751 Y62.347 E0.04906
G1 X163.233 Y63.880 E0.06687
G1 X164.142 Y65.168 E0.04943
G1 X164.892 Y66.610 E0.05095
G1 X165.378 Y67.913 E0.04361
G1 X165.730 Y69.364 E0.04681
G1 X170.779 Y99.473 E0.95722
G1 X170.864 Y100.442 E0.03052
G1 X170.878 Y141.055 E1.27339
G1 X170.602 Y142.884 E0.05799
G1 X170.026 Y144.573 E0.05597
G1 X169.391 Y145.783 E0.04282
G1 X168.302 Y147.245 E0.05716
G1 X167.469 Y148.075 E0.03686
G1 X166.552 Y148.797 E0.03662
G1 X164.891 Y149.741 E0.05989
G1 X163.753 Y150.173 E0.03818
G1 X162.623 Y150.455 E0.03650
G1 X160.721 Y150.636 E0.05989
G1 X118.555 Y147.290 E1.32626
G1 X116.326 Y146.952 E0.07069
G1 X114.211 Y146.499 E0.06782
G1 X83.789 Y139.606 E0.97803
G1 X82.982 Y139.342 E0.02662
G1 X82.282 Y139.005 E0.02436
G1 X81.165 Y138.203 E0.04310
G1 X80.612 Y137.636 E0.02484
G1 X80.120 Y136.977 E0.02579
G1 X79.718 Y136.255 E0.02591
G1 X79.433 Y135.536 E0.02424
G1 X79.153 Y134.179 E0.04346
G1 X79.131 Y133.398 E0.02448
G1 X79.215 Y132.580 E0.02579
G1 X87.328 Y102.016 E0.99151
G1 X87.907 Y99.945 E0.06741
G1 X88.630 Y97.850 E0.06949
G1 X89.478 Y95.802 E0.06949
G1 X90.450 Y93.806 E0.06961
G1 X91.537 Y91.879 E0.06937
G1 X92.741 Y90.018 E0.06949
G1 X94.054 Y88.233 E0.06949
G1 X95.468 Y86.539 E0.06916
G1 F8640.000
G1 X96.992 Y84.916 E-0.51416
G1 X97.768 Y84.187 E-0.24584
G1 E-0.04000 F2100.00000
G1 Z0.800 F10800.000
G1 X85.960 Y130.678
G1 Z0.200
G1 E0.80000 F2100.00000
G1 F1200.000
G1 X86.147 Y130.726 E0.00607
G1 X86.547 Y130.875 E0.01337
G1 X86.712 Y130.955 E0.00576
G1 X87.066 Y131.176 E0.01306
G1 X87.386 Y131.442 E0.01306
G1 X87.522 Y131.580 E0.00607
G1 X87.648 Y131.727 E0.00607
G1 X87.886 Y132.068 E0.01306
G1 X88.076 Y132.439 E0.01306
G1 X88.146 Y132.620 E0.00607
G1 X88.204 Y132.804 E0.00607
G1 X88.290 Y133.222 E0.01337
G1 X88.309 Y133.405 E0.00576
G1 X88.309 Y133.831 E0.01337
G1 X88.290 Y134.014 E0.00576
G1 X88.206 Y134.422 E0.01306
G1 X88.068 Y134.815 E0.01306
G1 X87.990 Y134.981 E0.00576
G1 X87.771 Y135.347 E0.01337
G1 X87.661 Y135.494 E0.00576
G1 X87.379 Y135.801 E0.01306
G1 X87.058 Y136.067 E0.01306
G1 X86.906 Y136.169 E0.00576
G1 X86.529 Y136.370 E0.01337
G1 X86.359 Y136.439 E0.00576
G1 X85.950 Y136.560 E0.01337
G1 X85.568 Y136.619 E0.01213
G1 X85.151 Y136.626 E0.01306
G1 X84.738 Y136.576 E0.01306
G1 X84.559 Y136.536 E0.00576
G1 X84.154 Y136.402 E0.01337
G1 X83.986 Y136.327 E0.00576
G1 X83.617 Y136.113 E0.01337
G1 X83.468 Y136.006 E0.00576
G1 X83.149 Y135.723 E0.01337
G1 X83.025 Y135.588 E0.00576
G1 X82.770 Y135.246 E0.01337
G1 X82.675 Y135.088 E0.00576
G1 X82.498 Y134.711 E0.01306
G1 X82.373 Y134.314 E0.01306
G1 X82.334 Y134.124 E0.00607
G1 X82.308 Y133.933 E0.00607
G1 X82.294 Y133.506 E0.01337
G1 X82.306 Y133.323 E0.00576
G1 X82.376 Y132.913 E0.01306
G1 X82.501 Y132.515 E0.01306
G1 X82.573 Y132.346 E0.00576
G1 X82.780 Y131.973 E0.01337
G1 X82.885 Y131.823 E0.00576
G1 X83.163 Y131.499 E0.01337
G1 X83.303 Y131.366 E0.00607
G1 X83.452 Y131.242 E0.00607
G1 X83.806 Y131.004 E0.01337
G1 X83.968 Y130.918 E0.00576
G1 X84.354 Y130.760 E0.01306
G1 X84.757 Y130.656 E0.01306
G1 X84.939 Y130.628 E0.00575
G1 X85.358 Y130.607 E0.01317
G1 X85.901 Y130.667 E0.01713
G1 X85.971 Y130.296 F10800.000
G1 F1200.000
G1 X86.260 Y130.366 E0.00934
G1 X86.696 Y130.528 E0.01457
G1 X86.896 Y130.625 E0.00696
G1 X87.287 Y130.869 E0.01446
G1 X87.642 Y131.164 E0.01446
G1 X87.947 Y131.495 E0.01413
G1 X88.210 Y131.874 E0.01446
G1 X88.420 Y132.285 E0.01446
G1 X88.570 Y132.710 E0.01413
G1 X88.663 Y133.165 E0.01457
G1 X88.686 Y133.386 E0.00696
G1 X88.686 Y133.850 E0.01457
G1 X88.663 Y134.071 E0.00696
G1 X88.570 Y134.523 E0.01446
G1 X88.417 Y134.958 E0.01446
G1 X88.323 Y135.159 E0.00696
G1 X88.084 Y135.557 E0.01457
G1 X87.951 Y135.735 E0.00696
G1 X87.639 Y136.075 E0.01446
G1 X87.284 Y136.369 E0.01446
G1 X87.100 Y136.493 E0.00696
G1 X86.690 Y136.711 E0.01457
G1 X86.485 Y136.795 E0.00696
G1 X86.039 Y136.927 E0.01457
G1 X85.593 Y136.995 E0.01413
G1 X85.132 Y137.003 E0.01446
G1 X84.674 Y136.949 E0.01446
G1 X84.458 Y136.900 E0.00696
G1 X84.017 Y136.754 E0.01457
G1 X83.814 Y136.663 E0.00696
G1 X83.412 Y136.430 E0.01457
G1 X83.232 Y136.301 E0.00696
G1 X82.884 Y135.992 E0.01457
G1 X82.734 Y135.829 E0.00696
G1 X82.456 Y135.456 E0.01457
G1 X82.342 Y135.266 E0.00696
G1 X82.146 Y134.849 E0.01446
G1 X82.008 Y134.409 E0.01446
G1 X81.962 Y134.188 E0.00707
G1 X81.932 Y133.964 E0.00707
G1 X81.916 Y133.500 E0.01457
G1 X81.931 Y133.279 E0.00696
G1 X82.009 Y132.824 E0.01446
G1 X82.147 Y132.384 E0.01446
G1 X82.234 Y132.180 E0.00696
G1 X82.460 Y131.774 E0.01457
G1 X82.587 Y131.592 E0.00696
G1 X82.889 Y131.239 E0.01457
G1 X83.053 Y131.084 E0.00707
G1 X83.226 Y130.940 E0.00707
G1 X83.612 Y130.681 E0.01457
G1 X83.808 Y130.576 E0.00696
G1 X84.235 Y130.402 E0.01446
G1 X84.681 Y130.286 E0.01446
G1 X84.900 Y130.252 E0.00695
G1 X85.365 Y130.229 E0.01457
G1 X85.912 Y130.285 E0.01725
G1 X86.074 Y130.576 F10800.000
G1 F8640.000
G1 X86.260 Y130.366 E-0.08266
G1 X86.696 Y130.528 E-0.10731
G1 X86.896 Y130.625 E-0.05123
G1 X87.287 Y130.869 E-0.10649
G1 X87.642 Y131.164 E-0.10649
G1 X87.947 Y131.495 E-0.10404
G1 X88.210 Y131.874 E-0.10649
G1 X88.398 Y132.241 E-0.09529
G1 E-0.04000 F2100.00000
G1 Z0.800 F10800.000
G1 X82.691 Y134.856
G1 Z0.200
G1 E0.80000 F2100.00000
G1 F1200.000
G1 X83.419 Y135.585 E0.03332
G1 X83.771 Y135.876 E0.01476
G1 X84.257 Y136.138 E0.01786
G1 X84.653 Y136.268 E0.01348
G1 X82.656 Y134.271 E0.09131
G1 X82.590 Y133.909 E0.01192
G1 X82.582 Y133.647 E0.00849
G1 X85.276 Y136.341 E0.12323
G1 X85.544 Y136.336 E0.00868
G1 X85.784 Y136.299 E0.00787
G1 X82.624 Y133.139 E0.14453
G1 X82.652 Y132.979 E0.00526
G1 X82.738 Y132.703 E0.00935
G1 X86.221 Y136.185 E0.15927
G1 X86.409 Y136.113 E0.00652
G1 X86.598 Y136.013 E0.00693
G1 X82.909 Y132.324 E0.16872
G1 X83.119 Y131.984 E0.01293
G1 X86.936 Y135.801 E0.17457
G1 X87.230 Y135.545 E0.01261
G1 X83.374 Y131.689 E0.17637
G1 X83.671 Y131.436 E0.01262
G1 X87.488 Y135.252 E0.17458
G1 X87.700 Y134.915 E0.01291
G1 X84.005 Y131.219 E0.16902
G1 X84.089 Y131.174 E0.00308
G1 X84.388 Y131.052 E0.01044
G1 X87.868 Y134.532 E0.15917
G1 X87.933 Y134.346 E0.00637
G1 X87.984 Y134.098 E0.00819
G1 X84.818 Y130.933 E0.14479
G1 X85.328 Y130.892 E0.01652
G1 X88.026 Y133.590 E0.12341
G1 X88.010 Y133.265 E0.01052
G1 X87.948 Y132.962 E0.01001
G1 X85.960 Y130.974 E0.09090
G1 X86.436 Y131.135 E0.01623
G1 X86.900 Y131.406 E0.01738
G1 X87.144 Y131.608 E0.01027
G1 X87.921 Y132.385 E0.03552
G1 F8640.000
G1 X87.144 Y131.608 E-0.25360
G1 X86.900 Y131.406 E-0.07334
G1 X86.436 Y131.135 E-0.12410
G1 X85.960 Y130.974 E-0.11585
G1 X86.552 Y131.566 E-0.19310
G1 E-0.04000 F2100.00000
G1 Z0.800 F10800.000
G1 X113.878 Y116.274
G1 Z0.200
G1 E0.80000 F2100.00000
G1 F1200.000
G1 X113.360 Y115.219 E0.03683
G1 X112.965 Y114.113 E0.03683
G1 X112.699 Y112.969 E0.03683
G1 X112.565 Y111.802 E0.03683
G1 X112.565 Y110.627 E0.03683
G1 X112.699 Y109.460 E0.03683
G1 X112.965 Y108.316 E0.03683
G1 X113.360 Y107.210 E0.03683
G1 X113.878 Y106.155 E0.03683
G1 X114.513 Y105.167 E0.03683
G1 X115.257 Y104.258 E0.03683
G1 X116.099 Y103.439 E0.03683
G1 X117.030 Y102.722 E0.03683
G1 X118.035 Y102.115 E0.03683
G1 X119.104 Y101.627 E0.03683
G1 X120.221 Y101.264 E0.03683
G1 X121.373 Y101.031 E0.03683
G1 X122.525 Y100.932 E0.03628
G1 X123.717 Y100.964 E0.03737
G1 X124.880 Y101.131 E0.03685
G1 X126.016 Y101.430 E0.03683
G1 X127.111 Y101.856 E0.03683
G1 X128.150 Y102.404 E0.03683
G1 X129.119 Y103.067 E0.03683
G1 X130.007 Y103.836 E0.03683
G1 X130.801 Y104.702 E0.03683
G1 X131.492 Y105.652 E0.03683
G1 X132.069 Y106.675 E0.03683
G1 X132.527 Y107.757 E0.03683
G1 X132.858 Y108.884 E0.03683
G1 X133.058 Y110.042 E0.03683
G1 X133.125 Y111.215 E0.03683
G1 X133.058 Y112.387 E0.03683
G1 X132.858 Y113.545 E0.03683
G1 X132.527 Y114.672 E0.03683
G1 X132.069 Y115.754 E0.03683
G1 X131.492 Y116.777 E0.03683
G1 X130.801 Y117.727 E0.03683
G1 X130.007 Y118.593 E0.03683
G1 X129.119 Y119.362 E0.03683
G1 X128.150 Y120.025 E0.03683
G1 X127.111 Y120.573 E0.03683
G1 X126.016 Y120.999 E0.03683
G1 X124.880 Y121.298 E0.03683
G1 X123.717 Y121.465 E0.03683
G1 X122.543 Y121.499 E0.03683
G1 X121.373 Y121.398 E0.03683
G1 X120.221 Y121.165 E0.03683
G1 X119.121 Y120.807 E0.03628
G1 X118.036 Y120.314 E0.03737
G1 X117.030 Y119.707 E0.03685
G1 X116.099 Y118.990 E0.03683
G1 X115.257 Y118.171 E0.03683
G1 X114.513 Y117.262 E0.03683
G1 X113.911 Y116.324 E0.03495
G1 X114.228 Y116.120 F10800.000
G1 F1200.000
G1 X113.708 Y115.072 E0.03668
G1 X113.328 Y114.007 E0.03548
G1 X113.071 Y112.904 E0.03548
G1 X112.942 Y111.780 E0.03548
G1 X112.942 Y110.649 E0.03548
G1 X113.071 Y109.525 E0.03548
G1 X113.328 Y108.422 E0.03548
G1 X113.708 Y107.357 E0.03548
G1 X114.207 Y106.341 E0.03548
G1 X114.819 Y105.389 E0.03548
G1 X115.535 Y104.513 E0.03548
G1 X116.347 Y103.725 E0.03548
G1 X117.243 Y103.034 E0.03548
G1 X118.212 Y102.449 E0.03548
G1 X119.241 Y101.979 E0.03548
G1 X120.317 Y101.629 E0.03548
G1 X121.426 Y101.405 E0.03548
G1 X122.536 Y101.309 E0.03493
G1 X123.685 Y101.340 E0.03602
G1 X124.805 Y101.501 E0.03549
G1 X125.899 Y101.789 E0.03548
G1 X126.954 Y102.199 E0.03548
G1 X127.955 Y102.728 E0.03548
G1 X128.889 Y103.366 E0.03548
G1 X129.744 Y104.107 E0.03548
G1 X130.509 Y104.941 E0.03548
G1 X131.174 Y105.856 E0.03548
G1 X131.731 Y106.842 E0.03548
G1 X132.171 Y107.884 E0.03548
G1 X132.490 Y108.970 E0.03548
G1 X132.683 Y110.085 E0.03548
G1 X132.747 Y111.215 E0.03548
G1 X132.683 Y112.344 E0.03548
G1 X132.490 Y113.459 E0.03548
G1 X132.171 Y114.545 E0.03548
G1 X131.731 Y115.587 E0.03548
G1 X131.174 Y116.573 E0.03548
G1 X130.509 Y117.488 E0.03548
G1 X129.744 Y118.322 E0.03548
G1 X128.889 Y119.063 E0.03548
G1 X127.955 Y119.702 E0.03548
G1 X126.954 Y120.230 E0.03548
G1 X125.899 Y120.640 E0.03548
G1 X124.805 Y120.928 E0.03548
G1 X123.685 Y121.089 E0.03548
G1 X122.554 Y121.121 E0.03548
G1 X121.426 Y121.024 E0.03548
G1 X120.317 Y120.800 E0.03548
G1 X119.258 Y120.455 E0.03493
G1 X118.212 Y119.980 E0.03602
G1 X117.243 Y119.395 E0.03549
G1 X116.347 Y118.704 E0.03548
G1 X115.535 Y117.916 E0.03548
G1 X114.819 Y117.040 E0.03548
G1 X114.260 Y116.171 E0.03239
G1 X113.828 Y116.118 F10800.000
G1 F8640.000
G1 X113.708 Y115.072 E-0.28388
G1 X113.328 Y114.007 E-0.26128
G1 X113.117 Y113.100 E-0.21484
G1 E-0.04000 F2100.00000
G1 Z0.800 F10800.000
G1 X94.658 Y128.845
G1 Z0.200
G1 E0.80000 F2100.00000
G1 F1200.000
G1 X94.245 Y128.206 E0.02385
G1 X93.250 Y126.442 E0.06350
G1 X92.364 Y124.621 E0.06350
G1 X91.589 Y122.750 E0.06350
G1 X90.928 Y120.836 E0.06350
G1 X90.384 Y118.885 E0.06350
G1 X89.959 Y116.905 E0.06350
G1 X89.654 Y114.902 E0.06350
G1 X89.471 Y112.886 E0.06350
G1 X89.410 Y110.861 E0.06350
G1 X89.471 Y108.837 E0.06350
G1 X89.654 Y106.820 E0.06350
G1 X89.959 Y104.818 E0.06350
G1 X90.384 Y102.838 E0.06350
G1 X90.928 Y100.887 E0.06350
G1 X91.589 Y98.973 E0.06350
G1 X92.364 Y97.102 E0.06350
G1 X93.250 Y95.281 E0.06350
G1 X94.245 Y93.517 E0.06350
G1 X95.345 Y91.816 E0.06350
G1 X96.545 Y90.185 E0.06350
G1 X97.841 Y88.629 E0.06350
G1 X99.230 Y87.154 E0.06350
G1 X100.704 Y85.766 E0.06350
G1 X102.260 Y84.470 E0.06350
G1 X103.891 Y83.269 E0.06350
G1 X105.592 Y82.170 E0.06350
G1 X107.356 Y81.175 E0.06350
G1 X109.177 Y80.288 E0.06350
G1 X111.048 Y79.513 E0.06350
G1 X112.962 Y78.853 E0.06350
G1 X114.913 Y78.309 E0.06350
G1 X116.893 Y77.884 E0.06350
G1 X118.895 Y77.579 E0.06350
G1 X120.912 Y77.396 E0.06349
G1 X122.985 Y77.336 E0.06502
G1 X124.961 Y77.396 E0.06199
G1 X126.978 Y77.579 E0.06350
G1 X128.980 Y77.884 E0.06350
G1 X130.960 Y78.309 E0.06350
G1 X132.911 Y78.853 E0.06350
G1 X134.825 Y79.513 E0.06350
G1 X136.696 Y80.288 E0.06350
G1 X138.517 Y81.175 E0.06350
G1 X140.281 Y82.170 E0.06350
G1 X141.982 Y83.269 E0.06350
G1 X143.613 Y84.470 E0.06350
G1 X145.169 Y85.766 E0.06350
G1 X146.643 Y87.154 E0.06350
G1 X148.032 Y88.629 E0.06350
G1 X149.328 Y90.185 E0.06350
G1 X150.528 Y91.816 E0.06350
G1 X151.628 Y93.517 E0.06350
G1 X152.623 Y95.281 E0.06350
G1 X153.509 Y97.102 E0.06350
G1 X154.284 Y98.973 E0.06350
G1 X154.945 Y100.887 E0.06350
G1 X155.489 Y102.838 E0.06350
G1 X155.914 Y104.818 E0.06350
G1 X156.219 Y106.820 E0.06350
G1 X156.402 Y108.837 E0.06350
G1 X156.463 Y110.861 E0.06350
G1 X156.402 Y112.886 E0.06350
G1 X156.219 Y114.902 E0.06350
G1 X155.914 Y116.905 E0.06350
G1 X155.489 Y118.885 E0.06350
G1 X154.945 Y120.836 E0.06350
G1 X154.284 Y122.750 E0.06350
G1 X153.509 Y124.621 E0.06350
G1 X152.623 Y126.442 E0.06350
G1 X151.628 Y128.206 E0.06350
G1 X150.528 Y129.907 E0.06350
G1 X149.328 Y131.538 E0.06350
G1 X148.032 Y133.094 E0.06350
G1 X146.643 Y134.568 E0.06350
G1 X145.169 Y135.956 E0.06350
G1 X143.613 Y137.253 E0.06350
G1 X141.982 Y138.453 E0.06350
G1 X140.281 Y139.553 E0.06350
G1 X138.517 Y140.548 E0.06350
G1 X136.696 Y141.434 E0.06350
G1 X134.825 Y142.209 E0.06350
G1 X132.911 Y142.870 E0.06350
G1 X130.960 Y143.414 E0.06350
G1 X128.980 Y143.839 E0.06350
G1 X126.978 Y144.143 E0.06350
G1 X124.961 Y144.327 E0.06350
G1 X122.937 Y144.388 E0.06349
G1 X120.864 Y144.322 E0.06502
G1 X118.895 Y144.143 E0.06199
G1 X116.893 Y143.839 E0.06350
G1 X114.913 Y143.414 E0.06350
G1 X112.963 Y142.870 E0.06349
G1 X111.003 Y142.191 E0.06502
G1 X109.177 Y141.434 E0.06199
G1 X107.356 Y140.548 E0.06350
G1 X105.592 Y139.553 E0.06350
G1 X103.891 Y138.453 E0.06350
G1 X102.260 Y137.253 E0.06350
G1 X101.641 Y136.737 E0.02525
G1 X100.704 Y135.956 E0.03825
G1 X99.230 Y134.568 E0.06350
G1 X97.841 Y133.094 E0.06350
G1 X96.545 Y131.538 E0.06350
G1 X95.345 Y129.907 E0.06350
G1 X94.691 Y128.895 E0.03777
G1 X94.374 Y129.100 F10800.000
G1 F1200.000
G1 X93.922 Y128.401 E0.02609
G1 X92.916 Y126.617 E0.06421
G1 X92.020 Y124.776 E0.06421
G1 X91.236 Y122.884 E0.06421
G1 X90.568 Y120.948 E0.06421
G1 X90.018 Y118.975 E0.06421
G1 X89.588 Y116.973 E0.06421
G1 X89.280 Y114.948 E0.06421
G1 X89.094 Y112.908 E0.06421
G1 X89.033 Y110.861 E0.06421
G1 X89.094 Y108.814 E0.06421
G1 X89.280 Y106.775 E0.06421
G1 X89.588 Y104.750 E0.06421
G1 X90.018 Y102.748 E0.06421
G1 X90.568 Y100.775 E0.06421
G1 X91.236 Y98.839 E0.06421
G1 X92.020 Y96.947 E0.06421
G1 X92.916 Y95.105 E0.06421
G1 X93.922 Y93.322 E0.06421
G1 X95.034 Y91.602 E0.06421
G1 X96.248 Y89.952 E0.06421
