; generated by PrusaSlicer 2.2.0-alpha2+win64 on 2020-01-13 at 21:47:05 UTC

; 

; external perimeters extrusion width = 0.45mm
; perimeters extrusion width = 0.45mm
; infill extrusion width = 0.45mm
; solid infill extrusion width = 0.45mm
; top infill extrusion width = 0.40mm
; first layer extrusion width = 0.42mm

M73 P0 R78
M73 Q0 S78
M201 X1000 Y1000 Z1000 E5000 ; sets maximum accelerations, mm/sec^2
M203 X200 Y200 Z12 E120 ; sets maximum feedrates, mm/sec
M204 P1250 R1250 T1250 ; sets acceleration (P, T) and retract acceleration (R), mm/sec^2
M205 X8.00 Y8.00 Z0.40 E1.50 ; sets the jerk limits, mm/sec
M205 S0 T0 ; sets the minimum extruding and travel feed rate, mm/sec
M107
M862.3 P "MK3S" ; printer model check
M862.1 P0.4 ; nozzle diameter check
M115 U3.8.1 ; tell printer latest fw version
G90 ; use absolute coordinates
M83 ; extruder relative mode
M104 S215 ; set extruder temp
M140 S60 ; set bed temp
M190 S60 ; wait for bed temp
M109 S215 ; wait for extruder temp
G28 W ; home all without mesh bed level
G80 ; mesh bed leveling
G1 Y-3.0 F1000.0 ; go outside print area
G92 E0.0
G1 X60.0 E9.0 F1000.0 ; intro line
M73 Q0 S78
M73 P0 R78
G1 X100.0 E12.5 F1000.0 ; intro line
G92 E0.0
M221 S95
G21 ; set units to millimeters
G90 ; use absolute coordinates
M83 ; use relative distances for extrusion
M900 K30 ; Filament gcode
;BEFORE_LAYER_CHANGE
G92 E0.0
;0.2


G1 E-0.80000 F2100.00000
G1 Z0.600 F10800.000
;AFTER_LAYER_CHANGE
;0.2
G1 X95.329 Y80.238
G1 Z0.200
G1 E0.80000 F2100.00000
M204 S1000
G1 F1200.000
G1 X96.846 Y78.508 E0.07215
G1 X98.285 Y77.046 E0.06434
G1 X100.686 Y74.901 E0.10095
G1 X102.485 Y73.513 E0.07124
G1 X104.392 Y72.213 E0.07235
G1 X107.234 Y70.571 E0.10291
G1 X108.598 Y69.880 E0.04795
G1 X110.743 Y68.937 E0.07346
G1 X113.682 Y67.882 E0.09793
G1 X115.802 Y67.280 E0.06909
G1 X118.050 Y66.781 E0.07219
G1 X120.460 Y66.399 E0.07652
G1 X122.243 Y66.222 E0.05617
G1 X125.351 Y66.092 E0.09752
G1 X128.780 Y66.260 E0.10767
G1 X130.207 Y66.398 E0.04493
G1 X132.563 Y66.768 E0.07478
G1 X135.793 Y67.532 E0.10406
G1 X137.232 Y67.955 E0.04703
G1 X139.717 Y68.846 E0.08277
G1 X141.910 Y69.796 E0.07496
G1 X143.860 Y70.783 E0.06850
G1 X146.314 Y72.229 E0.08932
G1 X148.218 Y73.528 E0.07225
G1 X150.107 Y74.992 E0.07496
G1 X152.618 Y77.272 E0.10635
G1 X153.652 Y78.311 E0.04595
G1 X155.266 Y80.134 E0.07634
G1 X156.747 Y82.033 E0.07551
G1 X158.064 Y83.952 E0.07298
G1 X159.819 Y86.992 E0.11005
G1 X160.548 Y88.437 E0.05076
G1 X161.488 Y90.604 E0.07404
G1 X162.522 Y93.552 E0.09795
G1 X163.029 Y95.329 E0.05796
G1 X163.560 Y97.702 E0.07622
G1 X163.961 Y100.296 E0.08230
G1 X164.173 Y102.549 E0.07096
G1 X164.251 Y104.989 E0.07654
G1 X164.159 Y107.618 E0.08248
G1 X163.944 Y109.874 E0.07108
G1 X163.563 Y112.285 E0.07654
G1 X163.031 Y114.668 E0.07654
G1 X162.371 Y116.946 E0.07438
G1 X161.519 Y119.324 E0.07918
G1 X160.468 Y121.727 E0.08224
G1 X159.440 Y123.743 E0.07096
G1 X158.193 Y125.851 E0.07678
G1 X156.823 Y127.867 E0.07642
G1 X155.368 Y129.745 E0.07451
G1 X153.608 Y131.735 E0.08330
G1 X151.977 Y133.365 E0.07229
G1 X150.198 Y134.935 E0.07439
G1 X148.211 Y136.481 E0.07895
G1 X146.301 Y137.783 E0.07248
G1 X144.457 Y138.889 E0.06741
G1 X141.602 Y140.348 E0.10052
G1 X139.663 Y141.179 E0.06614
G1 X137.430 Y141.985 E0.07443
G1 X135.048 Y142.681 E0.07781
G1 X133.223 Y143.099 E0.05870
G1 X130.073 Y143.622 E0.10014
G1 X127.822 Y143.832 E0.07087
G1 X125.483 Y143.910 E0.07337
G1 X122.377 Y143.794 E0.09748
G1 X120.259 Y143.577 E0.06674
G1 X118.059 Y143.224 E0.06988
G1 X115.661 Y142.688 E0.07704
G1 X113.690 Y142.123 E0.06427
G1 X110.984 Y141.166 E0.09000
G1 X108.815 Y140.227 E0.07410
G1 X107.242 Y139.436 E0.05521
G1 X104.346 Y137.760 E0.10491
G1 X102.438 Y136.457 E0.07244
G1 X100.592 Y135.025 E0.07326
G1 X98.100 Y132.769 E0.10539
G1 X97.054 Y131.718 E0.04649
G1 X95.465 Y129.927 E0.07507
G1 X93.883 Y127.901 E0.08061
G1 X92.544 Y125.936 E0.07453
G1 X91.193 Y123.650 E0.08326
G1 X90.127 Y121.552 E0.07380
G1 X89.177 Y119.357 E0.07501
G1 X88.151 Y116.421 E0.09752
G1 X87.642 Y114.630 E0.05837
G1 X87.116 Y112.266 E0.07593
G1 X86.736 Y109.859 E0.07640
G1 X86.520 Y107.593 E0.07136
G1 X86.431 Y104.998 E0.08144
G1 X86.517 Y102.433 E0.08045
G1 X86.740 Y100.108 E0.07323
G1 X87.119 Y97.721 E0.07580
G1 X87.925 Y94.382 E0.10769
G1 X88.329 Y93.000 E0.04515
G1 X89.162 Y90.684 E0.07716
G1 X90.097 Y88.515 E0.07405
G1 X91.136 Y86.458 E0.07225
G1 X92.529 Y84.090 E0.08616
G1 X93.871 Y82.119 E0.07476
G1 X95.292 Y80.286 E0.07272
G1 F8640.000
G1 X96.846 Y78.508 E-0.54513
G1 X97.499 Y77.845 E-0.21487
G1 E-0.04000 F2100.00000
G1 Z0.800 F10800.000
G1 X98.026 Y82.649
G1 Z0.200
G1 E0.80000 F2100.00000
G1 F1200.000
G1 X99.406 Y81.053 E0.06618
G1 X100.983 Y79.450 E0.07047
G1 X102.688 Y77.927 E0.07168
G1 X104.488 Y76.518 E0.07168
G1 X106.375 Y75.228 E0.07168
G1 X108.342 Y74.062 E0.07169
G1 X110.416 Y73.011 E0.07289
G1 X112.482 Y72.126 E0.07047
G1 X114.637 Y71.362 E0.07169
G1 X116.874 Y70.731 E0.07289
G1 X119.072 Y70.261 E0.07047
G1 X121.334 Y69.928 E0.07168
G1 X123.613 Y69.743 E0.07168
G1 X125.938 Y69.706 E0.07293
G1 X128.221 Y69.818 E0.07165
G1 X130.454 Y70.073 E0.07047
G1 X132.704 Y70.477 E0.07169
G1 X134.961 Y71.037 E0.07289
G1 X137.103 Y71.717 E0.07047
G1 X139.233 Y72.549 E0.07169
G1 X141.338 Y73.534 E0.07289
G1 X143.309 Y74.615 E0.07047
G1 X145.238 Y75.842 E0.07169
G1 X147.114 Y77.215 E0.07289
G1 X148.838 Y78.657 E0.07047
G1 X150.494 Y80.233 E0.07169
G1 X152.070 Y81.943 E0.07289
G1 X153.483 Y83.690 E0.07047
G1 X154.804 Y85.556 E0.07169
G1 X156.020 Y87.538 E0.07289
G1 X157.069 Y89.526 E0.07047
G1 X158.004 Y91.612 E0.07169
G1 X158.815 Y93.791 E0.07289
G1 X159.460 Y95.944 E0.07047
G1 X159.975 Y98.171 E0.07169
G1 X160.349 Y100.466 E0.07289
G1 X160.567 Y102.703 E0.07047
G1 X160.642 Y104.988 E0.07169
G1 X160.566 Y107.311 E0.07289
G1 X160.348 Y109.549 E0.07047
G1 X159.981 Y111.805 E0.07169
G1 X159.457 Y114.070 E0.07289
G1 X158.811 Y116.223 E0.07047
G1 X158.015 Y118.366 E0.07169
G1 X157.064 Y120.488 E0.07289
G1 X156.015 Y122.475 E0.07047
G1 X154.819 Y124.424 E0.07169
G1 X153.477 Y126.322 E0.07289
G1 X152.063 Y128.069 E0.07047
G1 X150.514 Y129.751 E0.07169
G1 X148.830 Y131.354 E0.07289
G1 X147.106 Y132.795 E0.07047
G1 X145.261 Y134.146 E0.07169
G1 X143.299 Y135.394 E0.07289
G1 X141.329 Y136.475 E0.07047
G1 X139.258 Y137.444 E0.07169
G1 X137.092 Y138.289 E0.07289
G1 X134.950 Y138.970 E0.07047
G1 X132.731 Y139.521 E0.07168
G1 X130.482 Y139.927 E0.07168
G1 X128.210 Y140.186 E0.07169
G1 X125.888 Y140.298 E0.07289
G1 X123.640 Y140.262 E0.07047
G1 X121.362 Y140.078 E0.07168
G1 X119.099 Y139.747 E0.07169
G1 X116.826 Y139.260 E0.07289
G1 X114.663 Y138.649 E0.07047
G1 X112.507 Y137.888 E0.07169
G1 X110.371 Y136.971 E0.07289
G1 X108.367 Y135.954 E0.07047
G1 X106.399 Y134.790 E0.07169
G1 X104.479 Y133.479 E0.07289
G1 X102.709 Y132.094 E0.07047
G1 X101.003 Y130.572 E0.07169
G1 X99.373 Y128.914 E0.07289
G1 X97.903 Y127.213 E0.07047
G1 X96.523 Y125.391 E0.07169
G1 X95.244 Y123.450 E0.07289
G1 X94.131 Y121.497 E0.07047
G1 X93.128 Y119.442 E0.07169
G1 X92.248 Y117.291 E0.07289
G1 X91.533 Y115.160 E0.07047
G1 X90.946 Y112.950 E0.07168
G1 X90.504 Y110.707 E0.07168
G1 X90.207 Y108.440 E0.07169
G1 X90.058 Y106.120 E0.07289
G1 X90.058 Y103.872 E0.07047
G1 X90.205 Y101.591 E0.07168
G1 X90.499 Y99.324 E0.07169
G1 X90.949 Y97.043 E0.07289
G1 X91.525 Y94.870 E0.07047
G1 X92.252 Y92.702 E0.07169
G1 X93.133 Y90.551 E0.07289
G1 X94.118 Y88.531 E0.07047
G1 X95.249 Y86.544 E0.07168
G1 X96.507 Y84.635 E0.07168
G1 X97.987 Y82.695 E0.07651
G1 X98.272 Y82.941 F10800.000
G1 F1200.000
G1 X99.684 Y81.308 E0.06768
G1 X101.243 Y79.724 E0.06971
G1 X102.930 Y78.217 E0.07092
G1 X104.711 Y76.822 E0.07092
G1 X106.578 Y75.546 E0.07092
G1 X108.524 Y74.393 E0.07092
G1 X110.576 Y73.353 E0.07212
G1 X112.619 Y72.477 E0.06971
G1 X114.751 Y71.722 E0.07092
G1 X116.965 Y71.097 E0.07212
G1 X119.139 Y70.633 E0.06971
G1 X121.377 Y70.303 E0.07092
G1 X123.631 Y70.119 E0.07092
G1 X125.932 Y70.083 E0.07214
G1 X128.190 Y70.194 E0.07091
G1 X130.399 Y70.446 E0.06971
G1 X132.626 Y70.846 E0.07092
G1 X134.858 Y71.400 E0.07212
G1 X136.977 Y72.073 E0.06971
G1 X139.084 Y72.895 E0.07092
G1 X141.168 Y73.870 E0.07212
G1 X143.117 Y74.940 E0.06971
G1 X145.025 Y76.153 E0.07092
G1 X146.881 Y77.512 E0.07212
G1 X148.587 Y78.938 E0.06971
G1 X150.226 Y80.498 E0.07092
G1 X151.784 Y82.189 E0.07212
G1 X153.183 Y83.918 E0.06971
G1 X154.489 Y85.764 E0.07092
G1 X155.692 Y87.725 E0.07212
G1 X156.730 Y89.691 E0.06971
G1 X157.655 Y91.755 E0.07092
G1 X158.457 Y93.911 E0.07212
G1 X159.096 Y96.040 E0.06971
G1 X159.605 Y98.244 E0.07092
G1 X159.975 Y100.514 E0.07212
G1 X160.191 Y102.727 E0.06971
G1 X160.265 Y104.988 E0.07092
G1 X160.190 Y107.287 E0.07212
G1 X159.974 Y109.500 E0.06971
G1 X159.610 Y111.732 E0.07092
G1 X159.093 Y113.973 E0.07212
G1 X158.454 Y116.103 E0.06971
G1 X157.666 Y118.223 E0.07092
G1 X156.725 Y120.322 E0.07212
G1 X155.687 Y122.288 E0.06971
G1 X154.504 Y124.216 E0.07092
G1 X153.176 Y126.094 E0.07212
G1 X151.777 Y127.823 E0.06971
G1 X150.245 Y129.486 E0.07092
G1 X148.579 Y131.072 E0.07212
G1 X146.873 Y132.498 E0.06971
G1 X145.048 Y133.834 E0.07092
G1 X143.107 Y135.069 E0.07212
G1 X141.158 Y136.139 E0.06971
G1 X139.109 Y137.097 E0.07092
G1 X136.967 Y137.934 E0.07212
G1 X134.848 Y138.607 E0.06971
G1 X132.652 Y139.152 E0.07092
G1 X130.427 Y139.554 E0.07092
G1 X128.179 Y139.810 E0.07092
G1 X125.882 Y139.921 E0.07212
G1 X123.659 Y139.885 E0.06971
G1 X121.404 Y139.703 E0.07092
G1 X119.166 Y139.376 E0.07092
G1 X116.917 Y138.894 E0.07212
G1 X114.777 Y138.290 E0.06971
G1 X112.645 Y137.536 E0.07092
G1 X110.531 Y136.630 E0.07212
G1 X108.548 Y135.623 E0.06971
G1 X106.601 Y134.472 E0.07092
G1 X104.702 Y133.174 E0.07212
G1 X102.951 Y131.804 E0.06971
G1 X101.263 Y130.299 E0.07092
G1 X99.650 Y128.659 E0.07212
G1 X98.197 Y126.976 E0.06971
G1 X96.831 Y125.173 E0.07092
G1 X95.565 Y123.252 E0.07212
G1 X94.464 Y121.321 E0.06971
G1 X93.473 Y119.288 E0.07092
G1 X92.602 Y117.159 E0.07212
G1 X91.894 Y115.051 E0.06971
G1 X91.314 Y112.865 E0.07092
G1 X90.876 Y110.646 E0.07092
G1 X90.583 Y108.403 E0.07092
G1 X90.435 Y106.108 E0.07212
G1 X90.435 Y103.884 E0.06971
G1 X90.580 Y101.627 E0.07092
G1 X90.872 Y99.384 E0.07092
G1 X91.316 Y97.128 E0.07212
G1 X91.886 Y94.978 E0.06971
G1 X92.605 Y92.834 E0.07092
G1 X93.477 Y90.705 E0.07212
G1 X94.451 Y88.707 E0.06971
G1 X95.571 Y86.742 E0.07092
G1 X96.815 Y84.853 E0.07092
G1 X98.233 Y82.987 E0.07348
G1 X98.129 Y82.568 F10800.000
G1 X97.589 Y82.487
G1 F1200.000
G1 X97.794 Y82.222 E0.01051
G1 X99.242 Y80.577 E0.06872
G1 X100.879 Y78.938 E0.07263
G1 X102.578 Y77.441 E0.07099
G1 X104.335 Y76.080 E0.06968
G1 X106.171 Y74.832 E0.06962
G1 X108.081 Y73.700 E0.06960
G1 X110.057 Y72.690 E0.06958
G1 X112.273 Y71.732 E0.07571
G1 X114.363 Y70.985 E0.06960
G1 X116.307 Y70.420 E0.06345
G1 X118.783 Y69.866 E0.07955
G1 X120.865 Y69.538 E0.06611
G1 X123.092 Y69.327 E0.07012
G1 X125.336 Y69.257 E0.07039
G1 X127.589 Y69.327 E0.07070
G1 X129.811 Y69.537 E0.06996
G1 X132.014 Y69.885 E0.06994
G1 X134.190 Y70.370 E0.06991
G1 X136.529 Y71.056 E0.07643
G1 X138.493 Y71.764 E0.06544
G1 X140.562 Y72.659 E0.07070
G1 X142.525 Y73.658 E0.06907
G1 X144.436 Y74.785 E0.06954
G1 X146.352 Y76.084 E0.07259
G1 X148.125 Y77.459 E0.07036
G1 X149.787 Y78.923 E0.06944
G1 X151.521 Y80.671 E0.07720
G1 X152.860 Y82.189 E0.06346
G1 X154.236 Y83.960 E0.07032
G1 X155.499 Y85.813 E0.07031
G1 X156.643 Y87.742 E0.07031
G1 X157.690 Y89.794 E0.07224
G1 X158.574 Y91.838 E0.06982
G1 X159.334 Y93.949 E0.07034
G1 X159.986 Y96.205 E0.07362
G1 X160.452 Y98.299 E0.06727
G1 X160.804 Y100.519 E0.07050
G1 X161.016 Y102.774 E0.07102
G1 X161.086 Y105.000 E0.06981
G1 X161.016 Y107.244 E0.07041
G1 X160.802 Y109.499 E0.07102
G1 X160.453 Y111.698 E0.06981
G1 X159.964 Y113.889 E0.07039
G1 X159.331 Y116.064 E0.07103
G1 X158.577 Y118.159 E0.06980
G1 X157.685 Y120.220 E0.07042
G1 X156.665 Y122.221 E0.07040
G1 X155.522 Y124.154 E0.07041
G1 X154.260 Y126.011 E0.07041
G1 X152.884 Y127.786 E0.07041
G1 X151.398 Y129.470 E0.07042
G1 X149.811 Y131.058 E0.07041
G1 X148.126 Y132.543 E0.07041
G1 X146.353 Y133.919 E0.07036
G1 X144.529 Y135.160 E0.06916
G1 X142.632 Y136.285 E0.06917
G1 X140.670 Y137.291 E0.06913
G1 X138.376 Y138.283 E0.07836
G1 X136.407 Y138.991 E0.06560
G1 X134.232 Y139.623 E0.07103
G1 X132.040 Y140.113 E0.07041
G1 X129.832 Y140.463 E0.07010
G1 X127.413 Y140.683 E0.07618
G1 X125.389 Y140.747 E0.06349
G1 X123.179 Y140.681 E0.06930
G1 X120.794 Y140.456 E0.07513
G1 X118.644 Y140.114 E0.06825
G1 X116.446 Y139.623 E0.07061
G1 X114.267 Y138.988 E0.07115
G1 X112.265 Y138.268 E0.06672
G1 X110.125 Y137.347 E0.07306
G1 X108.075 Y136.300 E0.07216
G1 X106.333 Y135.270 E0.06347
G1 X104.319 Y133.912 E0.07616
G1 X102.561 Y132.547 E0.06978
G1 X100.891 Y131.077 E0.06977
G1 X99.179 Y129.354 E0.07616
G1 X97.840 Y127.835 E0.06347
G1 X96.428 Y126.019 E0.07214
G1 X95.156 Y124.148 E0.07093
G1 X94.023 Y122.231 E0.06982
G1 X92.975 Y120.173 E0.07242
G1 X92.104 Y118.155 E0.06890
G1 X91.359 Y116.089 E0.06886
G1 X90.717 Y113.882 E0.07207
G1 X90.228 Y111.693 E0.07035
G1 X89.877 Y109.476 E0.07036
G1 X89.666 Y107.242 E0.07036
G1 X89.596 Y105.016 E0.06983
G1 X89.667 Y102.753 E0.07098
G1 X89.878 Y100.517 E0.07044
G1 X90.229 Y98.306 E0.07020
G1 X90.716 Y96.122 E0.07015
G1 X91.412 Y93.768 E0.07696
G1 X92.098 Y91.864 E0.06346
G1 X92.985 Y89.809 E0.07016
G1 X94.107 Y87.627 E0.07695
G1 X95.158 Y85.852 E0.06465
G1 X96.420 Y83.994 E0.07043
G1 X97.552 Y82.535 E0.05791
G1 X97.254 Y82.304 F10800.000
G1 F1200.000
G1 X97.503 Y81.982 E0.01275
G1 X98.967 Y80.319 E0.06946
G1 X100.621 Y78.663 E0.07339
G1 X102.338 Y77.151 E0.07174
G1 X104.113 Y75.775 E0.07042
G1 X105.969 Y74.513 E0.07036
G1 X107.899 Y73.370 E0.07034
G1 X109.896 Y72.349 E0.07033
G1 X112.135 Y71.381 E0.07648
G1 X114.247 Y70.626 E0.07033
G1 X116.213 Y70.055 E0.06418
G1 X118.712 Y69.495 E0.08030
G1 X120.818 Y69.163 E0.06685
G1 X123.068 Y68.951 E0.07086
G1 X125.335 Y68.879 E0.07113
G1 X127.613 Y68.951 E0.07145
G1 X129.858 Y69.163 E0.07069
G1 X132.085 Y69.514 E0.07068
G1 X134.285 Y70.004 E0.07067
G1 X136.646 Y70.697 E0.07718
G1 X138.632 Y71.413 E0.06617
G1 X140.723 Y72.318 E0.07143
G1 X142.707 Y73.328 E0.06980
G1 X144.638 Y74.466 E0.07028
G1 X146.574 Y75.778 E0.07334
G1 X148.366 Y77.168 E0.07111
G1 X150.046 Y78.648 E0.07020
G1 X151.797 Y80.413 E0.07795
G1 X153.150 Y81.948 E0.06417
G1 X154.541 Y83.738 E0.07106
G1 X155.817 Y85.611 E0.07106
G1 X156.973 Y87.560 E0.07105
G1 X158.031 Y89.634 E0.07299
G1 X158.925 Y91.699 E0.07057
G1 X159.693 Y93.832 E0.07110
G1 X160.351 Y96.111 E0.07437
G1 X160.823 Y98.228 E0.06800
G1 X161.178 Y100.472 E0.07124
G1 X161.393 Y102.751 E0.07176
G1 X161.463 Y105.000 E0.07055
G1 X161.392 Y107.268 E0.07115
G1 X161.176 Y109.546 E0.07176
G1 X160.824 Y111.769 E0.07055
G1 X160.329 Y113.983 E0.07114
G1 X159.689 Y116.181 E0.07177
G1 X158.927 Y118.298 E0.07054
G1 X158.026 Y120.381 E0.07117
G1 X156.996 Y122.403 E0.07114
G1 X155.841 Y124.356 E0.07116
G1 X154.565 Y126.233 E0.07116
G1 X153.174 Y128.026 E0.07116
G1 X151.673 Y129.729 E0.07116
G1 X150.069 Y131.333 E0.07115
G1 X148.367 Y132.834 E0.07116
G1 X146.575 Y134.224 E0.07110
G1 X144.732 Y135.478 E0.06990
G1 X142.815 Y136.616 E0.06990
G1 X140.831 Y137.632 E0.06988
G1 X138.515 Y138.634 E0.07912
G1 X136.524 Y139.350 E0.06634
G1 X134.326 Y139.989 E0.07177
G1 X132.111 Y140.484 E0.07116
G1 X129.879 Y140.838 E0.07086
G1 X127.436 Y141.059 E0.07692
G1 X125.389 Y141.124 E0.06420
G1 X123.156 Y141.057 E0.07004
G1 X120.746 Y140.830 E0.07589
G1 X118.573 Y140.484 E0.06899
G1 X116.352 Y139.988 E0.07135
G1 X114.151 Y139.347 E0.07189
G1 X112.127 Y138.619 E0.06745
G1 X109.965 Y137.688 E0.07381
G1 X107.893 Y136.631 E0.07291
G1 X106.131 Y135.589 E0.06418
G1 X104.098 Y134.217 E0.07690
G1 X102.320 Y132.838 E0.07054
G1 X100.632 Y131.351 E0.07053
G1 X98.903 Y129.611 E0.07690
G1 X97.549 Y128.076 E0.06418
G1 X96.123 Y126.241 E0.07288
G1 X94.838 Y124.350 E0.07168
G1 X93.692 Y122.413 E0.07057
G1 X92.634 Y120.333 E0.07317
G1 X91.753 Y118.294 E0.06964
G1 X91.000 Y116.206 E0.06959
G1 X90.351 Y113.976 E0.07282
G1 X89.857 Y111.763 E0.07110
