; generated by PrusaSlicer 2.2.0-alpha2+win64 on 2020-01-13 at 21:55:26 UTC

; 

; external perimeters extrusion width = 0.45mm
; perimeters extrusion width = 0.45mm
; infill extrusion width = 0.45mm
; solid infill extrusion width = 0.45mm
; top infill extrusion width = 0.40mm
; first layer extrusion width = 0.42mm

M73 P0 R134
M73 Q0 S135
M201 X1000 Y1000 Z1000 E5000 ; sets maximum accelerations, mm/sec^2
M203 X200 Y200 Z12 E120 ; sets maximum feedrates, mm/sec
M204 P1250 R1250 T1250 ; sets acceleration (P, T) and retract acceleration (R), mm/sec^2
M205 X8.00 Y8.00 Z0.40 E1.50 ; sets the jerk limits, mm/sec
M205 S0 T0 ; sets the minimum extruding and travel feed rate, mm/sec
M107
M862.3 P "MK3S" ; printer model check
M862.1 P0.4 ; nozzle diameter check
M115 U3.8.1 ; tell printer latest fw version
G90 ; use absolute coordinates
M83 ; extruder relative mode
M104 S215 ; set extruder temp
M140 S60 ; set bed temp
M190 S60 ; wait for bed temp
M109 S215 ; wait for extruder temp
G28 W ; home all without mesh bed level
G80 ; mesh bed leveling
G1 Y-3.0 F1000.0 ; go outside print area
G92 E0.0
G1 X60.0 E9.0 F1000.0 ; intro line
M73 Q0 S135
M73 P0 R134
G1 X100.0 E12.5 F1000.0 ; intro line
G92 E0.0
M221 S95
G21 ; set units to millimeters
G90 ; use absolute coordinates
M83 ; use relative distances for extrusion
M900 K30 ; Filament gcode
;BEFORE_LAYER_CHANGE
G92 E0.0
;0.2


G1 E-0.80000 F2100.00000
G1 Z0.600 F10800.000
;AFTER_LAYER_CHANGE
;0.2
G1 X87.016 Y64.351
G1 Z0.200
G1 E0.80000 F2100.00000
M204 S1000
G1 F1200.000
G1 X89.035 Y61.830 E0.10127
G1 X91.429 Y59.236 E0.11070
G1 X94.171 Y56.695 E0.11721
G1 X96.535 Y54.794 E0.09511
G1 X99.183 Y52.944 E0.10127
G1 X102.215 Y51.128 E0.11081
G1 X105.558 Y49.464 E0.11710
G1 X108.358 Y48.308 E0.09498
G1 X111.420 Y47.279 E0.10128
G1 X114.844 Y46.390 E0.11090
G1 X118.518 Y45.737 E0.11702
G1 X121.530 Y45.416 E0.09496
G1 X124.910 Y45.289 E0.10604
G1 X128.762 Y45.446 E0.12089
G1 X131.722 Y45.767 E0.09334
G1 X134.939 Y46.343 E0.10248
G1 X138.316 Y47.197 E0.10923
G1 X141.835 Y48.385 E0.11644
G1 X144.718 Y49.585 E0.09791
G1 X147.390 Y50.921 E0.09368
G1 X150.641 Y52.826 E0.11813
G1 X153.400 Y54.743 E0.10535
G1 X155.794 Y56.666 E0.09627
G1 X158.561 Y59.226 E0.11821
G1 X160.961 Y61.825 E0.11092
G1 X162.981 Y64.346 E0.10128
G1 X164.712 Y66.834 E0.09502
G1 X166.625 Y70.041 E0.11707
G1 X168.195 Y73.210 E0.11090
G1 X169.421 Y76.195 E0.10119
G1 X170.381 Y79.070 E0.09501
G1 X171.313 Y82.689 E0.11719
G1 X171.926 Y86.169 E0.11078
G1 X172.262 Y89.382 E0.10131
G1 X172.375 Y92.557 E0.09959
G1 X172.235 Y96.283 E0.11691
G1 X171.880 Y99.501 E0.10150
G1 X171.345 Y102.479 E0.09489
G1 X170.429 Y106.103 E0.11720
G1 X169.300 Y109.449 E0.11071
G1 X168.054 Y112.432 E0.10138
G1 X166.700 Y115.143 E0.09501
G1 X164.800 Y118.362 E0.11720
G1 X162.773 Y121.255 E0.11077
G1 X160.740 Y123.762 E0.10120
G1 X158.575 Y126.088 E0.09961
G1 X155.839 Y128.626 E0.11703
G1 X153.315 Y130.647 E0.10137
G1 X150.828 Y132.377 E0.09500
G1 X147.621 Y134.290 E0.11708
G1 X144.453 Y135.859 E0.11085
G1 X141.466 Y137.086 E0.10124
G1 X138.589 Y138.047 E0.09512
G1 X134.972 Y138.978 E0.11709
G1 X131.489 Y139.591 E0.11088
G1 X128.279 Y139.926 E0.10120
G1 X125.105 Y140.040 E0.09959
G1 X121.373 Y139.899 E0.11708
G1 X118.161 Y139.543 E0.10135
G1 X115.178 Y139.008 E0.09500
G1 X111.558 Y138.093 E0.11709
G1 X108.208 Y136.962 E0.11086
G1 X105.409 Y135.799 E0.09501
G1 X102.515 Y134.362 E0.10133
G1 X99.300 Y132.463 E0.11709
G1 X96.691 Y130.652 E0.09957
G1 X94.171 Y128.634 E0.10123
G1 X91.573 Y126.236 E0.11085
G1 X89.033 Y123.496 E0.11712
G1 X87.132 Y121.133 E0.09512
G1 X85.283 Y118.487 E0.10120
G1 X83.466 Y115.453 E0.11089
G1 X81.802 Y112.110 E0.11709
G1 X80.645 Y109.310 E0.09499
G1 X79.615 Y106.247 E0.10132
G1 X78.685 Y102.630 E0.11710
G1 X78.121 Y99.505 E0.09954
G1 X77.766 Y96.296 E0.10125
G1 X77.625 Y92.764 E0.11083
G1 X77.766 Y89.030 E0.11716
G1 X78.093 Y86.016 E0.09504
G1 X78.657 Y82.836 E0.10126
G1 X79.517 Y79.408 E0.11083
G1 X80.704 Y75.868 E0.11706
G1 X81.867 Y73.069 E0.09502
G1 X83.305 Y70.174 E0.10138
G1 X85.203 Y66.961 E0.11699
G1 X86.981 Y64.400 E0.09776
G1 F8640.000
G1 X89.035 Y61.830 E-0.75959
G1 X89.036 Y61.829 E-0.00041
G1 E-0.04000 F2100.00000
G1 Z0.800 F10800.000
G1 X115.366 Y131.376
G1 Z0.200
G1 E0.80000 F2100.00000
G1 F1200.000
G1 X117.013 Y126.962 E0.14772
G1 X108.576 Y123.815 E0.28232
G1 X106.930 Y128.229 E0.14772
G1 X103.501 Y126.214 E0.12472
G1 X100.981 Y124.459 E0.09627
G1 X98.605 Y122.515 E0.09626
G1 X96.385 Y120.394 E0.09626
G1 X94.335 Y118.109 E0.09626
G1 X92.467 Y115.672 E0.09627
G1 X90.792 Y113.099 E0.09626
G1 X89.320 Y110.405 E0.09626
G1 X88.060 Y107.605 E0.09626
G1 X87.020 Y104.717 E0.09626
G1 X86.204 Y101.757 E0.09627
G1 X85.619 Y98.743 E0.09626
G1 X85.268 Y95.693 E0.09625
G1 X85.153 Y92.625 E0.09626
G1 X85.274 Y89.557 E0.09627
G1 X85.639 Y86.471 E0.09744
G1 X86.222 Y83.495 E0.09507
G1 X87.043 Y80.537 E0.09626
G1 X88.090 Y77.651 E0.09626
G1 X89.355 Y74.853 E0.09627
G1 X90.853 Y72.130 E0.09744
G1 X92.512 Y69.592 E0.09507
G1 X94.385 Y67.159 E0.09626
G1 X96.439 Y64.878 E0.09626
G1 X98.664 Y62.761 E0.09627
G1 X101.075 Y60.801 E0.09744
G1 X103.567 Y59.073 E0.09507
G1 X106.216 Y57.522 E0.09626
G1 X108.978 Y56.180 E0.09626
G1 X111.835 Y55.055 E0.09627
G1 X114.806 Y54.144 E0.09745
G1 X117.802 Y53.474 E0.09625
G1 X120.803 Y53.039 E0.09507
G1 X123.866 Y52.833 E0.09627
G1 X126.931 Y52.864 E0.09610
G1 X130.056 Y53.141 E0.09836
G1 X133.005 Y53.630 E0.09373
G1 X135.980 Y54.360 E0.09604
G1 X138.890 Y55.317 E0.09606
G1 X141.783 Y56.524 E0.09827
G1 X144.512 Y57.922 E0.09616
G1 X147.124 Y59.523 E0.09605
G1 X149.545 Y61.277 E0.09373
G1 X151.940 Y63.304 E0.09840
G1 X154.121 Y65.466 E0.09628
G1 X156.129 Y67.789 E0.09626
G1 X157.929 Y70.229 E0.09507
G1 X159.579 Y72.863 E0.09744
G1 X161.001 Y75.584 E0.09627
G1 X162.209 Y78.406 E0.09626
G1 X163.196 Y81.313 E0.09626
G1 X163.948 Y84.251 E0.09507
G1 X164.486 Y87.312 E0.09744
G1 X164.781 Y90.368 E0.09627
G1 X164.840 Y93.438 E0.09626
G1 X164.662 Y96.503 E0.09626
G1 X164.254 Y99.507 E0.09507
G1 X163.602 Y102.546 E0.09744
G1 X162.727 Y105.489 E0.09627
G1 X161.627 Y108.355 E0.09626
G1 X160.327 Y111.095 E0.09507
G1 X158.784 Y113.792 E0.09744
G1 X157.057 Y116.331 E0.09627
G1 X155.140 Y118.729 E0.09626
G1 X153.070 Y120.944 E0.09507
G1 X150.781 Y123.047 E0.09743
G1 X148.365 Y124.942 E0.09628
G1 X145.811 Y126.645 E0.09625
G1 X143.133 Y128.146 E0.09626
G1 X140.347 Y129.437 E0.09626
G1 X137.471 Y130.510 E0.09626
G1 X134.556 Y131.347 E0.09508
G1 X131.513 Y131.975 E0.09744
G1 X128.466 Y132.360 E0.09627
G1 X125.400 Y132.509 E0.09626
G1 X122.331 Y132.422 E0.09626
G1 X119.278 Y132.098 E0.09626
G1 X115.425 Y131.387 E0.12284
G1 X115.877 Y131.087 F10800.000
G1 F1200.000
G1 X117.498 Y126.740 E0.14545
G1 X108.355 Y123.330 E0.30597
G1 X106.734 Y127.677 E0.14545
G1 X103.704 Y125.896 E0.11017
G1 X101.209 Y124.158 E0.09535
G1 X98.855 Y122.233 E0.09535
G1 X96.656 Y120.132 E0.09535
G1 X94.625 Y117.868 E0.09535
G1 X92.775 Y115.455 E0.09536
G1 X91.116 Y112.906 E0.09535
G1 X89.658 Y110.237 E0.09535
G1 X88.410 Y107.464 E0.09535
G1 X87.379 Y104.603 E0.09534
G1 X86.572 Y101.671 E0.09536
G1 X85.992 Y98.685 E0.09535
G1 X85.645 Y95.665 E0.09534
G1 X85.530 Y92.626 E0.09535
G1 X85.650 Y89.587 E0.09535
G1 X86.011 Y86.529 E0.09653
G1 X86.589 Y83.582 E0.09417
G1 X87.403 Y80.652 E0.09535
G1 X88.439 Y77.793 E0.09535
G1 X89.693 Y75.022 E0.09535
G1 X91.176 Y72.324 E0.09653
G1 X92.820 Y69.811 E0.09417
G1 X94.675 Y67.401 E0.09535
G1 X96.710 Y65.141 E0.09535
G1 X98.913 Y63.045 E0.09535
G1 X101.302 Y61.102 E0.09653
G1 X103.770 Y59.391 E0.09417
G1 X106.394 Y57.855 E0.09535
G1 X109.130 Y56.526 E0.09535
G1 X111.959 Y55.411 E0.09535
G1 X114.903 Y54.509 E0.09653
G1 X117.870 Y53.845 E0.09535
G1 X120.842 Y53.414 E0.09417
G1 X123.877 Y53.211 E0.09536
G1 X126.913 Y53.241 E0.09518
G1 X130.008 Y53.515 E0.09745
G1 X132.929 Y53.999 E0.09283
G1 X135.876 Y54.723 E0.09514
G1 X138.758 Y55.671 E0.09514
G1 X141.624 Y56.867 E0.09735
G1 X144.328 Y58.251 E0.09524
G1 X146.914 Y59.837 E0.09514
G1 X149.312 Y61.574 E0.09282
G1 X151.685 Y63.582 E0.09749
G1 X153.845 Y65.724 E0.09536
G1 X155.834 Y68.024 E0.09535
G1 X157.617 Y70.441 E0.09417
G1 X159.251 Y73.050 E0.09653
G1 X160.660 Y75.746 E0.09535
G1 X161.856 Y78.541 E0.09535
G1 X162.834 Y81.421 E0.09535
G1 X163.579 Y84.330 E0.09417
G1 X164.112 Y87.363 E0.09653
G1 X164.404 Y90.390 E0.09535
G1 X164.462 Y93.430 E0.09535
G1 X164.286 Y96.466 E0.09535
G1 X163.882 Y99.442 E0.09417
G1 X163.237 Y102.453 E0.09653
G1 X162.370 Y105.367 E0.09535
G1 X161.281 Y108.207 E0.09535
G1 X159.993 Y110.920 E0.09417
G1 X158.464 Y113.593 E0.09653
G1 X156.754 Y116.107 E0.09535
G1 X154.855 Y118.482 E0.09535
G1 X152.804 Y120.677 E0.09417
G1 X150.537 Y122.759 E0.09652
G1 X148.144 Y124.636 E0.09536
G1 X145.614 Y126.323 E0.09534
G1 X142.961 Y127.810 E0.09535
G1 X140.202 Y129.089 E0.09535
G1 X137.353 Y130.151 E0.09535
G1 X134.466 Y130.981 E0.09417
G1 X131.451 Y131.603 E0.09653
G1 X128.434 Y131.984 E0.09536
G1 X125.396 Y132.132 E0.09535
G1 X122.356 Y132.045 E0.09535
G1 X119.332 Y131.725 E0.09535
G1 X115.936 Y131.098 E0.10829
G1 X115.493 Y130.973 F10800.000
G1 F8640.000
G1 X117.046 Y127.999 E-0.76000
G1 E-0.04000 F2100.00000
G1 Z0.800 F10800.000
G1 X114.770 Y135.654
G1 Z0.200
G1 E0.80000 F2100.00000
G1 F1200.000
G1 X112.517 Y135.077 E0.07291
G1 X109.576 Y134.099 E0.09718
G1 X106.659 Y132.893 E0.09896
G1 X103.836 Y131.482 E0.09895
G1 X101.073 Y129.842 E0.10074
G1 X98.527 Y128.075 E0.09717
G1 X96.068 Y126.096 E0.09896
G1 X93.757 Y123.947 E0.09895
G1 X91.568 Y121.595 E0.10074
G1 X89.623 Y119.182 E0.09717
G1 X87.822 Y116.590 E0.09896
G1 X86.209 Y113.877 E0.09895
G1 X84.771 Y111.004 E0.10074
G1 X83.585 Y108.141 E0.09717
G1 X82.587 Y105.147 E0.09896
G1 X81.804 Y102.089 E0.09895
G1 X81.234 Y98.927 E0.10074
G1 X80.903 Y95.846 E0.09717
G1 X80.788 Y92.692 E0.09896
G1 X80.903 Y89.481 E0.10074
G1 X81.234 Y86.399 E0.09717
G1 X81.793 Y83.293 E0.09896
G1 X82.571 Y80.235 E0.09895
G1 X83.586 Y77.186 E0.10074
G1 X84.772 Y74.323 E0.09717
G1 X86.183 Y71.499 E0.09896
G1 X87.792 Y68.784 E0.09895
G1 X89.624 Y66.145 E0.10074
G1 X91.569 Y63.732 E0.09717
G1 X93.718 Y61.421 E0.09896
G1 X96.070 Y59.231 E0.10074
G1 X98.483 Y57.287 E0.09717
G1 X101.075 Y55.485 E0.09896
G1 X103.838 Y53.846 E0.10074
G1 X106.609 Y52.459 E0.09717
G1 X109.524 Y51.249 E0.09896
G1 X112.573 Y50.235 E0.10074
G1 X115.576 Y49.468 E0.09717
G1 X118.682 Y48.906 E0.09896
G1 X121.819 Y48.567 E0.09895
G1 X125.032 Y48.452 E0.10079
G1 X128.147 Y48.564 E0.09774
G1 X131.286 Y48.901 E0.09897
G1 X134.389 Y49.460 E0.09888
G1 X137.478 Y50.249 E0.09993
G1 X140.451 Y51.239 E0.09825
G1 X143.346 Y52.438 E0.09825
G1 X146.196 Y53.864 E0.09993
G1 X148.908 Y55.474 E0.09888
G1 X151.454 Y57.242 E0.09718
G1 X153.973 Y59.268 E0.10137
G1 X156.281 Y61.420 E0.09895
G1 X158.431 Y63.732 E0.09896
G1 X160.375 Y66.145 E0.09717
G1 X162.208 Y68.784 E0.10074
G1 X163.817 Y71.499 E0.09895
G1 X165.228 Y74.322 E0.09896
G1 X166.414 Y77.186 E0.09717
G1 X167.429 Y80.234 E0.10074
G1 X168.207 Y83.292 E0.09895
G1 X168.766 Y86.399 E0.09896
G1 X169.097 Y89.480 E0.09717
G1 X169.212 Y92.691 E0.10074
G1 X169.097 Y95.845 E0.09896
G1 X168.766 Y98.927 E0.09717
G1 X168.196 Y102.089 E0.10074
G1 X167.413 Y105.146 E0.09895
G1 X166.415 Y108.140 E0.09896
G1 X165.229 Y111.004 E0.09717
G1 X163.791 Y113.877 E0.10074
G1 X162.179 Y116.590 E0.09895
G1 X160.377 Y119.182 E0.09896
G1 X158.432 Y121.595 E0.09717
G1 X156.243 Y123.946 E0.10074
G1 X153.932 Y126.096 E0.09896
G1 X151.519 Y128.040 E0.09717
G1 X148.879 Y129.873 E0.10074
G1 X146.164 Y131.481 E0.09895
G1 X143.341 Y132.892 E0.09896
G1 X140.478 Y134.078 E0.09717
G1 X137.429 Y135.093 E0.10074
G1 X134.371 Y135.872 E0.09895
G1 X131.264 Y136.430 E0.09896
G1 X128.183 Y136.761 E0.09717
G1 X124.972 Y136.876 E0.10074
G1 X121.818 Y136.762 E0.09896
G1 X118.736 Y136.430 E0.09717
G1 X115.574 Y135.860 E0.10074
G1 X114.828 Y135.669 E0.02417
G1 X114.734 Y136.034 F10800.000
G1 F1200.000
G1 X112.410 Y135.439 E0.07521
G1 X109.444 Y134.452 E0.09802
G1 X106.503 Y133.236 E0.09980
M73 Q0 S134
G1 X103.656 Y131.813 E0.09980
G1 X100.869 Y130.160 E0.10159
M73 P0 R133
G1 X98.301 Y128.377 E0.09801
G1 X95.822 Y126.381 E0.09980
G1 X93.491 Y124.214 E0.09980
G1 X91.283 Y121.842 E0.10159
G1 X89.321 Y119.408 E0.09801
G1 X87.504 Y116.795 E0.09980
G1 X85.878 Y114.058 E0.09980
G1 X84.428 Y111.161 E0.10159
G1 X83.232 Y108.273 E0.09801
G1 X82.225 Y105.253 E0.09980
G1 X81.436 Y102.170 E0.09980
G1 X80.860 Y98.981 E0.10159
G1 X80.526 Y95.873 E0.09801
G1 X80.411 Y92.692 E0.09980
G1 X80.526 Y89.454 E0.10159
G1 X80.861 Y86.346 E0.09801
G1 X81.424 Y83.213 E0.09980
G1 X82.209 Y80.128 E0.09980
G1 X83.232 Y77.054 E0.10159
G1 X84.429 Y74.166 E0.09801
G1 X85.852 Y71.319 E0.09980
G1 X87.474 Y68.580 E0.09980
G1 X89.322 Y65.919 E0.10159
G1 X91.284 Y63.485 E0.09801
G1 X93.451 Y61.154 E0.09980
G1 X95.823 Y58.946 E0.10159
G1 X98.257 Y56.985 E0.09801
G1 X100.870 Y55.168 E0.09980
G1 X103.657 Y53.515 E0.10159
G1 X106.452 Y52.116 E0.09801
G1 X109.392 Y50.896 E0.09980
G1 X112.467 Y49.873 E0.10159
G1 X115.496 Y49.100 E0.09801
G1 X118.628 Y48.533 E0.09980
G1 X121.792 Y48.190 E0.09980
G1 X125.032 Y48.075 E0.10164
G1 X128.174 Y48.188 E0.09859
G1 X131.340 Y48.527 E0.09981
G1 X134.470 Y49.092 E0.09973
G1 X137.584 Y49.887 E0.10078
G1 X140.583 Y50.886 E0.09910
G1 X143.503 Y52.095 E0.09910
G1 X146.377 Y53.533 E0.10078
G1 X149.112 Y55.156 E0.09973
G1 X151.680 Y56.939 E0.09802
G1 X154.220 Y58.983 E0.10221
G1 X156.548 Y61.154 E0.09980
G1 X158.716 Y63.485 E0.09980
G1 X160.677 Y65.919 E0.09801
G1 X162.525 Y68.580 E0.10159
G1 X164.148 Y71.318 E0.09980
G1 X165.571 Y74.166 E0.09980
G1 X166.767 Y77.054 E0.09801
G1 X167.791 Y80.128 E0.10159
G1 X168.576 Y83.212 E0.09980
G1 X169.139 Y86.345 E0.09980
G1 X169.474 Y89.453 E0.09801
G1 X169.589 Y92.691 E0.10159
G1 X169.474 Y95.872 E0.09980
G1 X169.140 Y98.980 E0.09801
G1 X168.565 Y102.169 E0.10159
G1 X167.775 Y105.253 E0.09980
G1 X166.768 Y108.272 E0.09980
G1 X165.572 Y111.160 E0.09801
G1 X164.122 Y114.058 E0.10159
G1 X162.496 Y116.794 E0.09980
G1 X160.679 Y119.408 E0.09980
G1 X158.718 Y121.842 E0.09801
G1 X156.510 Y124.213 E0.10159
G1 X154.179 Y126.381 E0.09980
G1 X151.745 Y128.342 E0.09801
G1 X149.083 Y130.190 E0.10159
G1 X146.345 Y131.813 E0.09980
G1 X143.498 Y133.236 E0.09980
G1 X140.610 Y134.432 E0.09801
G1 X137.535 Y135.455 E0.10159
G1 X134.451 Y136.240 E0.09980
G1 X131.318 Y136.804 E0.09980
G1 X128.210 Y137.138 E0.09801
G1 X124.972 Y137.254 E0.10159
G1 X121.791 Y137.138 E0.09980
G1 X118.683 Y136.804 E0.09801
G1 X115.494 Y136.228 E0.10159
G1 X114.792 Y136.049 E0.02271
G1 X114.619 Y135.651 F10800.000
G1 F8640.000
G1 X112.410 Y135.439 E-0.56773
G1 X111.620 Y135.176 E-0.19227
G1 E-0.04000 F2100.00000
G1 Z0.800 F10800.000
G1 X109.521 Y133.953
G1 Z0.200
G1 E0.80000 F2100.00000
G1 F1200.000
G1 X84.021 Y108.454 E1.13553
G1 X84.400 Y109.368 E0.03116
G1 X108.294 Y133.263 E1.06407
G1 X107.381 Y132.885 E0.03111
G1 X84.778 Y110.282 E1.00654
G1 X85.029 Y110.887 E0.02060
G1 X85.211 Y111.250 E0.01279
G1 X106.415 Y132.454 E0.94426
G1 X105.344 Y131.919 E0.03769
G1 X85.747 Y112.322 E0.87269
G1 X86.284 Y113.394 E0.03776
G1 X104.274 Y131.384 E0.80111
G1 X103.972 Y131.233 E0.01063
G1 X103.026 Y130.672 E0.03461
G1 X86.988 Y114.634 E0.71421
G1 X87.772 Y115.954 E0.04834
G1 X101.710 Y129.891 E0.62065
G1 X101.226 Y129.604 E0.01770
G1 X100.117 Y128.834 E0.04250
G1 X88.833 Y117.550 E0.50248
G1 X89.850 Y119.012 E0.05606
G1 X90.224 Y119.476 E0.01876
G1 X98.178 Y127.430 E0.35421
G1 X96.254 Y125.882 E0.07777
G1 X93.973 Y123.761 E0.09807
G1 X91.324 Y121.112 E0.11795
G1 F8640.000
G1 X93.651 Y123.440 E-0.76000
G1 E-0.04000 F2100.00000
G1 Z0.800 F10800.000
G1 X108.494 Y124.358
G1 Z0.200
G1 E0.80000 F2100.00000
G1 F1200.000
G1 X115.186 Y131.050 E0.29799
G1 X115.332 Y130.660 E0.01311
G1 X108.915 Y124.243 E0.28574
G1 X109.769 Y124.562 E0.02870
G1 X115.477 Y130.270 E0.25419
G1 X115.623 Y129.880 E0.01311
G1 X110.623 Y124.880 E0.22263
G1 X111.477 Y125.199 E0.02870
G1 X115.768 Y129.490 E0.19107
G1 X115.914 Y129.100 E0.01311
G1 X112.331 Y125.517 E0.15952
G1 X113.186 Y125.836 E0.02870
