; generated by PrusaSlicer 2.1.0+win64 on 2020-03-03 at 21:00:22 UTC

; 

; external perimeters extrusion width = 0.45mm
; perimeters extrusion width = 0.45mm
; infill extrusion width = 0.45mm
; solid infill extrusion width = 0.45mm
; top infill extrusion width = 0.40mm
; first layer extrusion width = 0.42mm

M73 P0 R82
M73 Q0 S83
M201 X1000 Y1000 Z1000 E5000 ; sets maximum accelerations, mm/sec^2
M203 X200 Y200 Z12 E120 ; sets maximum feedrates, mm/sec
M204 P1250 R1250 T1250 ; sets acceleration (P, T) and retract acceleration (R), mm/sec^2
M205 X8.00 Y8.00 Z0.40 E1.50 ; sets the jerk limits, mm/sec
M205 S0 T0 ; sets the minimum extruding and travel feed rate, mm/sec
M107
G28  ; home all - moves print head over the edge for possible ooze.
M18 ; Disable steppers
M140 S80 ; set bed temp
M190 S80 ; wait for bed temp
M104 S235 ; set extruder temp
M109 S235 ; wait for extruder temp
G28  ; home all
G29 A L J ; Unified bed leveling on, loaded and tilted
G1 Y1.0 X1.0 Z0.35 F6000.0 ; go to purge line.
G90 ; use absolute position
G1 Z0.35 F300.0; 
G92 E0.0
G1 X90 E15.0  F1000.0 ; intro line
M73 Q0 S83
M73 P0 R82
G92 E0.0
G21 ; set units to millimeters
G90 ; use absolute coordinates
M83 ; use relative distances for extrusion
M900 K45 ; Filament gcode
;BEFORE_LAYER_CHANGE
G92 E0.0
;0.2


G1 E-0.80000 F2100.00000
G1 Z0.600 F10800.000
;AFTER_LAYER_CHANGE
;0.2
G1 X95.831 Y115.780
G1 Z0.200
G1 E0.80000 F2100.00000
M204 S1000
G1 F1200
G1 X96.343 Y115.125 E0.02608
G1 X96.758 Y114.840 E0.01578
G1 X97.228 Y114.658 E0.01578
G1 X153.708 Y100.130 E1.82854
G1 X164.329 Y100.078 E0.33303
G1 X164.925 Y100.147 E0.01882
G1 X221.337 Y114.659 E1.82632
G1 X221.892 Y114.889 E0.01885
G1 X222.366 Y115.264 E0.01896
G1 X222.785 Y115.889 E0.02360
G1 X222.967 Y116.616 E0.02349
G1 X222.942 Y123.144 E0.20467
G1 X216.416 Y152.780 E0.95150
G1 X216.185 Y153.370 E0.01987
G1 X215.797 Y153.867 E0.01976
G1 X215.107 Y154.313 E0.02574
G1 X214.298 Y154.473 E0.02586
G1 X104.281 Y154.480 E3.44952
G1 X103.374 Y154.282 E0.02911
G1 X102.633 Y153.728 E0.02900
G1 X102.334 Y153.283 E0.01680
G1 X102.151 Y152.779 E0.01680
G1 X95.619 Y123.129 E0.95196
G1 X95.600 Y116.579 E0.20536
G1 X95.814 Y115.838 E0.02420
G1 F8640
G1 X96.343 Y115.125 E-0.20500
G1 X96.758 Y114.840 E-0.11620
G1 X97.228 Y114.658 E-0.11620
G1 X98.581 Y114.310 E-0.32260
G1 E-0.04000 F2100.00000
G1 Z0.800 F10800.000
G1 X117.489 Y146.309
G1 Z0.200
G1 E0.80000 F2100.00000
G1 F1200
G1 X117.758 Y146.121 E0.01028
G1 X129.039 Y139.967 E0.40292
G1 X129.613 Y139.738 E0.01938
G1 X130.110 Y139.651 E0.01580
G1 X130.544 Y139.642 E0.01364
G1 X131.019 Y139.707 E0.01501
G1 X131.599 Y139.910 E0.01925
G1 X144.504 Y146.217 E0.45038
G1 X144.772 Y146.387 E0.00995
G1 X145.015 Y146.633 E0.01082
G1 X145.226 Y146.958 E0.01216
G1 X145.351 Y147.319 E0.01198
G1 X145.391 Y147.689 E0.01166
G1 X145.349 Y148.058 E0.01166
G1 X145.225 Y148.409 E0.01166
G1 X145.026 Y148.723 E0.01166
G1 X144.763 Y148.986 E0.01166
G1 X144.448 Y149.183 E0.01166
G1 X144.097 Y149.305 E0.01166
G1 X143.781 Y149.341 E0.00995
G1 X118.580 Y149.343 E0.79017
G1 X118.254 Y149.307 E0.01028
G1 X117.906 Y149.187 E0.01155
G1 X117.572 Y148.987 E0.01220
G1 X117.295 Y148.718 E0.01211
G1 X117.086 Y148.399 E0.01195
G1 X116.952 Y148.042 E0.01195
G1 X116.897 Y147.655 E0.01227
G1 X116.938 Y147.258 E0.01249
G1 X117.042 Y146.921 E0.01109
G1 X117.232 Y146.590 E0.01195
G1 X117.449 Y146.353 E0.01007
G1 F8640
G1 X117.758 Y146.121 E-0.08927
G1 X120.308 Y144.730 E-0.67073
G1 E-0.04000 F2100.00000
G1 Z0.800 F10800.000
G1 X117.277 Y147.647
G1 Z0.200
G1 E0.80000 F2100.00000
G1 F1200
G1 X117.309 Y147.334 E0.00988
G1 X117.390 Y147.072 E0.00860
G1 X117.538 Y146.814 E0.00934
G1 X117.740 Y146.594 E0.00934
G1 X117.957 Y146.442 E0.00832
G1 X129.200 Y140.309 E0.40156
G1 X129.717 Y140.102 E0.01744
G1 X130.146 Y140.027 E0.01366
G1 X130.522 Y140.020 E0.01180
G1 X130.930 Y140.076 E0.01291
G1 X131.453 Y140.258 E0.01737
G1 X144.319 Y146.546 E0.44901
G1 X144.534 Y146.683 E0.00796
G1 X144.720 Y146.871 E0.00829
G1 X144.885 Y147.124 E0.00950
G1 X144.981 Y147.402 E0.00920
G1 X145.012 Y147.687 E0.00900
G1 X144.979 Y147.972 E0.00900
G1 X144.883 Y148.243 E0.00900
G1 X144.730 Y148.486 E0.00900
G1 X144.527 Y148.688 E0.00900
G1 X144.283 Y148.841 E0.00900
G1 X144.012 Y148.936 E0.00900
G1 X143.760 Y148.964 E0.00796
G1 X118.601 Y148.965 E0.78885
G1 X118.337 Y148.936 E0.00832
G1 X118.066 Y148.843 E0.00899
G1 X117.803 Y148.686 E0.00959
G1 X117.588 Y148.476 E0.00943
G1 X117.424 Y148.227 E0.00934
G1 X117.319 Y147.949 E0.00934
G1 X117.285 Y147.707 E0.00765
G1 F8640
G1 X117.309 Y147.334 E-0.08624
G1 X117.390 Y147.072 E-0.06335
G1 X117.538 Y146.814 E-0.06878
G1 X117.740 Y146.594 E-0.06879
G1 X117.957 Y146.442 E-0.06127
G1 X119.522 Y145.588 E-0.41157
G1 E-0.04000 F2100.00000
G1 Z0.800 F10800.000
G1 X144.295 Y146.978
G1 Z0.200
G1 E0.80000 F2100.00000
G1 F1200
G1 X144.425 Y147.109 E0.00576
G1 X144.544 Y147.291 E0.00684
G1 X144.611 Y147.485 E0.00641
G1 X144.633 Y147.686 E0.00634
G1 X144.609 Y147.887 E0.00634
G1 X144.542 Y148.078 E0.00634
G1 X144.434 Y148.249 E0.00634
G1 X144.291 Y148.391 E0.00634
G1 X144.119 Y148.499 E0.00634
G1 X143.928 Y148.566 E0.00634
G1 X143.739 Y148.587 E0.00597
G1 X118.622 Y148.588 E0.78754
G1 X118.420 Y148.566 E0.00636
G1 X118.226 Y148.500 E0.00644
G1 X118.035 Y148.385 E0.00697
G1 X117.880 Y148.235 E0.00676
G1 X117.763 Y148.055 E0.00673
G1 X117.687 Y147.855 E0.00673
G1 X117.657 Y147.640 E0.00679
G1 X117.680 Y147.410 E0.00726
G1 X117.738 Y147.224 E0.00611
G1 X117.845 Y147.038 E0.00673
G1 X117.990 Y146.879 E0.00673
G1 X118.156 Y146.763 E0.00636
G1 X129.361 Y140.651 E0.40021
G1 X129.820 Y140.467 E0.01551
G1 X130.182 Y140.404 E0.01152
G1 X130.500 Y140.397 E0.00996
G1 X130.842 Y140.444 E0.01081
G1 X131.308 Y140.607 E0.01548
G1 X144.135 Y146.876 E0.44764
G1 X144.245 Y146.946 E0.00409
G1 X144.467 Y146.912 F10800.000
G1 F8640
G1 X144.425 Y147.109 E-0.05602
G1 X144.544 Y147.291 E-0.05039
G1 X144.611 Y147.485 E-0.04723
G1 X144.633 Y147.686 E-0.04671
G1 X144.609 Y147.887 E-0.04670
G1 X144.542 Y148.078 E-0.04671
G1 X144.434 Y148.249 E-0.04671
G1 X144.291 Y148.391 E-0.04671
G1 X144.119 Y148.499 E-0.04671
G1 X143.928 Y148.566 E-0.04671
G1 X143.739 Y148.587 E-0.04398
G1 X142.719 Y148.587 E-0.23542
G1 E-0.04000 F2100.00000
G1 Z0.800 F10800.000
G1 X112.409 Y128.184
G1 Z0.200
G1 E0.80000 F2100.00000
G1 F1200
G1 X112.137 Y127.887 E0.01262
G1 X111.967 Y127.614 E0.01010
G1 X111.845 Y127.262 E0.01166
G1 X111.805 Y126.893 E0.01166
G1 X111.848 Y126.523 E0.01166
G1 X111.971 Y126.172 E0.01166
G1 X112.170 Y125.858 E0.01166
G1 X112.433 Y125.596 E0.01166
G1 X112.749 Y125.398 E0.01166
G1 X113.100 Y125.276 E0.01166
G1 X113.415 Y125.240 E0.00995
G1 X144.987 Y125.238 E0.98992
G1 X145.313 Y125.274 E0.01028
G1 X145.673 Y125.398 E0.01195
G1 X145.998 Y125.597 E0.01195
G1 X146.272 Y125.863 E0.01195
G1 X146.481 Y126.181 E0.01196
G1 X146.615 Y126.538 E0.01195
G1 X146.668 Y126.916 E0.01195
G1 X146.638 Y127.296 E0.01195
G1 X146.525 Y127.660 E0.01195
G1 X146.335 Y127.991 E0.01195
G1 X146.113 Y128.234 E0.01033
G1 X145.824 Y128.451 E0.01132
G1 X131.534 Y136.247 E0.51041
G1 X131.148 Y136.419 E0.01325
G1 X130.684 Y136.543 E0.01506
G1 X130.032 Y136.584 E0.02046
G1 X129.537 Y136.516 E0.01566
G1 X128.958 Y136.313 E0.01925
G1 X112.692 Y128.364 E0.56763
G1 X112.460 Y128.216 E0.00865
G1 X112.662 Y127.898 F10800.000
G1 F1200
G1 X112.438 Y127.658 E0.01028
G1 X112.309 Y127.451 E0.00767
G1 X112.215 Y127.179 E0.00900
G1 X112.184 Y126.894 E0.00900
G1 X112.217 Y126.609 E0.00900
G1 X112.313 Y126.338 E0.00900
G1 X112.466 Y126.095 E0.00900
G1 X112.670 Y125.893 E0.00900
G1 X112.913 Y125.740 E0.00900
G1 X113.184 Y125.645 E0.00900
G1 X113.436 Y125.617 E0.00796
G1 X144.966 Y125.615 E0.98860
G1 X145.230 Y125.644 E0.00832
G1 X145.512 Y125.741 E0.00934
G1 X145.766 Y125.897 E0.00934
G1 X145.979 Y126.104 E0.00934
G1 X146.143 Y126.353 E0.00934
G1 X146.248 Y126.632 E0.00934
G1 X146.289 Y126.927 E0.00934
G1 X146.265 Y127.224 E0.00934
G1 X146.177 Y127.509 E0.00934
G1 X146.029 Y127.767 E0.00934
G1 X145.858 Y127.954 E0.00794
G1 X145.619 Y128.133 E0.00936
G1 X131.366 Y135.909 E0.50907
G1 X131.022 Y136.063 E0.01183
G1 X130.623 Y136.169 E0.01294
G1 X130.046 Y136.205 E0.01811
G1 X129.626 Y136.147 E0.01331
G1 X129.103 Y135.965 E0.01737
G1 X112.877 Y128.035 E0.56626
G1 X112.713 Y127.930 E0.00611
G1 X112.898 Y127.601 F10800.000
G1 F1200
G1 X112.740 Y127.429 E0.00731
G1 X112.652 Y127.287 E0.00523
G1 X112.586 Y127.096 E0.00634
G1 X112.564 Y126.895 E0.00634
G1 X112.587 Y126.694 E0.00634
G1 X112.654 Y126.503 E0.00634
G1 X112.762 Y126.332 E0.00634
G1 X112.906 Y126.190 E0.00634
G1 X113.077 Y126.082 E0.00634
G1 X113.268 Y126.015 E0.00634
G1 X113.457 Y125.994 E0.00597
G1 X144.946 Y125.992 E0.98729
G1 X145.147 Y126.015 E0.00636
G1 X145.350 Y126.084 E0.00673
G1 X145.533 Y126.196 E0.00673
G1 X145.687 Y126.346 E0.00673
G1 X145.805 Y126.525 E0.00673
G1 X145.880 Y126.726 E0.00673
G1 X145.910 Y126.938 E0.00673
G1 X145.893 Y127.152 E0.00673
G1 X145.829 Y127.357 E0.00673
G1 X145.722 Y127.543 E0.00673
G1 X145.603 Y127.673 E0.00554
G1 X145.415 Y127.816 E0.00740
G1 X131.199 Y135.571 E0.50773
G1 X130.895 Y135.706 E0.01042
G1 X130.562 Y135.795 E0.01082
G1 X130.061 Y135.826 E0.01575
G1 X129.715 Y135.779 E0.01095
G1 X129.248 Y135.616 E0.01548
G1 X113.062 Y127.705 E0.56489
G1 X112.948 Y127.633 E0.00422
G1 X112.678 Y127.679 F10800.000
G1 F8640
G1 X112.740 Y127.429 E-0.06729
G1 X112.652 Y127.287 E-0.03855
G1 X112.586 Y127.096 E-0.04671
G1 X112.564 Y126.895 E-0.04671
G1 X112.587 Y126.694 E-0.04671
G1 X112.654 Y126.503 E-0.04671
G1 X112.762 Y126.332 E-0.04671
G1 X112.906 Y126.190 E-0.04671
G1 X113.077 Y126.082 E-0.04671
G1 X113.268 Y126.015 E-0.04671
G1 X113.457 Y125.994 E-0.04398
G1 X114.482 Y125.994 E-0.23652
G1 E-0.04000 F2100.00000
G1 Z0.800 F10800.000
G1 X104.275 Y127.255
G1 Z0.200
G1 E0.80000 F2100.00000
G1 F1200
G1 X104.773 Y127.171 E0.01585
G1 X105.156 Y127.167 E0.01200
G1 X105.601 Y127.246 E0.01417
G1 X105.981 Y127.389 E0.01275
G1 X123.691 Y136.045 E0.61805
G1 X124.045 Y136.260 E0.01299
G1 X124.388 Y136.565 E0.01438
G1 X124.644 Y136.895 E0.01309
G1 X124.877 Y137.326 E0.01537
G1 X125.013 Y137.773 E0.01466
G1 X125.065 Y138.228 E0.01438
G1 X125.034 Y138.686 E0.01438
G1 X124.920 Y139.130 E0.01438
G1 X124.727 Y139.546 E0.01438
G1 X124.463 Y139.920 E0.01438
G1 X124.134 Y140.240 E0.01438
G1 X123.790 Y140.471 E0.01299
G1 X110.498 Y147.722 E0.47475
G1 X110.080 Y147.910 E0.01438
G1 X109.601 Y148.041 E0.01555
G1 X109.108 Y148.096 E0.01555
G1 X108.612 Y148.075 E0.01555
G1 X108.126 Y147.977 E0.01555
G1 X107.661 Y147.805 E0.01555
G1 X107.227 Y147.564 E0.01555
G1 X106.837 Y147.258 E0.01555
G1 X106.495 Y146.893 E0.01566
G1 X106.210 Y146.467 E0.01608
G1 X106.007 Y146.037 E0.01491
G1 X105.877 Y145.597 E0.01438
G1 X102.574 Y130.049 E0.49840
G1 X102.526 Y129.641 E0.01287
G1 X102.562 Y129.179 E0.01453
G1 X102.673 Y128.757 E0.01368
G1 X102.866 Y128.348 E0.01417
G1 X103.132 Y127.983 E0.01417
G1 X103.461 Y127.673 E0.01417
G1 X103.842 Y127.429 E0.01417
G1 X104.219 Y127.277 E0.01276
G1 X104.360 Y127.627 F10800.000
G1 F1200
G1 X104.807 Y127.548 E0.01422
G1 X105.125 Y127.544 E0.00997
G1 X105.500 Y127.611 E0.01196
G1 X105.831 Y127.736 E0.01110
G1 X123.510 Y136.376 E0.61696
G1 X123.820 Y136.564 E0.01137
G1 X124.111 Y136.824 E0.01221
G1 X124.327 Y137.102 E0.01104
G1 X124.528 Y137.472 E0.01321
G1 X124.643 Y137.850 E0.01239
G1 X124.687 Y138.237 E0.01222
G1 X124.660 Y138.625 E0.01221
G1 X124.563 Y139.003 E0.01221
G1 X124.400 Y139.356 E0.01221
G1 X124.175 Y139.674 E0.01221
G1 X123.896 Y139.946 E0.01221
G1 X123.595 Y140.148 E0.01137
G1 X110.330 Y147.384 E0.47376
G1 X109.952 Y147.554 E0.01300
G1 X109.530 Y147.669 E0.01372
G1 X109.095 Y147.718 E0.01372
G1 X108.658 Y147.699 E0.01372
G1 X108.229 Y147.613 E0.01372
G1 X107.819 Y147.462 E0.01372
G1 X107.437 Y147.249 E0.01372
G1 X107.092 Y146.979 E0.01372
G1 X106.792 Y146.658 E0.01378
G1 X106.539 Y146.280 E0.01424
G1 X106.360 Y145.902 E0.01311
G1 X106.243 Y145.505 E0.01300
G1 X102.946 Y129.987 E0.49739
G1 X102.905 Y129.634 E0.01117
G1 X102.935 Y129.242 E0.01232
G1 X103.029 Y128.886 E0.01152
G1 X103.192 Y128.542 E0.01196
G1 X103.416 Y128.233 E0.01196
G1 X103.694 Y127.971 E0.01196
G1 X104.015 Y127.766 E0.01196
G1 X104.304 Y127.649 E0.00977
G1 X104.480 Y127.985 F10800.000
G1 F1200
G1 X104.840 Y127.924 E0.01143
G1 X105.094 Y127.922 E0.00795
G1 X105.400 Y127.976 E0.00975
G1 X105.682 Y128.082 E0.00945
G1 X123.329 Y136.707 E0.61587
G1 X123.595 Y136.869 E0.00975
G1 X123.834 Y137.082 E0.01005
G1 X124.010 Y137.308 E0.00898
G1 X124.178 Y137.618 E0.01105
G1 X124.272 Y137.927 E0.01011
G1 X124.308 Y138.245 E0.01005
G1 X124.286 Y138.565 E0.01005
G1 X124.207 Y138.876 E0.01005
G1 X124.072 Y139.167 E0.01005
G1 X123.887 Y139.428 E0.01005
G1 X123.657 Y139.652 E0.01005
G1 X123.399 Y139.825 E0.00975
G1 X110.162 Y147.046 E0.47276
G1 X109.824 Y147.198 E0.01162
G1 X109.459 Y147.298 E0.01188
G1 X109.082 Y147.340 E0.01188
G1 X108.704 Y147.324 E0.01188
G1 X108.332 Y147.249 E0.01188
G1 X107.977 Y147.118 E0.01188
G1 X107.646 Y146.933 E0.01188
G1 X107.347 Y146.700 E0.01188
G1 X107.088 Y146.423 E0.01190
G1 X106.868 Y146.094 E0.01241
G1 X106.713 Y145.768 E0.01132
G1 X106.608 Y145.412 E0.01162
G1 X103.319 Y129.926 E0.49638
G1 X103.284 Y129.626 E0.00947
G1 X103.309 Y129.305 E0.01011
G1 X103.384 Y129.016 E0.00936
G1 X103.518 Y128.735 E0.00975
G1 X103.701 Y128.483 E0.00975
G1 X103.927 Y128.270 E0.00975
G1 X104.189 Y128.102 E0.00975
G1 X104.425 Y128.007 E0.00797
G1 X104.572 Y127.632 F10800.000
G1 F8640
G1 X104.840 Y127.924 E-0.09774
G1 X105.094 Y127.922 E-0.05855
G1 X105.400 Y127.976 E-0.07182
G1 X105.682 Y128.082 E-0.06956
G1 X107.480 Y128.962 E-0.46233
G1 E-0.04000 F2100.00000
G1 Z0.800 F10800.000
G1 X135.834 Y136.666
G1 Z0.200
G1 E0.80000 F2100.00000
G1 F1200
G1 X136.135 Y136.262 E0.01579
G1 X136.422 Y135.983 E0.01255
G1 X136.766 Y135.752 E0.01299
G1 X155.127 Y125.740 E0.65573
G1 X155.499 Y125.575 E0.01274
G1 X155.893 Y125.439 E0.01306
G1 X156.477 Y125.303 E0.01880
G1 X157.071 Y125.241 E0.01875
G1 X161.670 Y125.251 E0.14418
G1 X162.136 Y125.312 E0.01474
G1 X162.674 Y125.439 E0.01734
G1 X163.076 Y125.578 E0.01333
G1 X163.592 Y125.819 E0.01786
G1 X181.801 Y135.749 E0.65030
G1 X182.145 Y135.980 E0.01299
G1 X182.473 Y136.300 E0.01438
G1 X182.738 Y136.674 E0.01438
G1 X182.931 Y137.090 E0.01438
G1 X183.045 Y137.534 E0.01438
G1 X183.076 Y137.992 E0.01437
G1 X183.031 Y138.392 E0.01262
G1 X182.896 Y138.875 E0.01574
G1 X182.680 Y139.293 E0.01475
G1 X182.399 Y139.655 E0.01438
G1 X182.085 Y139.935 E0.01319
G1 X181.710 Y140.172 E0.01391
G1 X163.707 Y148.959 E0.62812
G1 X163.304 Y149.102 E0.01340
G1 X162.747 Y149.243 E0.01800
G1 X162.334 Y149.306 E0.01310
G1 X161.935 Y149.337 E0.01257
G1 X157.057 Y149.340 E0.15294
G1 X156.433 Y149.326 E0.01958
G1 X155.830 Y149.246 E0.01905
G1 X155.092 Y149.047 E0.02399
G1 X154.538 Y148.816 E0.01880
G1 X136.865 Y140.178 E0.61677
G1 X136.511 Y139.963 E0.01299
G1 X136.197 Y139.684 E0.01317
G1 X135.891 Y139.303 E0.01530
G1 X135.676 Y138.889 E0.01464
G1 X135.543 Y138.450 E0.01438
G1 X135.491 Y137.995 E0.01438
G1 X135.522 Y137.537 E0.01438
G1 X135.636 Y137.093 E0.01438
G1 X135.809 Y136.720 E0.01288
G1 X136.151 Y136.879 F10800.000
G1 F1200
G1 X136.420 Y136.512 E0.01427
G1 X136.660 Y136.277 E0.01054
G1 X136.962 Y136.075 E0.01137
G1 X155.294 Y126.078 E0.65470
G1 X155.637 Y125.927 E0.01176
G1 X155.997 Y125.802 E0.01195
G1 X156.539 Y125.676 E0.01745
G1 X157.092 Y125.618 E0.01742
G1 X161.645 Y125.628 E0.14275
G1 X162.068 Y125.683 E0.01339
G1 X162.569 Y125.802 E0.01615
G1 X162.934 Y125.928 E0.01212
G1 X163.422 Y126.156 E0.01687
G1 X181.605 Y136.072 E0.64939
G1 X181.907 Y136.274 E0.01137
G1 X182.186 Y136.546 E0.01221
G1 X182.411 Y136.864 E0.01221
G1 X182.574 Y137.217 E0.01222
G1 X182.671 Y137.595 E0.01221
G1 X182.698 Y137.983 E0.01221
G1 X182.660 Y138.320 E0.01061
G1 X182.544 Y138.737 E0.01357
M73 Q1 S82
G1 X182.361 Y139.089 E0.01244
G1 X182.122 Y139.397 E0.01221
G1 X181.857 Y139.633 E0.01113
G1 X181.526 Y139.842 E0.01229
G1 X163.561 Y148.611 E0.62681
M73 P1 R81
G1 X163.195 Y148.741 E0.01218
