; generated by PrusaSlicer 2.1.0+win64 on 2020-03-05 at 20:23:16 UTC

; 

; external perimeters extrusion width = 0.45mm
; perimeters extrusion width = 0.45mm
; infill extrusion width = 0.45mm
; solid infill extrusion width = 0.45mm
; top infill extrusion width = 0.40mm
; support material extrusion width = 0.35mm
; first layer extrusion width = 0.42mm

M73 P0 R134
M73 Q0 S135
M201 X1000 Y1000 Z1000 E5000 ; sets maximum accelerations, mm/sec^2
M203 X200 Y200 Z12 E120 ; sets maximum feedrates, mm/sec
M204 P1250 R1250 T1250 ; sets acceleration (P, T) and retract acceleration (R), mm/sec^2
M205 X8.00 Y8.00 Z0.40 E1.50 ; sets the jerk limits, mm/sec
M205 S0 T0 ; sets the minimum extruding and travel feed rate, mm/sec
M107
G28  ; home all - moves print head over the edge for possible ooze.
M140 S80 ; set bed temp
M190 S80 ; wait for bed temp
M104 S235 ; set extruder temp
M109 S235 ; wait for extruder temp
G29 A L J ; Unified bed leveling on, loaded and tilted
G1 Y1.0 X1.0 Z0.35 F6000.0 ; go to purge line.
G90 ; use absolute position
G1 Z0.35 F300.0; 
G92 E0.0
G1 X90 E15.0  F1000.0 ; intro line
M73 Q0 S135
M73 P0 R134
G92 E0.0
G21 ; set units to millimeters
G90 ; use absolute coordinates
M83 ; use relative distances for extrusion
M900 K45 ; Filament gcode
;BEFORE_LAYER_CHANGE
G92 E0.0
;0.2


G1 E-0.80000 F2100.00000
G1 Z0.600 F10800.000
;AFTER_LAYER_CHANGE
;0.2
G1 X244.088 Y195.389
G1 Z0.200
G1 E0.80000 F2100.00000
M204 S1000
G1 F600
G1 X243.337 Y195.795 E0.02676
G1 X227.206 Y200.724 E0.52886
G1 X226.310 Y200.885 E0.02855
G1 X118.453 Y204.889 E3.38410
G1 X113.056 Y204.868 E0.16921
G1 X112.450 Y204.684 E0.01987
G1 X111.921 Y204.335 E0.01987
G1 X75.472 Y171.434 E1.53957
G1 X73.835 Y169.804 E0.07241
G1 X73.463 Y169.158 E0.02338
G1 X73.331 Y168.424 E0.02338
G1 X73.333 Y105.450 E1.97452
G1 X73.535 Y104.628 E0.02653
G1 X77.199 Y97.136 E0.26149
G1 X77.462 Y96.724 E0.01532
G1 X77.810 Y96.381 E0.01532
G1 X127.812 Y57.364 E1.98862
G1 X128.446 Y57.022 E0.02259
G1 X129.157 Y56.905 E0.02259
G1 X131.495 Y57.187 E0.07383
G1 X159.164 Y63.988 E0.89337
G1 X160.288 Y64.324 E0.03679
G1 X162.458 Y65.241 E0.07386
G1 X164.451 Y66.449 E0.07307
G1 X166.253 Y67.933 E0.07319
G1 X167.788 Y69.618 E0.07147
G1 X168.711 Y70.915 E0.04990
G1 X244.561 Y192.568 E4.49502
G1 X244.840 Y193.290 E0.02428
G1 X244.849 Y194.068 E0.02439
G1 X244.587 Y194.797 E0.02428
G1 X244.126 Y195.343 E0.02240
G1 F8640
G1 X243.337 Y195.795 E-0.21001
G1 X241.059 Y196.491 E-0.54999
G1 E-0.04000 F2100.00000
G1 Z0.800 F10800.000
G1 X126.048 Y133.748
G1 Z0.200
G1 E0.80000 F2100.00000
G1 F600
G1 X126.048 Y121.727 E0.37690
G1 X125.293 Y121.727 E0.02365
G1 X125.293 Y133.578 E0.37158
G1 X124.539 Y133.578 E0.02365
G1 X124.539 Y121.727 E0.37158
G1 X124.310 Y121.727 E0.00720
G1 X124.310 Y126.341 E0.14467
G1 X123.785 Y126.341 E0.01645
G1 X123.785 Y133.578 E0.22691
M73 Q0 S134
G1 X123.031 Y133.578 E0.02365
G1 X123.031 Y126.341 E0.22691
M73 P0 R133
G1 X122.277 Y126.341 E0.02365
G1 X122.277 Y133.578 E0.22691
G1 X121.523 Y133.578 E0.02365
G1 X121.523 Y130.955 E0.08224
G1 X120.769 Y130.955 E0.02365
G1 X120.769 Y133.578 E0.08224
G1 X120.014 Y133.578 E0.02365
G1 X120.014 Y130.955 E0.08224
G1 X119.260 Y130.955 E0.02365
G1 X119.260 Y133.578 E0.08224
G1 X118.506 Y133.578 E0.02365
G1 X118.506 Y127.814 E0.18071
G1 X117.752 Y127.446 E0.02632
G1 X117.752 Y133.578 E0.19227
G1 X116.998 Y133.578 E0.02365
G1 X116.998 Y126.888 E0.20976
G1 F8640
G1 X116.998 Y130.179 E-0.76000
G1 E-0.04000 F2100.00000
G1 Z0.800 F10800.000
G1 X119.260 Y126.745
G1 Z0.200
G1 E0.80000 F2100.00000
G1 F600
G1 X119.260 Y127.952 E0.03785
G1 X120.014 Y128.288 F10800.000
G1 F600
G1 X120.014 Y125.825 E0.07723
G1 X120.495 Y126.060 E0.01677
G1 X120.666 Y126.559 E0.01656
G1 X120.769 Y126.350 E0.00730
G1 X120.769 Y127.285 E0.02930
G1 X121.523 Y124.371 F10800.000
G1 F600
G1 X121.523 Y122.505 E0.05853
G1 X121.722 Y122.096 E0.01426
G1 X122.277 Y122.367 E0.01935
G1 X122.277 Y124.200 E0.05746
G1 F8640
G1 X122.277 Y122.367 E-0.42312
G1 X121.722 Y122.096 E-0.14250
G1 X121.523 Y122.505 E-0.10498
G1 X121.523 Y122.892 E-0.08939
G1 E-0.04000 F2100.00000
G1 Z0.800 F10800.000
G1 X122.677 Y122.370
G1 Z0.200
G1 E0.80000 F2100.00000
G1 F600
G1 X122.677 Y120.687 E0.04295
G1 X122.170 Y120.439 E0.01441
G1 X122.170 Y121.934 E0.03817
G1 X121.663 Y121.686 E0.01441
G1 X121.663 Y120.038 E0.04210
G1 X123.031 Y120.669 F10800.000
G1 F600
G1 X123.031 Y119.036 E0.05118
G1 X124.539 Y118.754 F10800.000
G1 F600
G1 X124.539 Y119.576 E0.02575
G1 X123.785 Y120.865 F10800.000
G1 F600
G1 X123.785 Y113.806 E0.22135
G1 X123.031 Y113.806 E0.02365
G1 X123.031 Y117.752 E0.12375
G1 X122.277 Y117.383 E0.02632
G1 X122.277 Y113.806 E0.11218
G1 X121.523 Y113.806 E0.02365
G1 X121.523 Y117.014 E0.10061
G1 X120.769 Y116.646 E0.02632
G1 X120.769 Y113.806 E0.08905
G1 X120.014 Y113.806 E0.02365
G1 X120.014 Y116.277 E0.07748
G1 X119.260 Y115.908 E0.02632
G1 X119.260 Y113.636 E0.07124
G1 F8640
G1 X119.260 Y115.908 E-0.52462
G1 X120.014 Y116.277 E-0.19385
G1 X120.014 Y116.097 E-0.04153
G1 E-0.04000 F2100.00000
G1 Z0.800 F10800.000
G1 X124.199 Y116.632
G1 Z0.200
G1 E0.80000 F2100.00000
G1 F600
G1 X124.199 Y118.362 E0.04417
G1 X124.375 Y118.449 E0.00503
G1 X124.389 Y118.489 E0.00109
G1 X124.706 Y118.644 E0.00899
G1 X124.706 Y116.770 E0.04783
G1 X125.213 Y116.770 E0.01295
G1 X125.213 Y121.385 E0.11782
G1 X125.720 Y121.385 E0.01295
G1 X125.720 Y116.770 E0.11782
G1 X126.227 Y116.770 E0.01295
G1 X126.227 Y121.523 E0.12135
G1 F8640
G1 X126.227 Y118.231 E-0.76000
G1 E-0.04000 F2100.00000
G1 Z0.800 F10800.000
G1 X124.706 Y121.523
G1 Z0.200
G1 E0.80000 F2100.00000
G1 F600
G1 X124.706 Y119.628 E0.04838
G1 X124.199 Y120.664 E0.02944
G1 X124.199 Y121.385 E0.01841
G1 X123.968 Y121.385 E0.00590
G1 X123.968 Y125.999 E0.11782
G1 X123.691 Y125.999 E0.00705
G1 X123.691 Y121.080 E0.12561
G1 X123.607 Y121.109 E0.00229
G1 X123.204 Y120.912 E0.01145
G1 X123.184 Y120.918 E0.00053
G1 X123.184 Y125.999 E0.12973
G1 X122.677 Y125.999 E0.01295
G1 X122.677 Y123.773 E0.05683
G1 X122.255 Y124.637 E0.02456
G1 X122.170 Y124.666 E0.00228
G1 X122.170 Y125.999 E0.03402
G1 X121.663 Y125.999 E0.01295
G1 X121.663 Y124.722 E0.03260
G1 X121.403 Y124.595 E0.00741
G1 X121.362 Y124.608 E0.00109
G1 X121.156 Y124.508 E0.00586
G1 X121.156 Y126.036 E0.03903
G1 X120.786 Y125.855 E0.01052
G1 X120.772 Y125.815 E0.00109
G1 X120.649 Y125.754 E0.00350
G1 X120.649 Y124.259 E0.03817
G1 X120.142 Y124.011 E0.01441
G1 X120.142 Y125.506 E0.03817
G1 X119.635 Y125.258 E0.01441
G1 X119.635 Y123.610 E0.04210
G1 X118.506 Y124.856 F10800.000
G1 F600
G1 X118.506 Y123.250 E0.05035
G1 X117.752 Y122.881 E0.02632
G1 X117.752 Y124.298 E0.04443
G1 X116.998 Y123.930 E0.02632
G1 X116.998 Y122.324 E0.05035
G1 F8640
G1 X116.998 Y123.930 E-0.37081
G1 X117.752 Y124.298 E-0.19385
G1 X117.752 Y123.452 E-0.19533
G1 E-0.04000 F2100.00000
G1 Z0.800 F10800.000
G1 X116.998 Y119.554
G1 Z0.200
G1 E0.80000 F2100.00000
G1 F600
G1 X116.998 Y119.173 E0.01196
G1 X117.752 Y119.542 E0.02632
G1 X117.752 Y119.734 E0.00603
G1 X118.506 Y120.103 E0.02632
G1 X118.506 Y118.686 E0.04443
G1 X119.260 Y119.055 E0.02632
G1 X119.260 Y120.472 E0.04443
G1 X120.014 Y120.841 E0.02632
G1 X120.014 Y119.424 E0.04443
G1 X120.769 Y119.793 E0.02632
G1 X120.769 Y121.399 E0.05035
G1 F8640
G1 X120.769 Y119.793 E-0.37081
G1 X120.014 Y119.424 E-0.19385
G1 X120.014 Y120.270 E-0.19534
G1 E-0.04000 F2100.00000
G1 Z0.800 F10800.000
G1 X124.539 Y116.598
G1 Z0.200
G1 E0.80000 F2100.00000
G1 F600
G1 X124.539 Y113.806 E0.08756
G1 X125.293 Y113.806 E0.02365
G1 X125.293 Y116.428 E0.08224
G1 X126.048 Y116.428 E0.02365
G1 X126.048 Y113.806 E0.08224
G1 X126.802 Y113.806 E0.02365
G1 X126.802 Y133.578 E0.61995
G1 X126.933 Y133.578 E0.00410
G1 X126.933 Y128.964 E0.14467
G1 X127.556 Y128.964 E0.01955
G1 X127.556 Y113.806 E0.47527
G1 X128.310 Y113.806 E0.02365
G1 X128.310 Y128.964 E0.47527
G1 X129.064 Y128.964 E0.02365
G1 X129.064 Y113.806 E0.47527
G1 X129.240 Y113.806 E0.00550
G1 X129.240 Y116.113 E0.07234
G1 X129.818 Y116.113 E0.01815
G1 X129.818 Y124.350 E0.25826
G1 X130.573 Y124.350 E0.02365
G1 X130.573 Y116.113 E0.25826
G1 X131.327 Y116.113 E0.02365
G1 X131.327 Y124.519 E0.26358
G1 F8640
G1 X131.327 Y121.228 E-0.76000
G1 E-0.04000 F2100.00000
G1 Z0.800 F10800.000
G1 X121.156 Y130.751
G1 Z0.200
G1 E0.80000 F2100.00000
G1 F600
G1 X121.156 Y126.884 E0.09875
G1 X120.649 Y127.922 E0.02950
G1 X120.649 Y130.613 E0.06871
G1 X120.142 Y130.613 E0.01295
G1 X120.142 Y128.428 E0.05579
G1 X120.005 Y128.475 E0.00371
G1 X119.635 Y128.294 E0.01051
G1 X119.635 Y130.751 E0.06274
G1 F8640
G1 X119.635 Y128.294 E-0.56733
G1 X120.005 Y128.475 E-0.09506
G1 X120.142 Y128.428 E-0.03351
G1 X120.142 Y128.706 E-0.06410
G1 E-0.04000 F2100.00000
G1 Z0.800 F10800.000
G1 X95.583 Y126.017
G1 Z0.200
G1 E0.80000 F2100.00000
G1 F600
G1 X95.472 Y126.326 E0.01028
G1 X81.602 Y154.688 E0.98992
G1 X81.431 Y154.955 E0.00995
G1 X81.167 Y155.217 E0.01166
G1 X80.851 Y155.413 E0.01166
G1 X80.500 Y155.535 E0.01166
G1 X80.130 Y155.575 E0.01166
G1 X79.761 Y155.532 E0.01166
G1 X79.410 Y155.408 E0.01166
G1 X79.096 Y155.210 E0.01166
G1 X78.861 Y154.975 E0.01041
G1 X78.641 Y154.645 E0.01243
G1 X78.513 Y154.280 E0.01213
G1 X78.478 Y153.964 E0.00995
G1 X78.481 Y135.861 E0.56763
G1 X78.557 Y135.232 E0.01986
G1 X78.799 Y134.584 E0.02168
G1 X79.187 Y134.012 E0.02168
G1 X79.657 Y133.587 E0.01986
G1 X92.939 Y124.172 E0.51046
G1 X93.241 Y124.005 E0.01084
G1 X93.643 Y123.902 E0.01300
G1 X93.972 Y123.880 E0.01033
G1 X94.349 Y123.939 E0.01196
G1 X94.703 Y124.078 E0.01195
G1 X95.019 Y124.292 E0.01195
G1 X95.281 Y124.569 E0.01196
G1 X95.476 Y124.897 E0.01195
G1 X95.594 Y125.259 E0.01195
G1 X95.630 Y125.639 E0.01195
G1 X95.590 Y125.958 E0.01007
G1 F8640
G1 X95.472 Y126.326 E-0.08926
G1 X94.196 Y128.935 E-0.67074
G1 E-0.04000 F2100.00000
G1 Z0.800 F10800.000
G1 X93.382 Y124.358
G1 Z0.200
G1 E0.80000 F2100.00000
G1 F600
G1 X93.703 Y124.276 E0.01039
G1 X93.955 Y124.259 E0.00793
G1 X94.250 Y124.305 E0.00934
G1 X94.527 Y124.414 E0.00934
G1 X94.774 Y124.581 E0.00934
G1 X94.978 Y124.798 E0.00934
G1 X95.130 Y125.054 E0.00934
G1 X95.223 Y125.337 E0.00934
G1 X95.251 Y125.633 E0.00934
G1 X95.214 Y125.929 E0.00934
G1 X95.124 Y126.179 E0.00832
G1 X81.272 Y154.503 E0.98860
G1 X81.136 Y154.717 E0.00796
G1 X80.932 Y154.919 E0.00900
G1 X80.688 Y155.071 E0.00900
G1 X80.417 Y155.164 E0.00900
G1 X80.131 Y155.196 E0.00900
G1 X79.846 Y155.162 E0.00900
G1 X79.576 Y155.067 E0.00900
G1 X79.333 Y154.914 E0.00900
G1 X79.154 Y154.734 E0.00793
G1 X78.981 Y154.476 E0.00977
G1 X78.883 Y154.196 E0.00929
G1 X78.855 Y153.943 E0.00796
G1 X78.858 Y135.883 E0.56626
G1 X78.926 Y135.322 E0.01774
G1 X79.136 Y134.759 E0.01885
G1 X79.474 Y134.261 E0.01885
G1 X79.893 Y133.882 E0.01774
G1 X93.140 Y124.492 E0.50910
G1 X93.329 Y124.387 E0.00678
G1 X93.512 Y124.717 F10800.000
G1 F600
G1 X93.762 Y124.650 E0.00811
G1 X93.939 Y124.638 E0.00554
G1 X94.151 Y124.671 E0.00673
G1 X94.350 Y124.750 E0.00673
G1 X94.528 Y124.870 E0.00673
G1 X94.675 Y125.026 E0.00673
G1 X94.785 Y125.210 E0.00673
G1 X94.851 Y125.414 E0.00673
G1 X94.872 Y125.628 E0.00673
G1 X94.845 Y125.841 E0.00673
G1 X94.776 Y126.032 E0.00636
G1 X80.943 Y154.318 E0.98729
G1 X80.841 Y154.479 E0.00597
G1 X80.697 Y154.621 E0.00634
G1 X80.525 Y154.728 E0.00634
G1 X80.334 Y154.794 E0.00634
G1 X80.133 Y154.816 E0.00634
G1 X79.932 Y154.793 E0.00634
G1 X79.741 Y154.725 E0.00634
G1 X79.570 Y154.617 E0.00634
G1 X79.447 Y154.494 E0.00546
G1 X79.321 Y154.306 E0.00711
G1 X79.253 Y154.112 E0.00645
G1 X79.232 Y153.922 E0.00597
G1 X79.235 Y135.906 E0.56489
G1 X79.295 Y135.411 E0.01562
G1 X79.474 Y134.933 E0.01601
G1 X79.761 Y134.510 E0.01601
G1 X80.130 Y134.176 E0.01562
G1 X93.341 Y124.812 E0.50774
G1 X93.460 Y124.746 E0.00425
G1 X93.550 Y124.461 F10800.000
G1 F8640
G1 X93.762 Y124.650 E-0.07326
G1 X93.939 Y124.638 E-0.04079
G1 X94.151 Y124.671 E-0.04953
G1 X94.350 Y124.750 E-0.04953
G1 X94.528 Y124.870 E-0.04953
G1 X94.675 Y125.026 E-0.04954
G1 X94.785 Y125.210 E-0.04953
G1 X94.851 Y125.414 E-0.04953
G1 X94.872 Y125.628 E-0.04954
G1 X94.845 Y125.841 E-0.04953
G1 X94.776 Y126.032 E-0.04685
G1 X94.391 Y126.821 E-0.20283
G1 E-0.04000 F2100.00000
G1 Z0.800 F10800.000
G1 X91.816 Y122.427
G1 Z0.200
G1 E0.80000 F2100.00000
G1 F600
G1 X82.416 Y129.093 E0.36131
G1 X82.057 Y129.301 E0.01299
G1 X81.625 Y129.455 E0.01438
G1 X81.173 Y129.528 E0.01438
G1 X80.714 Y129.518 E0.01438
G1 X80.265 Y129.426 E0.01438
G1 X79.841 Y129.253 E0.01438
G1 X79.454 Y129.006 E0.01438
G1 X79.160 Y128.731 E0.01264
G1 X78.851 Y128.336 E0.01572
G1 X78.644 Y127.913 E0.01475
G1 X78.521 Y127.472 E0.01438
G1 X78.483 Y127.059 E0.01299
G1 X78.490 Y107.207 E0.62244
M73 Q1 S133
M73 P1 R132
G1 X78.546 Y106.619 E0.01853
G1 X78.664 Y106.057 E0.01801
G1 X78.793 Y105.641 E0.01366
G1 X79.012 Y105.119 E0.01774
G1 X81.276 Y100.498 E0.16133
G1 X81.692 Y99.847 E0.02424
G1 X82.079 Y99.388 E0.01884
G1 X82.385 Y99.089 E0.01341
G1 X98.181 Y86.781 E0.62786
G1 X98.530 Y86.557 E0.01300
G1 X98.965 Y86.379 E0.01474
G1 X99.458 Y86.289 E0.01571
G1 X99.861 Y86.279 E0.01265
G1 X100.314 Y86.352 E0.01438
G1 X100.746 Y86.506 E0.01438
G1 X101.143 Y86.735 E0.01438
G1 X101.492 Y87.032 E0.01438
G1 X101.781 Y87.388 E0.01438
G1 X102.001 Y87.790 E0.01438
G1 X102.145 Y88.226 E0.01437
G1 X102.201 Y88.637 E0.01299
G1 X103.127 Y109.532 E0.65582
G1 X103.107 Y109.983 E0.01416
G1 X103.025 Y110.541 E0.01766
G1 X102.865 Y111.127 E0.01907
G1 X102.643 Y111.663 E0.01817
G1 X100.867 Y115.295 E0.12676
G1 X100.683 Y115.635 E0.01212
G1 X100.460 Y115.975 E0.01277
G1 X100.199 Y116.309 E0.01329
G1 X99.794 Y116.728 E0.01825
G1 X99.476 Y116.996 E0.01305
G1 X91.865 Y122.393 E0.29254
G1 X91.647 Y122.085 F10800.000
G1 F600
G1 X82.212 Y128.775 E0.36265
G1 X81.898 Y128.957 E0.01137
G1 X81.531 Y129.088 E0.01222
G1 X81.147 Y129.151 E0.01221
G1 X80.757 Y129.142 E0.01221
G1 X80.376 Y129.063 E0.01221
G1 X80.015 Y128.917 E0.01221
G1 X79.686 Y128.707 E0.01221
G1 X79.439 Y128.476 E0.01062
G1 X79.173 Y128.135 E0.01356
G1 X78.998 Y127.779 E0.01244
G1 X78.893 Y127.403 E0.01221
G1 X78.860 Y127.042 E0.01137
G1 X78.867 Y107.225 E0.62134
G1 X78.919 Y106.676 E0.01730
G1 X79.029 Y106.152 E0.01679
G1 X79.148 Y105.770 E0.01253
G1 X79.356 Y105.276 E0.01682
G1 X81.605 Y100.684 E0.16033
G1 X81.996 Y100.071 E0.02279
G1 X82.356 Y99.645 E0.01749
G1 X82.634 Y99.373 E0.01218
G1 X98.399 Y87.089 E0.62665
G1 X98.704 Y86.893 E0.01138
G1 X99.072 Y86.743 E0.01244
G1 X99.497 Y86.665 E0.01355
G1 X99.836 Y86.657 E0.01064
G1 X100.220 Y86.719 E0.01221
G1 X100.588 Y86.849 E0.01221
G1 X100.925 Y87.044 E0.01221
G1 X101.221 Y87.297 E0.01221
G1 X101.467 Y87.599 E0.01221
G1 X101.654 Y87.941 E0.01221
G1 X101.776 Y88.311 E0.01221
G1 X101.825 Y88.670 E0.01137
G1 X102.750 Y109.532 E0.65475
G1 X102.731 Y109.948 E0.01303
G1 X102.656 Y110.463 E0.01634
G1 X102.507 Y111.005 E0.01761
G1 X102.299 Y111.508 E0.01707
G1 X100.532 Y115.122 E0.12614
G1 X100.359 Y115.441 E0.01138
G1 X100.153 Y115.755 E0.01177
G1 X99.914 Y116.061 E0.01218
G1 X99.536 Y116.452 E0.01703
G1 X99.245 Y116.697 E0.01195
G1 X91.696 Y122.050 E0.29017
G1 X91.478 Y121.743 F10800.000
G1 F600
G1 X82.008 Y128.458 E0.36399
G1 X81.739 Y128.614 E0.00975
G1 X81.437 Y128.721 E0.01005
G1 X81.120 Y128.773 E0.01005
G1 X80.800 Y128.766 E0.01005
G1 X80.486 Y128.701 E0.01005
G1 X80.189 Y128.580 E0.01005
G1 X79.918 Y128.408 E0.01005
G1 X79.718 Y128.221 E0.00861
G1 X79.494 Y127.934 E0.01140
G1 X79.352 Y127.644 E0.01013
G1 X79.265 Y127.335 E0.01005
G1 X79.237 Y127.025 E0.00975
G1 X79.244 Y107.243 E0.62025
G1 X79.293 Y106.733 E0.01608
G1 X79.395 Y106.247 E0.01557
G1 X79.502 Y105.899 E0.01140
G1 X79.699 Y105.432 E0.01591
G1 X81.934 Y100.869 E0.15932
G1 X82.300 Y100.295 E0.02133
G1 X82.633 Y99.902 E0.01615
G1 X82.882 Y99.657 E0.01095
G1 X98.617 Y87.397 E0.62543
G1 X98.879 Y87.229 E0.00975
G1 X99.178 Y87.107 E0.01013
G1 X99.535 Y87.041 E0.01139
G1 X99.810 Y87.035 E0.00862
G1 X100.127 Y87.086 E0.01005
G1 X100.429 Y87.193 E0.01005
G1 X100.706 Y87.353 E0.01005
G1 X100.950 Y87.561 E0.01005
G1 X101.153 Y87.810 E0.01005
G1 X101.306 Y88.092 E0.01005
G1 X101.407 Y88.396 E0.01005
