; generated by PrusaSlicer 2.3.0+win64 on 2021-06-07 at 18:06:36 UTC

; 

; external perimeters extrusion width = 0.45mm
; perimeters extrusion width = 0.45mm
; infill extrusion width = 0.45mm
; solid infill extrusion width = 0.45mm
; top infill extrusion width = 0.40mm
; first layer extrusion width = 0.42mm

; external perimeters extrusion width = 0.45mm
; perimeters extrusion width = 0.45mm
; infill extrusion width = 0.45mm
; solid infill extrusion width = 0.45mm
; top infill extrusion width = 0.40mm
; first layer extrusion width = 0.42mm

; external perimeters extrusion width = 0.45mm
; perimeters extrusion width = 0.45mm
; infill extrusion width = 0.45mm
; solid infill extrusion width = 0.45mm
; top infill extrusion width = 0.40mm
; first layer extrusion width = 0.42mm

; external perimeters extrusion width = 0.45mm
; perimeters extrusion width = 0.45mm
; infill extrusion width = 0.45mm
; solid infill extrusion width = 0.45mm
; top infill extrusion width = 0.40mm
; first layer extrusion width = 0.42mm

; external perimeters extrusion width = 0.45mm
; perimeters extrusion width = 0.45mm
; infill extrusion width = 0.45mm
; solid infill extrusion width = 0.45mm
; top infill extrusion width = 0.40mm
; first layer extrusion width = 0.42mm

; external perimeters extrusion width = 0.45mm
; perimeters extrusion width = 0.45mm
; infill extrusion width = 0.45mm
; solid infill extrusion width = 0.45mm
; top infill extrusion width = 0.40mm
; first layer extrusion width = 0.42mm

M73 P0 R201
M73 Q0 S203
M201 X1000 Y1000 Z200 E8000 ; sets maximum accelerations, mm/sec^2
M203 X200 Y200 Z12 E120 ; sets maximum feedrates, mm/sec
M204 P1250 R1250 T1250 ; sets acceleration (P, T) and retract acceleration (R), mm/sec^2
M205 X8.00 Y8.00 Z0.40 E4.50 ; sets the jerk limits, mm/sec
M205 S0 T0 ; sets the minimum extruding and travel feed rate, mm/sec
M107
;TYPE:Custom
M862.3 P "MK3SMMU2S" ; printer model check
M862.1 P0.4 ; nozzle diameter check
M115 U3.9.3 ; tell printer latest fw version
G90 ; use absolute coordinates
M83 ; extruder relative mode
M104 S215 ; set extruder temp
M140 S60 ; set bed temp
M190 S60 ; wait for bed temp
M109 S215 ; wait for extruder temp
G28 W ; home all without mesh bed level
G80 ; mesh bed leveling

; Send the filament type to the MMU2.0 unit.
; E stands for extruder number, F stands for filament type (0: default; 1:flex; 2: PVA)
M403 E0 F0
M403 E1 F0
M403 E2 F0
M403 E3 F0
M403 E4 F0


;go outside print area
G1 Y-3.0 F1000.0
M73 Q0 S202
G1 Z0.4 F1000.0
; select extruder
T3
; initial load
G1 X55.0 E29.0 F1073.0
G1 X5.0 E29.0 F1800.0
G1 X55.0 E8.0 F2000.0
G1 Z0.3 F1000.0
G92 E0.0
G1 X240.0 E25.0 F2200.0
G1 Y-2.0 F1000.0
G1 X55.0 E25 F1400.0
G1 Z0.20 F1000.0
G1 X5.0 E4.0 F1000.0
G92 E0.0


M221 S95
G92 E0.0

; Don't change E values below. Excessive value can damage the printer.
M907 E430 ; set extruder motor current
G21 ; set units to millimeters
G90 ; use absolute coordinates
M83 ; use relative distances for extrusion
T3
M900 K0.05 ; Filament gcode LA 1.5
M900 K30 ; Filament gcode LA 1.0
G1 Z0.200 F10800.000
;LAYER_CHANGE
;Z:0.2
;HEIGHT:0.2
;BEFORE_LAYER_CHANGE
G92 E0.0
;0.2


G1 E-0.80000 F2100.000
G1 Z0.600 F10800.000
G1 Z0.200
;AFTER_LAYER_CHANGE
;0.2
G1 E-2.20000 F2100.000
G1 Z0.600 F10800.000
G1 X192.369 Y41.819
G1 Z0.200
G1 E3.00000 F2100.000
;HEIGHT:0.200000
;TYPE:Wipe tower
;WIDTH:0.500000
;-------------------------------------
; CP WIPE TOWER FIRST LAYER BRIM START
G1  X192.369 Y63.379  E1.2291 F2400
G1  X189.826 Y63.836   F7000
G1  Y41.362  E0.9396 F2100
G1  X128.912  E2.5466
G1  Y63.836  E0.9396
G1  X189.826  E2.5466
G1  X190.283 Y64.293   F7000
G1  Y40.905  E0.9778 F2100
G1  X128.455  E2.5849
G1  Y64.293  E0.9778
G1  X190.283  E2.5849
G1  X190.740 Y64.750   F7000
G1  Y40.448  E1.0160 F2100
G1  X127.998  E2.6231
G1  Y64.750  E1.0160
G1  X190.740  E2.6231
G1  X191.197 Y65.207   F7000
G1  Y39.991  E1.0542 F2100
G1  X127.541  E2.6613
G1  Y65.207  E1.0542
M73 P0 R200
G1  X191.197  E2.6613
; CP WIPE TOWER FIRST LAYER BRIM END
;-----------------------------------
G1  X129.869 Y42.319   F7200
;HEIGHT:0.200000
;TYPE:Wipe tower
;WIDTH:0.500000
;--------------------
; CP EMPTY GRID START
; layer #1
G1  X129.369 
G1  Y41.819 
G1  X189.369  E2.2804 F1450
G1  Y63.379  E0.8194
G1  X129.369  E2.2804
G1  Y41.819  E0.8194
M73 Q0 S201
G1  X129.869 
G1  Y42.319 
G1  X188.869  E2.2424
G1  Y62.879  E0.7814
G1  X129.869  E2.2424
G1  Y42.319  E0.7814
G1  X188.869 
G1  Y62.879 
G1  X188.369 Y62.378   E0.0269
G1  X130.369  E2.2044
G1  Y61.876  E0.0191
G1  X188.369  E2.2044
G1  Y61.375  E0.0191
G1  X130.369  E2.2044
G1  Y60.873  E0.0191
G1  X188.369  E2.2044
G1  Y60.372  E0.0191
G1  X130.369  E2.2044
G1  Y59.870  E0.0191
G1  X188.369  E2.2044
G1  Y59.369  E0.0191
G1  X130.369  E2.2044
G1  Y58.867  E0.0191
G1  X188.369  E2.2044
G1  Y58.366  E0.0191
G1  X130.369  E2.2044
G1  Y57.864  E0.0191
G1  X188.369  E2.2044
G1  Y57.363  E0.0191
G1  X130.369  E2.2044
G1  Y56.861  E0.0191
G1  X188.369  E2.2044
G1  Y56.360  E0.0191
G1  X130.369  E2.2044
G1  Y55.858  E0.0191
G1  X188.369  E2.2044
G1  Y55.357  E0.0191
G1  X130.369  E2.2044
G1  Y54.855  E0.0191
G1  X188.369  E2.2044
G1  Y54.354  E0.0191
G1  X130.369  E2.2044
M73 P0 R199
G1  Y53.852  E0.0191
G1  X188.369  E2.2044
M73 P1 R199
M73 Q1 S201
G1  Y53.351  E0.0191
G1  X130.369  E2.2044
G1  Y52.849  E0.0191
G1  X188.369  E2.2044
G1  Y52.348  E0.0191
G1  X130.369  E2.2044
M73 Q1 S200
G1  Y51.846  E0.0191
G1  X188.369  E2.2044
G1  Y51.345  E0.0191
G1  X130.369  E2.2044
G1  Y50.843  E0.0191
G1  X188.369  E2.2044
G1  Y50.342  E0.0191
G1  X130.369  E2.2044
G1  Y49.840  E0.0191
G1  X188.369  E2.2044
G1  Y49.338  E0.0191
G1  X130.369  E2.2044
G1  Y48.837  E0.0191
G1  X188.369  E2.2044
G1  Y48.335  E0.0191
G1  X130.369  E2.2044
G1  Y47.834  E0.0191
G1  X188.369  E2.2044
G1  Y47.332  E0.0191
G1  X130.369  E2.2044
G1  Y46.831  E0.0191
G1  X188.369  E2.2044
G1  Y46.330  E0.0191
G1  X130.369  E2.2044
G1  Y45.828  E0.0191
G1  X188.369  E2.2044
G1  Y45.327  E0.0191
G1  X130.369  E2.2044
G1  Y44.825  E0.0191
G1  X188.369  E2.2044
G1  Y44.324  E0.0191
G1  X130.369  E2.2044
G1  Y43.822  E0.0191
G1  X188.369  E2.2044
G1  Y43.321  E0.0191
G1  X130.369  E2.2044
G1  Y42.819  E0.0191
G1  X188.369  E2.2044
; CP EMPTY GRID END
;------------------







;WIPE_START
G1 F8640.000
G1 X185.077 Y42.819 E-0.76000
;WIPE_END
G1 E-0.04000 F2100.000
G1 Z0.600 F10800.000
G1 X192.862 Y38.781
G1 Z0.200
G1 E0.80000 F2100.000
M204 S1000
;TYPE:Skirt
;WIDTH:0.42
;HEIGHT:0.2
G1 F1200.000
G1 X193.200 Y39.400 E0.02213
G1 X193.342 Y40.092 E0.02213
G1 X193.346 Y64.990 E0.78066
G1 X193.222 Y65.735 E0.02367
G1 X192.944 Y66.300 E0.01977
G1 X192.527 Y66.773 E0.01977
G1 X192.001 Y67.120 E0.01977
G1 X191.401 Y67.316 E0.01977
G1 X72.947 Y87.971 E3.77010
M73 P1 R198
G1 X72.358 Y87.954 E0.01846
G1 X71.792 Y87.793 E0.01846
G1 X53.143 Y79.714 E0.63723
G1 X52.487 Y79.283 E0.02461
G1 X51.932 Y78.508 E0.02989
G1 X51.725 Y77.574 E0.03001
G1 X51.791 Y76.063 E0.04742
G1 X52.033 Y75.360 E0.02328
G1 X52.418 Y74.801 E0.02130
G1 X93.487 Y33.730 E1.82111
M73 Q1 S199
G1 X94.276 Y33.222 E0.02942
G1 X94.880 Y33.044 E0.01973
G1 X95.368 Y32.994 E0.01538
G1 X191.090 Y37.845 E3.00516
G1 X191.724 Y37.965 E0.02024
G1 X192.353 Y38.286 E0.02213
G1 X192.818 Y38.739 E0.02037
; printing object Rupee v10.stl id:0 copy 0
;WIPE_START
G1 F8640.000
G1 X193.200 Y39.400 E-0.17627
G1 X193.342 Y40.092 E-0.16298
G1 X193.343 Y41.914 E-0.42074
;WIPE_END
G1 E-0.04000 F2100.000
G1 Z0.600 F10800.000
G1 X102.493 Y53.813
G1 Z0.200
G1 E0.80000 F2100.000
;TYPE:Perimeter
G1 F1200.000
G1 X72.540 Y83.767 E1.32820
G1 X55.365 Y76.329 E0.58683
G1 X95.056 Y36.636 E1.76002
G1 X102.470 Y53.758 E0.58500
G1 X102.941 Y53.898 F10800.000
;TYPE:External perimeter
G1 F1200.000
G1 X72.625 Y84.214 E1.34427
G1 X54.706 Y76.455 E0.61226
G1 X95.181 Y35.977 E1.79481
G1 X102.918 Y53.843 E0.61043
G1 X102.628 Y54.146 F10800.000
;WIPE_START
G1 F8640.000
G1 X100.593 Y56.174 E-0.76000
;WIPE_END
G1 E-0.04000 F2100.000
G1 Z0.600 F10800.000
G1 X95.600 Y38.177
G1 Z0.200
G1 E0.80000 F2100.000
;TYPE:Solid infill
;WIDTH:0.420325
G1 F1200.000
G1 X94.757 Y37.334 E0.03738
G1 X94.490 Y37.601 E0.01184
G1 X95.681 Y38.792 E0.05284
G1 X96.089 Y39.733 E0.03219
G1 X94.224 Y37.868 E0.08277
G1 X93.957 Y38.135 E0.01184
G1 X96.496 Y40.675 E0.11270
G1 X96.904 Y41.616 E0.03219
G1 X93.690 Y38.402 E0.14264
G1 X93.423 Y38.669 E0.01184
G1 X97.312 Y42.557 E0.17257
G1 X97.719 Y43.499 E0.03219
G1 X93.156 Y38.936 E0.20250
G1 X92.889 Y39.203 E0.01184
G1 X98.127 Y44.440 E0.23244
G1 X98.534 Y45.381 E0.03219
G1 X92.622 Y39.469 E0.26237
G1 X92.356 Y39.736 E0.01184
G1 X98.942 Y46.323 E0.29230
G1 X99.350 Y47.264 E0.03219
G1 X92.089 Y40.003 E0.32224
G1 X91.822 Y40.270 E0.01184
G1 X99.757 Y48.205 E0.35217
G1 X100.165 Y49.147 E0.03219
G1 X91.555 Y40.537 E0.38210
G1 X91.288 Y40.804 E0.01184
G1 X100.572 Y50.088 E0.41204
G1 X100.980 Y51.029 E0.03219
G1 X91.021 Y41.071 E0.44197
G1 X90.754 Y41.338 E0.01184
G1 X101.388 Y51.971 E0.47190
G1 X101.795 Y52.912 E0.03219
G1 X90.488 Y41.604 E0.50184
G1 X90.221 Y41.871 E0.01184
G1 X102.128 Y53.778 E0.52844
G1 X101.861 Y54.045 E0.01184
G1 X89.954 Y42.138 E0.52844
G1 X89.687 Y42.405 E0.01184
G1 X101.594 Y54.312 E0.52844
G1 X101.327 Y54.579 E0.01184
G1 X89.420 Y42.672 E0.52844
G1 X89.153 Y42.939 E0.01184
G1 X101.060 Y54.846 E0.52844
G1 X100.794 Y55.113 E0.01184
G1 X88.886 Y43.206 E0.52844
G1 X88.620 Y43.473 E0.01184
G1 X100.527 Y55.380 E0.52844
G1 X100.260 Y55.647 E0.01184
G1 X88.353 Y43.739 E0.52844
G1 X88.086 Y44.006 E0.01184
G1 X99.993 Y55.913 E0.52844
G1 X99.726 Y56.180 E0.01184
G1 X87.819 Y44.273 E0.52843
G1 X87.552 Y44.540 E0.01184
G1 X99.459 Y56.447 E0.52843
G1 X99.192 Y56.714 E0.01184
G1 X87.285 Y44.807 E0.52843
G1 X87.018 Y45.074 E0.01184
G1 X98.925 Y56.981 E0.52843
G1 X98.659 Y57.248 E0.01184
G1 X86.752 Y45.341 E0.52843
G1 X86.485 Y45.608 E0.01184
G1 X98.392 Y57.515 E0.52843
G1 X98.125 Y57.781 E0.01184
G1 X86.218 Y45.874 E0.52843
G1 X85.951 Y46.141 E0.01184
G1 X97.858 Y58.048 E0.52843
G1 X97.591 Y58.315 E0.01184
G1 X85.684 Y46.408 E0.52843
G1 X85.417 Y46.675 E0.01184
G1 X97.324 Y58.582 E0.52843
G1 X97.057 Y58.849 E0.01184
G1 X85.150 Y46.942 E0.52843
G1 X84.884 Y47.209 E0.01184
G1 X96.791 Y59.116 E0.52843
G1 X96.524 Y59.383 E0.01184
G1 X84.617 Y47.476 E0.52843
G1 X84.350 Y47.743 E0.01184
G1 X96.257 Y59.650 E0.52843
G1 X95.990 Y59.916 E0.01184
G1 X84.083 Y48.009 E0.52843
G1 X83.816 Y48.276 E0.01184
G1 X95.723 Y60.183 E0.52843
G1 X95.456 Y60.450 E0.01184
G1 X83.549 Y48.543 E0.52843
M73 P1 R197
G1 X83.282 Y48.810 E0.01184
G1 X95.189 Y60.717 E0.52843
G1 X94.922 Y60.984 E0.01184
G1 X83.016 Y49.077 E0.52843
G1 X82.749 Y49.344 E0.01184
G1 X94.656 Y61.251 E0.52843
G1 X94.389 Y61.518 E0.01184
G1 X82.482 Y49.611 E0.52843
M73 P2 R197
G1 X82.215 Y49.878 E0.01184
M73 Q2 S199
G1 X94.122 Y61.784 E0.52843
G1 X93.855 Y62.051 E0.01184
G1 X81.948 Y50.144 E0.52843
G1 X81.681 Y50.411 E0.01184
G1 X93.588 Y62.318 E0.52843
G1 X93.321 Y62.585 E0.01184
G1 X81.414 Y50.678 E0.52843
G1 X81.148 Y50.945 E0.01184
G1 X93.054 Y62.852 E0.52843
G1 X92.788 Y63.119 E0.01184
G1 X80.881 Y51.212 E0.52843
G1 X80.614 Y51.479 E0.01184
G1 X92.521 Y63.386 E0.52843
M73 Q2 S198
G1 X92.254 Y63.652 E0.01184
G1 X80.347 Y51.746 E0.52843
G1 X80.080 Y52.012 E0.01184
G1 X91.987 Y63.919 E0.52843
G1 X91.720 Y64.186 E0.01184
G1 X79.813 Y52.279 E0.52843
G1 X79.546 Y52.546 E0.01184
G1 X91.453 Y64.453 E0.52842
G1 X91.186 Y64.720 E0.01184
G1 X79.280 Y52.813 E0.52842
G1 X79.013 Y53.080 E0.01184
G1 X90.919 Y64.987 E0.52842
G1 X90.653 Y65.254 E0.01184
G1 X78.746 Y53.347 E0.52842
G1 X78.479 Y53.614 E0.01184
G1 X90.386 Y65.521 E0.52842
G1 X90.119 Y65.787 E0.01184
G1 X78.212 Y53.881 E0.52842
G1 X77.945 Y54.147 E0.01184
G1 X89.852 Y66.054 E0.52842
G1 X89.585 Y66.321 E0.01184
G1 X77.678 Y54.414 E0.52842
G1 X77.412 Y54.681 E0.01184
G1 X89.318 Y66.588 E0.52842
G1 X89.051 Y66.855 E0.01184
G1 X77.145 Y54.948 E0.52842
G1 X76.878 Y55.215 E0.01184
G1 X88.785 Y67.122 E0.52842
G1 X88.518 Y67.389 E0.01184
G1 X76.611 Y55.482 E0.52842
G1 X76.344 Y55.749 E0.01184
G1 X88.251 Y67.655 E0.52842
G1 X87.984 Y67.922 E0.01184
G1 X76.077 Y56.016 E0.52842
G1 X75.810 Y56.282 E0.01184
G1 X87.717 Y68.189 E0.52842
G1 X87.450 Y68.456 E0.01184
G1 X75.544 Y56.549 E0.52842
G1 X75.277 Y56.816 E0.01184
G1 X87.183 Y68.723 E0.52842
G1 X86.917 Y68.990 E0.01184
G1 X75.010 Y57.083 E0.52842
G1 X74.743 Y57.350 E0.01184
G1 X86.650 Y69.257 E0.52842
G1 X86.383 Y69.524 E0.01184
G1 X74.476 Y57.617 E0.52842
G1 X74.209 Y57.884 E0.01184
G1 X86.116 Y69.790 E0.52842
G1 X85.849 Y70.057 E0.01184
G1 X73.942 Y58.151 E0.52842
G1 X73.676 Y58.417 E0.01184
G1 X85.582 Y70.324 E0.52842
G1 X85.315 Y70.591 E0.01184
G1 X73.409 Y58.684 E0.52842
G1 X73.142 Y58.951 E0.01184
G1 X85.048 Y70.858 E0.52842
G1 X84.782 Y71.125 E0.01184
G1 X72.875 Y59.218 E0.52842
G1 X72.608 Y59.485 E0.01184
G1 X84.515 Y71.392 E0.52842
G1 X84.248 Y71.658 E0.01184
G1 X72.341 Y59.752 E0.52842
G1 X72.074 Y60.019 E0.01184
G1 X83.981 Y71.925 E0.52842
G1 X83.714 Y72.192 E0.01184
G1 X71.807 Y60.286 E0.52842
G1 X71.541 Y60.552 E0.01184
G1 X83.447 Y72.459 E0.52842
G1 X83.180 Y72.726 E0.01184
G1 X71.274 Y60.819 E0.52841
G1 X71.007 Y61.086 E0.01184
G1 X82.914 Y72.993 E0.52841
G1 X82.647 Y73.260 E0.01184
G1 X70.740 Y61.353 E0.52841
G1 X70.473 Y61.620 E0.01184
G1 X82.380 Y73.527 E0.52841
G1 X82.113 Y73.793 E0.01184
G1 X70.206 Y61.887 E0.52841
G1 X69.939 Y62.154 E0.01184
G1 X81.846 Y74.060 E0.52841
G1 X81.579 Y74.327 E0.01184
G1 X69.673 Y62.421 E0.52841
G1 X69.406 Y62.687 E0.01184
G1 X81.312 Y74.594 E0.52841
G1 X81.045 Y74.861 E0.01184
G1 X69.139 Y62.954 E0.52841
G1 X68.872 Y63.221 E0.01184
G1 X80.779 Y75.128 E0.52841
G1 X80.512 Y75.395 E0.01184
G1 X68.605 Y63.488 E0.52841
G1 X68.338 Y63.755 E0.01184
G1 X80.245 Y75.661 E0.52841
G1 X79.978 Y75.928 E0.01184
G1 X68.071 Y64.022 E0.52841
G1 X67.805 Y64.289 E0.01184
G1 X79.711 Y76.195 E0.52841
G1 X79.444 Y76.462 E0.01184
G1 X67.538 Y64.556 E0.52841
G1 X67.271 Y64.822 E0.01184
G1 X79.177 Y76.729 E0.52841
G1 X78.911 Y76.996 E0.01184
G1 X67.004 Y65.089 E0.52841
G1 X66.737 Y65.356 E0.01184
G1 X78.644 Y77.263 E0.52841
G1 X78.377 Y77.529 E0.01184
G1 X66.470 Y65.623 E0.52841
G1 X66.203 Y65.890 E0.01184
G1 X78.110 Y77.796 E0.52841
G1 X77.843 Y78.063 E0.01184
G1 X65.937 Y66.157 E0.52841
G1 X65.670 Y66.424 E0.01184
G1 X77.576 Y78.330 E0.52841
G1 X77.309 Y78.597 E0.01184
G1 X65.403 Y66.691 E0.52841
G1 X65.136 Y66.957 E0.01184
G1 X77.042 Y78.864 E0.52841
G1 X76.776 Y79.131 E0.01184
G1 X64.869 Y67.224 E0.52841
M73 P2 R196
G1 X64.602 Y67.491 E0.01184
G1 X76.509 Y79.398 E0.52841
G1 X76.242 Y79.664 E0.01184
G1 X64.335 Y67.758 E0.52841
G1 X64.069 Y68.025 E0.01184
G1 X75.975 Y79.931 E0.52841
G1 X75.708 Y80.198 E0.01184
G1 X63.802 Y68.292 E0.52841
G1 X63.535 Y68.559 E0.01184
G1 X75.441 Y80.465 E0.52841
G1 X75.174 Y80.732 E0.01184
G1 X63.268 Y68.825 E0.52841
G1 X63.001 Y69.092 E0.01184
G1 X74.908 Y80.999 E0.52840
G1 X74.641 Y81.266 E0.01184
G1 X62.734 Y69.359 E0.52840
G1 X62.467 Y69.626 E0.01184
G1 X74.374 Y81.532 E0.52840
G1 X74.107 Y81.799 E0.01184
G1 X62.201 Y69.893 E0.52840
M73 Q2 S197
G1 X61.934 Y70.160 E0.01184
G1 X73.840 Y82.066 E0.52840
G1 X73.573 Y82.333 E0.01184
G1 X61.667 Y70.427 E0.52840
G1 X61.400 Y70.694 E0.01184
G1 X73.306 Y82.600 E0.52840
G1 X73.040 Y82.867 E0.01184
G1 X61.133 Y70.960 E0.52840
G1 X60.866 Y71.227 E0.01184
G1 X72.773 Y83.134 E0.52840
G1 X72.506 Y83.401 E0.01184
G1 X60.599 Y71.494 E0.52840
G1 X60.333 Y71.761 E0.01184
G1 X71.641 Y83.069 E0.50185
G1 X70.699 Y82.661 E0.03219
G1 X60.066 Y72.028 E0.47191
G1 X59.799 Y72.295 E0.01184
G1 X69.758 Y82.254 E0.44198
G1 X68.816 Y81.846 E0.03219
G1 X59.532 Y72.562 E0.41204
G1 X59.265 Y72.829 E0.01184
G1 X67.875 Y81.439 E0.38211
G1 X66.934 Y81.031 E0.03219
G1 X58.998 Y73.095 E0.35218
G1 X58.731 Y73.362 E0.01184
G1 X65.992 Y80.623 E0.32224
G1 X65.051 Y80.216 E0.03219
G1 X58.465 Y73.629 E0.29231
G1 X58.198 Y73.896 E0.01184
G1 X64.110 Y79.808 E0.26237
G1 X63.168 Y79.400 E0.03219
G1 X57.931 Y74.163 E0.23244
G1 X57.664 Y74.430 E0.01184
G1 X62.227 Y78.993 E0.20251
