; generated by PrusaSlicer 2.1.0+win64 on 2020-03-03 at 19:37:31 UTC

; 

; external perimeters extrusion width = 0.45mm
; perimeters extrusion width = 0.45mm
; infill extrusion width = 0.45mm
; solid infill extrusion width = 0.45mm
; top infill extrusion width = 0.40mm
; first layer extrusion width = 0.42mm

M73 P0 R76
M73 Q0 S76
M201 X1000 Y1000 Z1000 E5000 ; sets maximum accelerations, mm/sec^2
M203 X200 Y200 Z12 E120 ; sets maximum feedrates, mm/sec
M204 P1250 R1250 T1250 ; sets acceleration (P, T) and retract acceleration (R), mm/sec^2
M205 X8.00 Y8.00 Z0.40 E1.50 ; sets the jerk limits, mm/sec
M205 S0 T0 ; sets the minimum extruding and travel feed rate, mm/sec
M107
G28  ; home all - moves print head over the edge for possible ooze.
M18 ; Disable steppers
M140 S60 ; set bed temp
M190 S60 ; wait for bed temp
M104 S240 ; set extruder temp
M109 S240 ; wait for extruder temp
G28  ; home all
G29 A L J ; Unified bed leveling on, loaded and tilted
G1 Y1.0 X1.0 Z0.35 F6000.0 ; go to purge line.
G90 ; use absolute position
G1 Z0.35 F300.0; 
G92 E0.0
G1 X90 E15.0  F1000.0 ; intro line
M73 Q0 S76
M73 P0 R75
G92 E0.0
G21 ; set units to millimeters
G90 ; use absolute coordinates
M83 ; use relative distances for extrusion
M900 K30 ; Filament gcode
;BEFORE_LAYER_CHANGE
G92 E0.0
;0.2


G1 E-0.80000 F2100.00000
G1 Z0.600 F10800.000
;AFTER_LAYER_CHANGE
;0.2
G1 X104.053 Y88.503
G1 Z0.200
G1 E0.80000 F2100.00000
M204 S1000
G1 F1200
G1 X104.639 Y88.059 E0.02304
G1 X105.342 Y87.833 E0.02315
G1 X117.654 Y87.811 E0.38603
G1 X118.182 Y87.877 E0.01669
G1 X118.679 Y88.068 E0.01669
G1 X119.117 Y88.376 E0.01680
G1 X119.466 Y88.778 E0.01669
G1 X195.824 Y203.873 E4.33069
G1 X196.283 Y204.894 E0.03508
G1 X196.515 Y206.007 E0.03567
G1 X196.538 Y210.529 E0.14178
G1 X196.444 Y211.480 E0.02996
G1 X196.102 Y212.582 E0.03619
G1 X195.565 Y213.525 E0.03401
G1 X194.834 Y214.345 E0.03446
G1 X193.980 Y214.972 E0.03320
G1 X192.860 Y215.462 E0.03833
G1 X191.992 Y215.647 E0.02786
G1 X191.370 Y215.688 E0.01955
G1 X114.052 Y215.687 E2.42424
G1 X113.285 Y215.638 E0.02410
G1 X112.059 Y215.385 E0.03923
G1 X110.619 Y214.777 E0.04903
G1 X109.927 Y214.336 E0.02571
G1 X108.974 Y213.516 E0.03944
G1 X107.995 Y212.260 E0.04993
G1 X107.620 Y211.562 E0.02485
G1 X107.186 Y210.385 E0.03930
G1 X106.942 Y208.860 E0.04845
G1 X103.463 Y134.580 E2.33153
G1 X103.468 Y89.832 E1.40306
G1 X103.646 Y89.119 E0.02304
G1 X104.020 Y88.553 E0.02127
G1 F8640
G1 X104.639 Y88.059 E-0.18279
G1 X105.342 Y87.833 E-0.17049
G1 X107.103 Y87.830 E-0.40671
G1 E-0.04000 F2100.00000
G1 Z0.800 F10800.000
G1 X106.237 Y90.987
G1 Z0.200
G1 E0.80000 F2100.00000
G1 F1200
G1 X108.363 Y90.987 E0.06665
G1 X108.363 Y121.087 E0.94376
G1 X114.937 Y121.087 E0.20613
G1 X114.937 Y90.987 E0.94376
G1 X117.063 Y90.987 E0.06665
G1 X117.063 Y134.496 E1.36418
G1 X116.054 Y204.087 E2.18222
G1 X131.581 Y204.087 E0.48682
G1 X131.504 Y204.339 E0.00826
G1 X131.478 Y204.810 E0.01478
G1 X131.527 Y205.240 E0.01359
G1 X131.629 Y205.641 E0.01297
G1 X131.773 Y206.016 E0.01258
G1 X131.955 Y206.365 E0.01234
G1 X132.159 Y206.669 E0.01149
G1 X132.389 Y206.943 E0.01123
G1 X132.683 Y207.218 E0.01259
G1 X132.966 Y207.422 E0.01097
G1 X133.221 Y207.567 E0.00919
G1 X133.652 Y207.733 E0.01448
G1 X133.962 Y207.803 E0.00998
G1 X134.413 Y207.832 E0.01415
G1 X134.724 Y207.805 E0.00980
G1 X135.062 Y207.728 E0.01085
G1 X135.479 Y207.567 E0.01403
G1 X135.738 Y207.419 E0.00934
G1 X136.013 Y207.220 E0.01064
G1 X136.285 Y206.970 E0.01159
G1 X136.532 Y206.682 E0.01188
G1 X136.745 Y206.366 E0.01196
G1 X136.909 Y206.056 E0.01101
G1 X137.044 Y205.728 E0.01111
G1 X137.144 Y205.392 E0.01097
G1 X137.207 Y205.055 E0.01076
G1 X137.227 Y204.731 E0.01016
G1 X137.210 Y204.424 E0.00966
G1 X137.148 Y204.087 E0.01073
G1 X137.713 Y204.087 E0.01770
G1 X137.713 Y204.494 E0.01277
G1 X137.520 Y204.795 E0.01120
G1 X137.314 Y205.297 E0.01700
G1 X137.200 Y205.758 E0.01489
G1 X137.150 Y206.214 E0.01438
G1 X137.165 Y206.717 E0.01578
G1 X137.240 Y207.163 E0.01418
G1 X137.397 Y207.652 E0.01612
G1 X137.577 Y208.036 E0.01330
G1 X137.878 Y208.483 E0.01688
G1 X138.172 Y208.813 E0.01388
G1 X138.464 Y209.066 E0.01211
G1 X138.961 Y209.376 E0.01835
G1 X139.312 Y209.527 E0.01200
G1 X139.869 Y209.670 E0.01802
G1 X140.244 Y209.706 E0.01180
G1 X140.755 Y209.680 E0.01604
G1 X141.122 Y209.609 E0.01175
G1 X141.479 Y209.493 E0.01175
G1 X142.004 Y209.227 E0.01847
G1 X142.322 Y208.997 E0.01231
G1 X142.748 Y208.579 E0.01868
G1 X142.960 Y208.296 E0.01110
G1 X143.010 Y208.505 E0.00676
G1 X143.136 Y208.855 E0.01167
G1 X143.299 Y209.189 E0.01164
G1 X143.496 Y209.505 E0.01168
G1 X143.734 Y209.805 E0.01200
G1 X143.984 Y210.063 E0.01125
G1 X144.270 Y210.300 E0.01164
G1 X144.579 Y210.505 E0.01164
G1 X144.909 Y210.676 E0.01164
G1 X145.255 Y210.812 E0.01168
G1 X145.624 Y210.911 E0.01198
G1 X145.979 Y210.968 E0.01127
G1 X146.350 Y210.988 E0.01164
G1 X146.721 Y210.968 E0.01164
G1 X147.076 Y210.911 E0.01127
G1 X147.445 Y210.812 E0.01198
G1 X147.791 Y210.676 E0.01168
G1 X148.121 Y210.505 E0.01164
G1 X148.430 Y210.300 E0.01164
G1 X148.716 Y210.063 E0.01164
G1 X148.975 Y209.796 E0.01164
G1 X149.205 Y209.504 E0.01164
G1 X149.401 Y209.189 E0.01164
G1 X149.564 Y208.855 E0.01164
G1 X149.690 Y208.506 E0.01164
G1 X149.778 Y208.145 E0.01167
G1 X149.827 Y207.768 E0.01192
G1 X149.826 Y207.276 E0.01542
G1 X150.007 Y207.549 E0.01028
G1 X150.297 Y207.877 E0.01372
G1 X150.764 Y208.259 E0.01892
G1 X151.255 Y208.519 E0.01744
G1 X151.593 Y208.637 E0.01122
G1 X151.971 Y208.713 E0.01207
G1 X152.395 Y208.741 E0.01334
G1 X152.751 Y208.712 E0.01120
G1 X153.277 Y208.585 E0.01696
G1 X153.653 Y208.420 E0.01287
G1 X154.104 Y208.138 E0.01669
G1 X154.392 Y207.887 E0.01198
G1 X154.692 Y207.549 E0.01417
G1 X154.962 Y207.145 E0.01521
G1 X155.068 Y206.924 E0.00770
G1 X155.024 Y207.261 E0.01064
G1 X155.028 Y207.589 E0.01031
G1 X155.067 Y207.959 E0.01165
G1 X155.151 Y208.335 E0.01206
G1 X155.367 Y208.900 E0.01897
G1 X155.528 Y209.189 E0.01038
G1 X155.729 Y209.481 E0.01113
G1 X155.963 Y209.752 E0.01122
G1 X156.195 Y209.972 E0.01002
G1 X156.442 Y210.164 E0.00981
G1 X156.746 Y210.356 E0.01130
G1 X157.038 Y210.500 E0.01020
G1 X157.337 Y210.613 E0.01002
G1 X157.677 Y210.703 E0.01103
G1 X157.989 Y210.753 E0.00992
G1 X158.323 Y210.773 E0.01049
G1 X158.677 Y210.756 E0.01109
G1 X158.987 Y210.711 E0.00984
G1 X159.313 Y210.629 E0.01054
G1 X159.766 Y210.450 E0.01525
G1 X160.213 Y210.196 E0.01613
G1 X160.489 Y209.985 E0.01090
G1 X160.729 Y209.761 E0.01031
G1 X160.959 Y209.495 E0.01101
G1 X161.157 Y209.213 E0.01083
G1 X161.321 Y208.924 E0.01038
G1 X161.542 Y208.360 E0.01901
G1 X161.629 Y207.984 E0.01209
G1 X161.672 Y207.605 E0.01196
G1 X161.664 Y207.115 E0.01537
G1 X161.602 Y206.684 E0.01365
G1 X161.499 Y206.312 E0.01209
G1 X161.318 Y205.886 E0.01453
G1 X160.987 Y205.356 E0.01958
G1 X160.987 Y204.087 E0.03979
G1 X161.581 Y204.087 E0.01862
G1 X161.503 Y204.339 E0.00826
G1 X161.478 Y204.810 E0.01478
G1 X161.527 Y205.240 E0.01359
G1 X161.629 Y205.641 E0.01297
G1 X161.773 Y206.016 E0.01258
G1 X161.955 Y206.365 E0.01234
G1 X162.159 Y206.669 E0.01149
G1 X162.389 Y206.943 E0.01123
G1 X162.683 Y207.218 E0.01259
G1 X162.966 Y207.422 E0.01097
G1 X163.221 Y207.567 E0.00919
G1 X163.652 Y207.733 E0.01448
G1 X163.962 Y207.803 E0.00998
G1 X164.413 Y207.832 E0.01415
G1 X164.724 Y207.805 E0.00980
G1 X165.062 Y207.728 E0.01085
G1 X165.479 Y207.567 E0.01403
G1 X165.738 Y207.419 E0.00934
G1 X166.013 Y207.220 E0.01064
G1 X166.285 Y206.970 E0.01159
G1 X166.532 Y206.682 E0.01188
G1 X166.745 Y206.366 E0.01196
G1 X166.909 Y206.056 E0.01101
G1 X167.044 Y205.728 E0.01111
G1 X167.144 Y205.392 E0.01097
G1 X167.207 Y205.055 E0.01077
G1 X167.227 Y204.731 E0.01016
G1 X167.210 Y204.424 E0.00966
G1 X167.148 Y204.087 E0.01073
G1 X167.713 Y204.087 E0.01770
G1 X167.713 Y204.494 E0.01277
G1 X167.520 Y204.795 E0.01120
G1 X167.314 Y205.297 E0.01700
G1 X167.200 Y205.758 E0.01489
G1 X167.150 Y206.214 E0.01438
G1 X167.165 Y206.717 E0.01578
G1 X167.240 Y207.163 E0.01418
G1 X167.397 Y207.652 E0.01612
G1 X167.577 Y208.036 E0.01330
G1 X167.878 Y208.483 E0.01688
G1 X168.172 Y208.813 E0.01388
G1 X168.464 Y209.066 E0.01211
G1 X168.961 Y209.376 E0.01835
G1 X169.312 Y209.527 E0.01200
G1 X169.869 Y209.670 E0.01802
G1 X170.244 Y209.706 E0.01180
G1 X170.755 Y209.680 E0.01605
G1 X171.122 Y209.609 E0.01175
G1 X171.479 Y209.493 E0.01175
G1 X172.004 Y209.227 E0.01847
G1 X172.322 Y208.997 E0.01231
G1 X172.748 Y208.579 E0.01868
G1 X172.960 Y208.296 E0.01110
G1 X173.010 Y208.505 E0.00676
G1 X173.136 Y208.855 E0.01167
G1 X173.299 Y209.189 E0.01164
G1 X173.495 Y209.504 E0.01164
G1 X173.725 Y209.796 E0.01164
G1 X173.984 Y210.063 E0.01164
G1 X174.270 Y210.300 E0.01164
G1 X174.579 Y210.505 E0.01164
G1 X174.899 Y210.671 E0.01129
G1 X175.254 Y210.811 E0.01199
G1 X175.624 Y210.911 E0.01201
G1 X175.979 Y210.968 E0.01127
G1 X176.350 Y210.988 E0.01164
G1 X176.721 Y210.968 E0.01164
G1 X177.076 Y210.911 E0.01127
G1 X177.445 Y210.812 E0.01198
G1 X177.791 Y210.676 E0.01168
G1 X178.121 Y210.505 E0.01164
G1 X178.430 Y210.300 E0.01164
G1 X178.716 Y210.062 E0.01164
G1 X178.966 Y209.805 E0.01125
G1 X179.204 Y209.505 E0.01200
G1 X179.401 Y209.189 E0.01168
G1 X179.564 Y208.855 E0.01164
G1 X179.690 Y208.506 E0.01164
G1 X179.778 Y208.145 E0.01164
G1 X179.827 Y207.777 E0.01164
G1 X179.826 Y207.276 E0.01573
G1 X180.007 Y207.549 E0.01028
G1 X180.297 Y207.877 E0.01372
G1 X180.764 Y208.259 E0.01892
G1 X181.255 Y208.519 E0.01744
G1 X181.593 Y208.637 E0.01122
G1 X181.971 Y208.713 E0.01207
G1 X182.395 Y208.741 E0.01334
G1 X182.751 Y208.712 E0.01120
G1 X183.277 Y208.585 E0.01696
G1 X183.653 Y208.420 E0.01287
G1 X184.104 Y208.138 E0.01669
G1 X184.392 Y207.887 E0.01198
G1 X184.692 Y207.549 E0.01417
G1 X184.962 Y207.145 E0.01521
G1 X185.068 Y206.924 E0.00770
G1 X185.024 Y207.261 E0.01064
G1 X185.028 Y207.589 E0.01031
G1 X185.067 Y207.959 E0.01165
G1 X185.151 Y208.335 E0.01206
G1 X185.367 Y208.900 E0.01897
G1 X185.528 Y209.189 E0.01037
G1 X185.729 Y209.481 E0.01113
G1 X185.963 Y209.752 E0.01122
G1 X186.195 Y209.972 E0.01002
G1 X186.442 Y210.164 E0.00981
G1 X186.746 Y210.356 E0.01130
G1 X187.038 Y210.500 E0.01020
G1 X187.337 Y210.613 E0.01002
G1 X187.677 Y210.703 E0.01103
G1 X187.989 Y210.753 E0.00992
G1 X188.323 Y210.773 E0.01049
G1 X188.677 Y210.756 E0.01109
G1 X188.987 Y210.711 E0.00984
G1 X189.305 Y210.632 E0.01026
G1 X189.629 Y210.514 E0.01083
G1 X189.933 Y210.368 E0.01057
G1 X190.188 Y210.211 E0.00937
G1 X190.487 Y209.987 E0.01172
G1 X190.736 Y209.755 E0.01067
G1 X191.055 Y209.362 E0.01588
G1 X191.317 Y208.934 E0.01574
G1 X191.542 Y208.360 E0.01931
G1 X191.629 Y207.984 E0.01209
G1 X191.672 Y207.605 E0.01196
G1 X191.664 Y207.111 E0.01548
G1 X191.585 Y206.613 E0.01582
G1 X191.393 Y206.039 E0.01897
G1 X191.218 Y205.697 E0.01204
G1 X190.987 Y205.356 E0.01292
G1 X190.987 Y204.094 E0.03957
G1 X191.613 Y204.103 E0.01963
G1 X191.854 Y204.141 E0.00765
G1 X192.095 Y204.206 E0.00784
G1 X192.331 Y204.296 E0.00792
G1 X192.556 Y204.411 E0.00792
G1 X192.766 Y204.547 E0.00784
G1 X192.964 Y204.708 E0.00800
G1 X193.143 Y204.886 E0.00791
G1 X193.301 Y205.082 E0.00792
G1 X193.439 Y205.294 E0.00791
G1 X193.555 Y205.522 E0.00801
G1 X193.644 Y205.755 E0.00783
G1 X193.709 Y205.998 E0.00792
G1 X193.749 Y206.248 E0.00792
G1 X193.763 Y206.515 E0.00840
G1 X193.763 Y210.485 E0.12445
G1 X193.749 Y210.752 E0.00840
G1 X193.709 Y211.001 E0.00792
G1 X193.644 Y211.245 E0.00792
G1 X193.554 Y211.481 E0.00792
G1 X193.441 Y211.703 E0.00780
G1 X193.301 Y211.918 E0.00805
G1 X193.143 Y212.114 E0.00790
G1 X192.964 Y212.293 E0.00792
G1 X192.768 Y212.451 E0.00792
G1 X192.559 Y212.587 E0.00780
G1 X192.331 Y212.704 E0.00805
G1 X192.095 Y212.794 E0.00790
G1 X191.852 Y212.859 E0.00792
G1 X191.602 Y212.899 E0.00792
G1 X191.335 Y212.913 E0.00840
G1 X114.136 Y212.913 E2.42050
G1 X113.674 Y212.889 E0.01452
G1 X113.231 Y212.821 E0.01405
G1 X112.797 Y212.709 E0.01405
G1 X112.377 Y212.553 E0.01405
G1 X111.975 Y212.355 E0.01405
G1 X111.595 Y212.117 E0.01405
G1 X111.241 Y211.843 E0.01405
G1 X110.917 Y211.533 E0.01405
G1 X110.626 Y211.193 E0.01405
G1 X110.371 Y210.824 E0.01405
G1 X110.155 Y210.432 E0.01405
G1 X109.979 Y210.020 E0.01405
G1 X109.846 Y209.592 E0.01405
G1 X109.758 Y209.152 E0.01405
G1 X109.713 Y208.692 E0.01452
G1 X106.237 Y134.486 E2.32921
G1 X106.237 Y91.047 E1.36201
G1 F8640
G1 X108.363 Y90.987 E-0.49106
G1 X108.363 Y92.152 E-0.26894
G1 E-0.04000 F2100.00000
G1 Z0.800 F10800.000
G1 X142.987 Y204.087
G1 Z0.200
G1 E0.80000 F2100.00000
G1 F1200
G1 X143.713 Y204.087 E0.02276
G1 X143.713 Y205.227 E0.03575
G1 X143.453 Y205.566 E0.01338
G1 X143.385 Y205.296 E0.00871
G1 X143.171 Y204.778 E0.01757
G1 X142.987 Y204.493 E0.01064
G1 X142.987 Y204.147 E0.01085
G1 F8640
G1 X143.713 Y204.087 E-0.16817
G1 X143.713 Y205.227 E-0.26327
G1 X143.453 Y205.566 E-0.09856
G1 X143.385 Y205.296 E-0.06411
G1 X143.171 Y204.778 E-0.12942
G1 X143.085 Y204.646 E-0.03647
G1 E-0.04000 F2100.00000
G1 Z0.800 F10800.000
G1 X148.987 Y204.147
G1 Z0.200
G1 E0.80000 F2100.00000
G1 F1200
G1 X148.987 Y204.087 E0.00188
G1 X149.623 Y204.087 E0.01992
G1 X149.477 Y204.349 E0.00940
G1 X149.335 Y204.842 E0.01608
G1 X149.283 Y205.333 E0.01547
G1 X149.297 Y205.636 E0.00953
G1 X148.987 Y205.227 E0.01610
G1 X148.987 Y204.207 E0.03199
G1 F8640
G1 X148.987 Y204.087 E-0.02771
G1 X149.623 Y204.087 E-0.14673
G1 X149.477 Y204.349 E-0.06921
G1 X149.335 Y204.842 E-0.11842
G1 X149.283 Y205.333 E-0.11392
G1 X149.297 Y205.636 E-0.07016
G1 X148.987 Y205.227 E-0.11854
G1 X148.987 Y204.814 E-0.09531
G1 E-0.04000 F2100.00000
G1 Z0.800 F10800.000
G1 X155.097 Y204.087
G1 Z0.200
G1 E0.80000 F2100.00000
G1 F1200
G1 X155.713 Y204.087 E0.01930
G1 X155.713 Y205.364 E0.04003
G1 X155.588 Y205.530 E0.00651
G1 X155.382 Y205.885 E0.01286
G1 X155.416 Y205.346 E0.01691
G1 X155.399 Y205.049 E0.00934
G1 X155.331 Y204.674 E0.01196
G1 X155.222 Y204.356 E0.01052
G1 X155.123 Y204.141 E0.00742
G1 F8640
G1 X155.713 Y204.087 E-0.13689
G1 X155.713 Y205.364 E-0.29478
G1 X155.588 Y205.530 E-0.04797
G1 X155.382 Y205.885 E-0.09469
G1 X155.416 Y205.346 E-0.12457
G1 X155.401 Y205.082 E-0.06110
G1 E-0.04000 F2100.00000
G1 Z0.800 F10800.000
G1 X172.987 Y204.142
G1 Z0.200
G1 E0.80000 F2100.00000
G1 F1200
G1 X172.987 Y204.087 E0.00171
G1 X173.713 Y204.087 E0.02276
G1 X173.713 Y205.227 E0.03575
G1 X173.453 Y205.566 E0.01338
G1 X173.385 Y205.296 E0.00871
G1 X173.171 Y204.778 E0.01757
G1 X172.987 Y204.493 E0.01064
G1 X172.987 Y204.202 E0.00914
G1 F8640
G1 X172.987 Y204.087 E-0.02643
G1 X173.713 Y204.087 E-0.16760
G1 X173.713 Y205.227 E-0.26327
G1 X173.453 Y205.566 E-0.09856
G1 X173.385 Y205.296 E-0.06412
G1 X173.171 Y204.778 E-0.12942
G1 X173.146 Y204.740 E-0.01062
G1 E-0.04000 F2100.00000
G1 Z0.800 F10800.000
G1 X178.987 Y204.202
G1 Z0.200
G1 E0.80000 F2100.00000
G1 F1200
G1 X178.987 Y204.087 E0.00359
G1 X179.623 Y204.087 E0.01992
G1 X179.477 Y204.349 E0.00940
G1 X179.335 Y204.842 E0.01608
G1 X179.283 Y205.333 E0.01547
G1 X179.297 Y205.636 E0.00953
G1 X178.987 Y205.227 E0.01610
G1 X178.987 Y204.262 E0.03028
G1 F8640
G1 X178.987 Y204.087 E-0.04028
G1 X179.623 Y204.087 E-0.14673
G1 X179.477 Y204.349 E-0.06921
G1 X179.335 Y204.842 E-0.11842
G1 X179.283 Y205.333 E-0.11391
G1 X179.297 Y205.636 E-0.07017
G1 X178.987 Y205.227 E-0.11854
G1 X178.987 Y204.869 E-0.08274
G1 E-0.04000 F2100.00000
G1 Z0.800 F10800.000
G1 X185.097 Y204.087
G1 Z0.200
G1 E0.80000 F2100.00000
G1 F1200
G1 X185.713 Y204.087 E0.01930
G1 X185.713 Y205.364 E0.04003
G1 X185.588 Y205.530 E0.00651
G1 X185.382 Y205.885 E0.01286
G1 X185.416 Y205.346 E0.01691
G1 X185.399 Y205.049 E0.00934
G1 X185.331 Y204.674 E0.01196
G1 X185.222 Y204.356 E0.01052
G1 X185.123 Y204.141 E0.00742
G1 F8640
G1 X185.713 Y204.087 E-0.13689
G1 X185.713 Y205.364 E-0.29478
G1 X185.588 Y205.530 E-0.04796
G1 X185.382 Y205.885 E-0.09469
G1 X185.416 Y205.346 E-0.12456
G1 X185.401 Y205.082 E-0.06111
G1 E-0.04000 F2100.00000
G1 Z0.800 F10800.000
G1 X108.740 Y120.710
G1 Z0.200
G1 E0.80000 F2100.00000
G1 F1200
G1 X114.560 Y120.710 E0.18248
G1 X114.560 Y90.610 E0.94376
G1 X117.440 Y90.610 E0.09030
G1 X117.440 Y134.498 E1.37609
