; generated by PrusaSlicer 2.1.0+win64 on 2020-03-04 at 22:16:54 UTC

; 

; external perimeters extrusion width = 0.45mm
; perimeters extrusion width = 0.45mm
; infill extrusion width = 0.45mm
; solid infill extrusion width = 0.45mm
; top infill extrusion width = 0.40mm
; first layer extrusion width = 0.42mm

M73 P0 R88
M73 Q0 S89
M201 X1000 Y1000 Z1000 E5000 ; sets maximum accelerations, mm/sec^2
M203 X200 Y200 Z12 E120 ; sets maximum feedrates, mm/sec
M204 P1250 R1250 T1250 ; sets acceleration (P, T) and retract acceleration (R), mm/sec^2
M205 X8.00 Y8.00 Z0.40 E1.50 ; sets the jerk limits, mm/sec
M205 S0 T0 ; sets the minimum extruding and travel feed rate, mm/sec
M107
G28  ; home all - moves print head over the edge for possible ooze.
M140 S80 ; set bed temp
M190 S80 ; wait for bed temp
M104 S235 ; set extruder temp
M109 S235 ; wait for extruder temp
G29 A L J ; Unified bed leveling on, loaded and tilted
G1 Y1.0 X1.0 Z0.35 F6000.0 ; go to purge line.
G90 ; use absolute position
G1 Z0.35 F300.0; 
G92 E0.0
G1 X90 E15.0  F1000.0 ; intro line
M73 Q0 S89
M73 P0 R88
G92 E0.0
G21 ; set units to millimeters
G90 ; use absolute coordinates
M83 ; use relative distances for extrusion
M900 K45 ; Filament gcode
;BEFORE_LAYER_CHANGE
G92 E0.0
;0.2


G1 E-0.80000 F2100.00000
G1 Z0.600 F10800.000
;AFTER_LAYER_CHANGE
;0.2
G1 X84.872 Y208.381
G1 Z0.200
G1 E0.80000 F2100.00000
M204 S1000
G1 F600
G1 X84.896 Y207.545 E0.02620
G1 X113.453 Y83.104 E4.00318
G1 X114.004 Y81.793 E0.04460
G1 X114.829 Y80.587 E0.04581
G1 X115.909 Y79.534 E0.04728
G1 X116.490 Y79.117 E0.02243
G1 X117.551 Y78.550 E0.03773
G1 X118.392 Y78.248 E0.02803
G1 X119.675 Y77.998 E0.04097
G1 X124.954 Y77.780 E0.16567
G1 X127.189 Y77.894 E0.07015
G1 X129.281 Y78.291 E0.06679
G1 X131.034 Y78.847 E0.05765
G1 X132.645 Y79.566 E0.05532
G1 X134.472 Y80.662 E0.06679
G1 X136.168 Y82.018 E0.06808
G1 X137.154 Y82.999 E0.04361
G1 X138.548 Y84.738 E0.06990
G1 X214.724 Y206.885 E4.51357
G1 X214.936 Y207.346 E0.01589
G1 X215.036 Y207.843 E0.01589
G1 X215.019 Y208.349 E0.01589
G1 X214.887 Y208.838 E0.01589
G1 X211.650 Y216.386 E0.25751
G1 X211.157 Y217.084 E0.02679
G1 X210.378 Y217.724 E0.03161
G1 X209.648 Y218.051 E0.02509
G1 X208.693 Y218.211 E0.03037
G1 X102.310 Y222.212 E3.33791
G1 X97.082 Y222.208 E0.16393
G1 X96.281 Y221.996 E0.02597
G1 X95.616 Y221.501 E0.02597
G1 X85.163 Y209.164 E0.50703
G1 X84.893 Y208.437 E0.02431
G1 F8640
G1 X84.896 Y207.545 E-0.20582
G1 X85.433 Y205.206 E-0.55418
G1 E-0.04000 F2100.00000
G1 Z0.800 F10800.000
G1 X96.201 Y200.989
G1 Z0.200
G1 E0.80000 F2100.00000
G1 F600
G1 X121.335 Y107.187 E3.04483
G1 X132.635 Y107.187 E0.35432
G1 X133.707 Y107.256 E0.03367
G1 X199.339 Y200.989 E3.58778
M73 Q1 S88
M73 P1 R87
G1 X96.261 Y200.989 E3.23197
G1 X96.692 Y200.612 F10800.000
G1 F600
G1 X121.624 Y107.564 E3.02035
G1 X132.623 Y107.564 E0.34487
G1 X133.502 Y107.620 E0.02761
G1 X198.615 Y200.612 E3.55938
G1 X96.752 Y200.612 E3.19385
G1 X97.183 Y200.234 F10800.000
G1 F600
G1 X121.913 Y107.941 E2.99587
G1 X132.611 Y107.941 E0.33542
G1 X133.297 Y107.985 E0.02155
G1 X197.891 Y200.234 E3.53099
M73 Q2 S87
M73 P2 R86
G1 X97.243 Y200.234 E3.15573
G1 X96.793 Y200.324 F10800.000
G1 F8640
G1 X98.093 Y197.055 E-0.76000
G1 E-0.04000 F2100.00000
G1 Z0.800 F10800.000
G1 X207.867 Y207.060
G1 Z0.200
G1 E0.80000 F2100.00000
G1 F600
G1 X207.867 Y214.261 E0.22578
G1 X208.709 Y214.490 E0.02734
G1 X208.796 Y214.541 E0.00318
G1 X208.883 Y214.665 E0.00474
G1 X208.900 Y214.765 E0.00318
G1 X208.882 Y214.865 E0.00318
G1 X208.795 Y214.988 E0.00474
G1 X208.659 Y215.052 E0.00474
G1 X204.872 Y215.060 E0.11873
G1 X204.805 Y215.042 E0.00218
G1 X204.796 Y207.060 E0.25026
G1 X106.267 Y207.060 E3.08929
G1 X106.267 Y214.995 E0.24880
G1 X106.236 Y215.511 E0.01619
G1 X106.148 Y215.990 E0.01527
G1 X106.003 Y216.455 E0.01527
G1 X105.803 Y216.899 E0.01527
G1 X105.551 Y217.316 E0.01527
G1 X105.251 Y217.700 E0.01527
G1 X104.907 Y218.044 E0.01527
G1 X104.523 Y218.344 E0.01527
G1 X104.106 Y218.596 E0.01527
G1 X103.672 Y218.792 E0.01493
G1 X103.196 Y218.942 E0.01565
G1 X102.718 Y219.029 E0.01524
G1 X102.202 Y219.060 E0.01619
G1 X98.196 Y219.060 E0.12563
G1 X98.196 Y217.562 E0.04697
G1 X98.217 Y217.285 E0.00873
G1 X98.274 Y217.051 E0.00754
G1 X98.366 Y216.829 E0.00754
G1 X98.491 Y216.623 E0.00754
G1 X98.648 Y216.441 E0.00754
G1 X98.830 Y216.284 E0.00754
G1 X99.036 Y216.159 E0.00754
G1 X99.258 Y216.067 E0.00754
G1 X99.492 Y216.010 E0.00754
G1 X99.769 Y215.989 E0.00873
G1 X103.196 Y215.989 E0.10743
G1 X103.196 Y207.060 E0.27994
G1 X88.288 Y207.060 E0.46742
G1 X116.409 Y102.109 E3.40675
G1 X116.601 Y101.662 E0.01524
G1 X116.905 Y101.066 E0.02099
G1 X117.206 Y100.659 E0.01589
G1 X117.536 Y100.301 E0.01526
G1 X117.833 Y100.032 E0.01255
G1 X118.151 Y99.796 E0.01241
G1 X118.491 Y99.593 E0.01241
G1 X118.849 Y99.424 E0.01241
G1 X119.221 Y99.290 E0.01241
G1 X119.605 Y99.194 E0.01241
G1 X119.997 Y99.136 E0.01241
G1 X120.416 Y99.115 E0.01316
G1 X125.347 Y99.115 E0.15459
G1 X125.840 Y99.089 E0.01550
G1 X126.354 Y99.008 E0.01630
G1 X126.856 Y98.874 E0.01630
G1 X127.341 Y98.687 E0.01630
G1 X127.804 Y98.451 E0.01630
G1 X128.240 Y98.168 E0.01630
G1 X128.644 Y97.841 E0.01630
G1 X129.012 Y97.474 E0.01630
G1 X129.341 Y97.067 E0.01639
G1 X129.636 Y96.606 E0.01717
G1 X129.858 Y96.171 E0.01532
G1 X130.044 Y95.686 E0.01630
G1 X130.178 Y95.184 E0.01630
G1 X130.260 Y94.670 E0.01630
G1 X130.287 Y94.151 E0.01630
G1 X130.260 Y93.632 E0.01630
G1 X130.178 Y93.119 E0.01630
G1 X130.044 Y92.617 E0.01630
G1 X129.858 Y92.131 E0.01630
G1 X129.622 Y91.668 E0.01630
G1 X129.339 Y91.232 E0.01630
G1 X129.012 Y90.829 E0.01630
G1 X128.644 Y90.461 E0.01630
G1 X128.240 Y90.134 E0.01630
G1 X127.804 Y89.851 E0.01630
G1 X127.341 Y89.615 E0.01630
G1 X126.856 Y89.429 E0.01630
G1 X126.354 Y89.294 E0.01630
G1 X125.840 Y89.213 E0.01630
G1 X125.347 Y89.187 E0.01550
G1 X120.416 Y89.187 E0.15459
G1 X119.997 Y89.166 E0.01316
G1 X119.605 Y89.108 E0.01241
G1 X119.221 Y89.012 E0.01241
G1 X118.849 Y88.879 E0.01241
G1 X118.491 Y88.709 E0.01241
G1 X118.151 Y88.506 E0.01241
G1 X117.836 Y88.272 E0.01229
G1 X117.471 Y87.936 E0.01558
G1 X117.207 Y87.645 E0.01230
G1 X116.975 Y87.334 E0.01219
G1 X116.773 Y87.001 E0.01219
G1 X116.605 Y86.651 E0.01219
G1 X116.471 Y86.286 E0.01219
G1 X116.373 Y85.909 E0.01219
G1 X116.313 Y85.534 E0.01192
G1 X116.288 Y85.150 E0.01206
G1 X116.311 Y84.777 E0.01173
G1 X116.373 Y84.393 E0.01219
G1 X116.471 Y84.017 E0.01219
G1 X116.605 Y83.652 E0.01219
G1 X116.773 Y83.301 E0.01219
G1 X116.975 Y82.969 E0.01219
G1 X117.207 Y82.657 E0.01219
G1 X117.471 Y82.367 E0.01230
G1 X117.836 Y82.030 E0.01558
G1 X118.151 Y81.796 E0.01229
G1 X118.491 Y81.593 E0.01241
G1 X118.849 Y81.424 E0.01241
G1 X119.221 Y81.290 E0.01241
G1 X119.597 Y81.196 E0.01214
G1 X119.998 Y81.136 E0.01272
G1 X120.416 Y81.115 E0.01313
G1 X123.038 Y81.115 E0.08220
G1 X124.049 Y80.986 E0.03196
G1 X124.971 Y80.933 E0.02896
G1 X125.875 Y80.946 E0.02835
G1 X126.815 Y81.025 E0.02958
G1 X127.724 Y81.168 E0.02884
G1 X128.789 Y81.421 E0.03434
G1 X129.599 Y81.678 E0.02665
G1 X130.237 Y81.923 E0.02142
G1 X130.933 Y82.235 E0.02391
G1 X131.601 Y82.584 E0.02362
G1 X132.676 Y83.254 E0.03973
G1 X133.419 Y83.810 E0.02911
G1 X134.126 Y84.421 E0.02929
G1 X134.786 Y85.082 E0.02930
G1 X135.386 Y85.773 E0.02868
G1 X135.958 Y86.536 E0.02992
G1 X136.460 Y87.318 E0.02914
G1 X136.907 Y88.137 E0.02926
G1 X137.247 Y88.872 E0.02539
G1 X137.509 Y89.541 E0.02252
G1 X146.077 Y114.336 E0.82254
G1 X211.003 Y207.060 E3.54915
G1 X207.927 Y207.060 E0.09644
M73 Q3 S86
G1 X208.244 Y207.437 F10800.000
G1 F600
G1 X208.244 Y213.973 E0.20493
M73 P3 R85
G1 X208.840 Y214.135 E0.01934
G1 X209.041 Y214.252 E0.00729
G1 X209.123 Y214.335 E0.00366
G1 X209.239 Y214.537 E0.00729
G1 X209.279 Y214.766 E0.00729
G1 X209.238 Y214.995 E0.00729
G1 X209.189 Y215.100 E0.00363
G1 X209.038 Y215.279 E0.00732
G1 X208.837 Y215.395 E0.00729
G1 X208.582 Y215.437 E0.00810
G1 X204.855 Y215.437 E0.11688
G1 X204.758 Y215.428 E0.00305
G1 X204.628 Y215.381 E0.00432
G1 X204.565 Y215.337 E0.00243
G1 X204.477 Y215.232 E0.00429
G1 X204.427 Y215.094 E0.00461
G1 X204.419 Y214.999 E0.00297
G1 X204.419 Y207.437 E0.23709
G1 X106.644 Y207.437 E3.06564
G1 X106.644 Y215.007 E0.23733
G1 X106.611 Y215.556 E0.01726
G1 X106.515 Y216.080 E0.01670
G1 X106.357 Y216.589 E0.01670
G1 X106.138 Y217.075 E0.01670
G1 X105.862 Y217.531 E0.01670
G1 X105.534 Y217.950 E0.01670
G1 X105.157 Y218.327 E0.01670
G1 X104.738 Y218.655 E0.01670
G1 X104.282 Y218.931 E0.01670
G1 X103.806 Y219.145 E0.01635
G1 X103.287 Y219.308 E0.01708
G1 X102.763 Y219.404 E0.01668
G1 X102.214 Y219.437 E0.01726
G1 X97.819 Y219.437 E0.13781
G1 X97.819 Y217.548 E0.05925
G1 X97.844 Y217.225 E0.01013
G1 X97.914 Y216.934 E0.00940
G1 X98.029 Y216.657 E0.00940
G1 X98.185 Y216.401 E0.00940
G1 X98.380 Y216.173 E0.00940
G1 X98.608 Y215.978 E0.00940
G1 X98.864 Y215.822 E0.00940
G1 X99.141 Y215.707 E0.00940
G1 X99.432 Y215.637 E0.00940
G1 X99.755 Y215.612 E0.01013
G1 X102.819 Y215.612 E0.09607
G1 X102.819 Y207.437 E0.25630
G1 X87.796 Y207.437 E0.47101
G1 X116.054 Y101.977 E3.42327
G1 X116.255 Y101.511 E0.01591
G1 X116.583 Y100.867 E0.02267
G1 X116.915 Y100.418 E0.01751
G1 X117.271 Y100.033 E0.01643
G1 X117.593 Y99.740 E0.01366
G1 X117.941 Y99.483 E0.01358
G1 X118.313 Y99.260 E0.01358
G1 X118.704 Y99.075 E0.01358
G1 X119.112 Y98.929 E0.01358
G1 X119.532 Y98.824 E0.01358
G1 X119.960 Y98.760 E0.01358
G1 X120.407 Y98.738 E0.01403
G1 X125.337 Y98.738 E0.15457
G1 X125.801 Y98.714 E0.01457
G1 X126.275 Y98.639 E0.01506
G1 X126.739 Y98.514 E0.01506
G1 X127.188 Y98.342 E0.01506
G1 X127.615 Y98.124 E0.01506
G1 X128.018 Y97.863 E0.01506
G1 X128.391 Y97.561 E0.01506
G1 X128.731 Y97.221 E0.01506
G1 X129.034 Y96.846 E0.01512
G1 X129.308 Y96.418 E0.01593
G1 X129.513 Y96.017 E0.01412
G1 X129.685 Y95.569 E0.01506
G1 X129.809 Y95.105 E0.01506
G1 X129.884 Y94.631 E0.01506
G1 X129.909 Y94.151 E0.01506
G1 X129.884 Y93.672 E0.01506
G1 X129.809 Y93.197 E0.01506
G1 X129.685 Y92.733 E0.01506
G1 X129.513 Y92.285 E0.01506
G1 X129.295 Y91.857 E0.01506
G1 X129.033 Y91.454 E0.01506
G1 X128.731 Y91.081 E0.01506
G1 X128.391 Y90.742 E0.01506
G1 X128.018 Y90.439 E0.01506
G1 X127.615 Y90.178 E0.01506
G1 X127.188 Y89.960 E0.01506
G1 X126.739 Y89.788 E0.01506
G1 X126.275 Y89.663 E0.01506
G1 X125.801 Y89.588 E0.01506
G1 X125.337 Y89.564 E0.01457
G1 X120.407 Y89.564 E0.15457
G1 X119.960 Y89.542 E0.01403
G1 X119.532 Y89.479 E0.01358
G1 X119.112 Y89.373 E0.01358
G1 X118.704 Y89.227 E0.01358
G1 X118.313 Y89.042 E0.01358
G1 X117.941 Y88.820 E0.01358
G1 X117.595 Y88.563 E0.01350
G1 X117.203 Y88.202 E0.01673
G1 X116.916 Y87.885 E0.01340
G1 X116.662 Y87.544 E0.01333
G1 X116.441 Y87.181 E0.01333
G1 X116.257 Y86.797 E0.01333
G1 X116.111 Y86.398 E0.01333
G1 X116.003 Y85.987 E0.01333
G1 X115.938 Y85.576 E0.01305
G1 X115.910 Y85.151 E0.01337
G1 X115.936 Y84.735 E0.01305
G1 X116.003 Y84.315 E0.01333
G1 X116.111 Y83.904 E0.01333
G1 X116.257 Y83.505 E0.01333
G1 X116.441 Y83.122 E0.01333
G1 X116.662 Y82.758 E0.01333
G1 X116.916 Y82.417 E0.01333
G1 X117.203 Y82.101 E0.01340
G1 X117.595 Y81.739 E0.01673
G1 X117.941 Y81.483 E0.01350
G1 X118.313 Y81.260 E0.01358
G1 X118.704 Y81.075 E0.01358
G1 X119.112 Y80.929 E0.01358
G1 X119.523 Y80.826 E0.01329
G1 X119.961 Y80.760 E0.01388
G1 X120.407 Y80.738 E0.01401
G1 X123.014 Y80.738 E0.08174
G1 X124.014 Y80.610 E0.03162
G1 X124.963 Y80.556 E0.02979
G1 X125.893 Y80.569 E0.02918
G1 X126.860 Y80.650 E0.03042
G1 X127.797 Y80.798 E0.02972
G1 X128.890 Y81.057 E0.03524
G1 X129.724 Y81.322 E0.02743
G1 X130.382 Y81.575 E0.02210
G1 X131.097 Y81.896 E0.02458
G1 X131.788 Y82.256 E0.02442
G1 X132.889 Y82.943 E0.04068
G1 X133.656 Y83.516 E0.03003
G1 X134.383 Y84.145 E0.03014
G1 X135.063 Y84.825 E0.03014
G1 X135.679 Y85.536 E0.02952
G1 X136.268 Y86.321 E0.03077
G1 X136.785 Y87.126 E0.02999
G1 X137.244 Y87.968 E0.03007
G1 X137.594 Y88.724 E0.02613
G1 X137.863 Y89.411 E0.02312
G1 X146.416 Y114.163 E0.82113
G1 X211.727 Y207.437 E3.57021
G1 X208.304 Y207.437 E0.10733
G1 X208.621 Y207.814 F10800.000
G1 F600
G1 X208.621 Y213.685 E0.18407
G1 X208.970 Y213.780 E0.01133
G1 X209.136 Y213.858 E0.00573
G1 X209.285 Y213.963 E0.00573
G1 X209.414 Y214.092 E0.00573
G1 X209.518 Y214.242 E0.00573
G1 X209.595 Y214.408 E0.00573
G1 X209.642 Y214.585 E0.00573
G1 X209.657 Y214.767 E0.00573
G1 X209.641 Y214.949 E0.00573
G1 X209.593 Y215.125 E0.00573
G1 X209.516 Y215.290 E0.00572
G1 X209.408 Y215.443 E0.00586
G1 X209.282 Y215.569 E0.00560
G1 X209.132 Y215.673 E0.00573
G1 X208.966 Y215.751 E0.00573
G1 X208.790 Y215.798 E0.00573
G1 X208.599 Y215.814 E0.00601
G1 X204.838 Y215.814 E0.11793
G1 X204.691 Y215.801 E0.00460
G1 X204.440 Y215.709 E0.00840
G1 X204.322 Y215.627 E0.00452
G1 X204.150 Y215.422 E0.00839
G1 X204.089 Y215.291 E0.00451
G1 X204.041 Y215.015 E0.00878
G1 X204.041 Y207.814 E0.22578
G1 X107.021 Y207.814 E3.04199
M73 Q4 S85
G1 X107.021 Y215.018 E0.22587
M73 P4 R84
G1 X106.986 Y215.602 E0.01833
G1 X106.882 Y216.171 E0.01813
G1 X106.710 Y216.723 E0.01813
G1 X106.472 Y217.250 E0.01813
G1 X106.173 Y217.745 E0.01813
G1 X105.817 Y218.201 E0.01814
G1 X105.408 Y218.610 E0.01813
G1 X104.952 Y218.966 E0.01813
G1 X104.457 Y219.265 E0.01813
G1 X103.941 Y219.498 E0.01776
G1 X103.377 Y219.675 E0.01851
G1 X102.809 Y219.779 E0.01813
G1 X102.225 Y219.814 E0.01833
G1 X97.441 Y219.814 E0.14999
G1 X97.441 Y217.533 E0.07154
G1 X97.470 Y217.166 E0.01152
G1 X97.554 Y216.817 E0.01126
G1 X97.692 Y216.485 E0.01126
G1 X97.879 Y216.179 E0.01126
G1 X98.113 Y215.906 E0.01126
G1 X98.386 Y215.672 E0.01126
G1 X98.692 Y215.485 E0.01126
G1 X99.024 Y215.347 E0.01126
G1 X99.373 Y215.263 E0.01126
G1 X99.740 Y215.234 E0.01152
G1 X102.441 Y215.234 E0.08471
G1 X102.441 Y207.814 E0.23265
G1 X87.305 Y207.814 E0.47459
G1 X115.699 Y101.846 E3.43978
G1 X115.909 Y101.360 E0.01659
G1 X116.281 Y100.630 E0.02569
G1 X116.624 Y100.177 E0.01782
G1 X117.005 Y99.765 E0.01760
G1 X117.354 Y99.449 E0.01477
G1 X117.731 Y99.169 E0.01474
G1 X118.135 Y98.927 E0.01474
G1 X118.560 Y98.726 E0.01474
G1 X119.002 Y98.568 E0.01474
G1 X119.458 Y98.453 E0.01474
G1 X119.923 Y98.384 E0.01474
G1 X120.398 Y98.361 E0.01490
G1 X125.327 Y98.361 E0.15455
G1 X125.762 Y98.338 E0.01365
G1 X126.197 Y98.269 E0.01382
G1 X126.622 Y98.155 E0.01382
G1 X127.034 Y97.997 E0.01382
G1 X127.427 Y97.797 E0.01382
G1 X127.796 Y97.557 E0.01382
G1 X128.139 Y97.280 E0.01382
G1 X128.450 Y96.968 E0.01382
G1 X128.728 Y96.625 E0.01384
G1 X128.981 Y96.231 E0.01469
G1 X129.168 Y95.864 E0.01292
G1 X129.326 Y95.452 E0.01382
G1 X129.440 Y95.026 E0.01382
G1 X129.509 Y94.591 E0.01382
G1 X129.532 Y94.151 E0.01382
G1 X129.509 Y93.711 E0.01382
G1 X129.440 Y93.276 E0.01382
G1 X129.326 Y92.850 E0.01382
G1 X129.168 Y92.439 E0.01382
G1 X128.968 Y92.046 E0.01382
G1 X128.728 Y91.676 E0.01382
G1 X128.450 Y91.334 E0.01382
G1 X128.139 Y91.022 E0.01382
G1 X127.796 Y90.745 E0.01382
G1 X127.427 Y90.505 E0.01382
G1 X127.034 Y90.305 E0.01382
G1 X126.622 Y90.147 E0.01382
G1 X126.197 Y90.033 E0.01382
G1 X125.762 Y89.964 E0.01382
G1 X125.327 Y89.941 E0.01365
G1 X120.398 Y89.941 E0.15455
G1 X119.923 Y89.918 E0.01490
G1 X119.458 Y89.849 E0.01474
G1 X119.002 Y89.735 E0.01474
G1 X118.560 Y89.576 E0.01474
G1 X118.135 Y89.375 E0.01474
G1 X117.731 Y89.134 E0.01474
G1 X117.355 Y88.854 E0.01471
G1 X116.935 Y88.468 E0.01789
G1 X116.624 Y88.125 E0.01450
G1 X116.348 Y87.755 E0.01447
G1 X116.109 Y87.360 E0.01447
G1 X115.909 Y86.944 E0.01447
G1 X115.750 Y86.511 E0.01447
G1 X115.634 Y86.065 E0.01447
G1 X115.562 Y85.618 E0.01418
G1 X115.532 Y85.151 E0.01468
G1 X115.561 Y84.693 E0.01437
G1 X115.634 Y84.238 E0.01447
G1 X115.750 Y83.791 E0.01447
G1 X115.909 Y83.358 E0.01447
G1 X116.109 Y82.942 E0.01447
G1 X116.348 Y82.547 E0.01447
G1 X116.624 Y82.177 E0.01447
G1 X116.935 Y81.835 E0.01450
G1 X117.355 Y81.448 E0.01789
G1 X117.731 Y81.169 E0.01471
G1 X118.135 Y80.927 E0.01474
G1 X118.560 Y80.726 E0.01474
G1 X119.002 Y80.568 E0.01474
G1 X119.449 Y80.456 E0.01444
G1 X119.923 Y80.384 E0.01504
G1 X120.398 Y80.361 E0.01489
G1 X122.990 Y80.361 E0.08127
G1 X123.979 Y80.234 E0.03129
G1 X124.955 Y80.179 E0.03063
