; generated by PrusaSlicer 2.1.0+win64 on 2020-03-05 at 21:31:52 UTC

; 

; external perimeters extrusion width = 0.45mm
; perimeters extrusion width = 0.45mm
; infill extrusion width = 0.45mm
; solid infill extrusion width = 0.45mm
; top infill extrusion width = 0.40mm
; support material extrusion width = 0.35mm
; first layer extrusion width = 0.42mm

M73 P0 R123
M73 Q0 S124
M201 X1000 Y1000 Z1000 E5000 ; sets maximum accelerations, mm/sec^2
M203 X200 Y200 Z12 E120 ; sets maximum feedrates, mm/sec
M204 P1250 R1250 T1250 ; sets acceleration (P, T) and retract acceleration (R), mm/sec^2
M205 X8.00 Y8.00 Z0.40 E1.50 ; sets the jerk limits, mm/sec
M205 S0 T0 ; sets the minimum extruding and travel feed rate, mm/sec
M107
G28  ; home all - moves print head over the edge for possible ooze.
M140 S80 ; set bed temp
M190 S80 ; wait for bed temp
M104 S235 ; set extruder temp
M109 S235 ; wait for extruder temp
G29 A L J ; Unified bed leveling on, loaded and tilted
G1 Y1.0 X1.0 Z0.35 F6000.0 ; go to purge line.
G90 ; use absolute position
G1 Z0.35 F300.0; 
G92 E0.0
G1 X90 E15.0  F1000.0 ; intro line
M73 Q0 S123
M73 P0 R123
G92 E0.0
G21 ; set units to millimeters
G90 ; use absolute coordinates
M83 ; use relative distances for extrusion
M900 K45 ; Filament gcode
;BEFORE_LAYER_CHANGE
G92 E0.0
;0.2


G1 E-0.80000 F2100.00000
G1 Z0.600 F10800.000
;AFTER_LAYER_CHANGE
;0.2
G1 X235.237 Y214.629
G1 Z0.200
G1 E0.80000 F2100.00000
M204 S1000
G1 F1200
G1 X234.472 Y215.047 E0.02732
G1 X218.341 Y219.976 E0.52886
G1 X217.445 Y220.137 E0.02855
G1 X109.588 Y224.141 E3.38410
G1 X104.192 Y224.120 E0.16921
G1 X103.608 Y223.947 E0.01908
G1 X103.095 Y223.620 E0.01908
G1 X64.537 Y190.542 E1.59289
G1 X62.873 Y188.892 E0.07345
G1 X62.494 Y188.242 E0.02360
G1 X62.357 Y187.498 E0.02372
G1 X62.359 Y124.524 E1.97452
G1 X62.562 Y123.702 E0.02653
G1 X66.224 Y116.213 E0.26138
G1 X66.488 Y115.798 E0.01544
G1 X66.836 Y115.455 E0.01532
G1 X116.839 Y76.437 E1.98862
G1 X117.473 Y76.096 E0.02259
G1 X118.184 Y75.979 E0.02259
G1 X120.500 Y76.256 E0.07315
G1 X150.276 Y83.234 E0.95891
G1 X151.382 Y83.563 E0.03616
G1 X153.587 Y84.490 E0.07500
G1 X155.545 Y85.672 E0.07170
G1 X157.351 Y87.150 E0.07318
G1 X158.448 Y88.300 E0.04984
G1 X159.844 Y90.163 E0.07299
G1 X235.697 Y211.820 E4.49516
G1 X235.975 Y212.539 E0.02417
G1 X235.986 Y213.309 E0.02417
G1 X235.730 Y214.036 E0.02417
G1 X235.275 Y214.583 E0.02229
; printing object Universal Rewind Spool Holder Pegboard Mount v8.stl id:0 copy 0
G1 F8640
G1 X234.472 Y215.047 E-0.21413
G1 X232.211 Y215.738 E-0.54587
G1 E-0.04000 F2100.00000
G1 Z0.800 F10800.000
G1 X220.796 Y206.173
G1 Z0.200
G1 E0.80000 F2100.00000
G1 F1200
G1 X116.856 Y206.173 E3.25897
G1 X142.124 Y111.875 E3.06095
G1 X153.609 Y111.875 E0.36010
G1 X154.198 Y111.900 E0.01851
G1 X154.859 Y112.000 E0.02094
G1 X220.762 Y206.124 E3.60269
G1 X220.072 Y205.796 F10800.000
G1 F1200
G1 X117.348 Y205.796 E3.22085
G1 X142.413 Y112.252 E3.03647
G1 X153.600 Y112.252 E0.35077
G1 X154.162 Y112.276 E0.01763
G1 X154.643 Y112.348 E0.01525
G1 X220.038 Y205.747 E3.57490
M73 Q0 S122
M73 P0 R122
G1 X219.348 Y205.419 F10800.000
G1 F1200
G1 X117.839 Y205.419 E3.18273
G1 X142.703 Y112.629 E3.01200
G1 X153.592 Y112.629 E0.34143
G1 X154.126 Y112.652 E0.01674
G1 X154.427 Y112.697 E0.00955
G1 X219.313 Y205.370 E3.54712
G1 X219.429 Y205.810 F10800.000
G1 F8640
G1 X216.022 Y205.371 E-0.76000
G1 E-0.04000 F2100.00000
G1 Z0.800 F10800.000
G1 X216.298 Y211.748
G1 Z0.200
G1 E0.80000 F2100.00000
G1 F1200
G1 X216.299 Y216.567 E0.15112
G1 X217.301 Y216.662 E0.03156
G1 X217.326 Y216.714 E0.00182
G1 X217.269 Y216.743 E0.00199
G1 X213.724 Y216.748 E0.11116
G1 X213.724 Y211.748 E0.15678
G1 X113.299 Y211.748 E3.14875
G1 X113.296 Y216.930 E0.16250
G1 X113.265 Y217.425 E0.01555
G1 X113.179 Y217.883 E0.01460
G1 X113.038 Y218.327 E0.01460
G1 X112.844 Y218.750 E0.01460
G1 X112.598 Y219.146 E0.01460
G1 X112.306 Y219.509 E0.01460
G1 X111.972 Y219.833 E0.01460
G1 X111.600 Y220.114 E0.01460
G1 X111.197 Y220.346 E0.01460
G1 X111.026 Y220.419 E0.00581
G1 X110.768 Y220.528 E0.00879
G1 X110.320 Y220.655 E0.01460
G1 X109.865 Y220.726 E0.01444
G1 X108.762 Y220.748 E0.03458
G1 X105.728 Y220.748 E0.09515
G1 X105.734 Y219.354 E0.04371
G1 X105.771 Y219.137 E0.00688
G1 X105.844 Y218.933 E0.00681
G1 X105.950 Y218.743 E0.00681
G1 X106.086 Y218.574 E0.00681
G1 X106.249 Y218.430 E0.00681
G1 X106.434 Y218.316 E0.00681
G1 X106.636 Y218.235 E0.00681
G1 X106.858 Y218.187 E0.00714
G1 X107.042 Y218.176 E0.00578
G1 X110.724 Y218.172 E0.11543
G1 X110.724 Y211.748 E0.20143
G1 X109.591 Y211.748 E0.03550
G1 X137.631 Y107.113 E3.39649
G1 X137.800 Y106.721 E0.01338
G1 X138.114 Y106.111 E0.02154
G1 X138.380 Y105.754 E0.01397
G1 X138.683 Y105.422 E0.01407
G1 X139.067 Y105.084 E0.01606
G1 X139.261 Y104.947 E0.00745
G1 X139.589 Y104.750 E0.01198
G1 X139.924 Y104.592 E0.01164
G1 X140.274 Y104.467 E0.01164
G1 X140.634 Y104.376 E0.01164
G1 X141.005 Y104.321 E0.01174
G1 X141.402 Y104.299 E0.01249
G1 X146.333 Y104.302 E0.15459
G1 X146.846 Y104.275 E0.01613
G1 X147.386 Y104.190 E0.01712
G1 X147.913 Y104.049 E0.01712
G1 X148.423 Y103.853 E0.01712
G1 X148.910 Y103.605 E0.01712
G1 X149.368 Y103.308 E0.01712
G1 X149.792 Y102.964 E0.01712
G1 X150.178 Y102.578 E0.01712
G1 X150.522 Y102.153 E0.01712
G1 X150.819 Y101.695 E0.01712
G1 X150.961 Y101.416 E0.00982
G1 X151.067 Y101.209 E0.00731
G1 X151.263 Y100.699 E0.01712
G1 X151.404 Y100.172 E0.01712
G1 X151.490 Y99.632 E0.01712
G1 X151.518 Y99.087 E0.01712
G1 X151.490 Y98.542 E0.01712
G1 X151.404 Y98.002 E0.01712
G1 X151.263 Y97.475 E0.01712
G1 X151.067 Y96.965 E0.01712
G1 X150.819 Y96.478 E0.01712
G1 X150.522 Y96.020 E0.01712
G1 X150.178 Y95.596 E0.01712
G1 X149.792 Y95.210 E0.01712
G1 X149.368 Y94.866 E0.01712
G1 X148.910 Y94.569 E0.01712
G1 X148.423 Y94.321 E0.01712
G1 X147.913 Y94.125 E0.01712
G1 X147.386 Y93.984 E0.01712
G1 X146.846 Y93.898 E0.01712
G1 X146.333 Y93.871 E0.01613
G1 X141.402 Y93.875 E0.15459
G1 X141.005 Y93.852 E0.01249
G1 X140.634 Y93.797 E0.01174
G1 X140.274 Y93.707 E0.01164
G1 X139.924 Y93.582 E0.01164
G1 X139.589 Y93.423 E0.01164
G1 X139.268 Y93.231 E0.01173
G1 X138.976 Y93.014 E0.01141
G1 X138.629 Y92.699 E0.01470
G1 X138.383 Y92.424 E0.01157
G1 X138.163 Y92.129 E0.01153
G1 X137.974 Y91.817 E0.01143
G1 X137.816 Y91.488 E0.01143
G1 X137.691 Y91.146 E0.01143
G1 X137.599 Y90.793 E0.01143
G1 X137.541 Y90.433 E0.01143
G1 X137.519 Y90.087 E0.01089
G1 X137.541 Y89.740 E0.01089
G1 X137.599 Y89.380 E0.01143
G1 X137.691 Y89.028 E0.01143
G1 X137.816 Y88.685 E0.01143
G1 X137.974 Y88.357 E0.01143
G1 X138.163 Y88.045 E0.01143
G1 X138.380 Y87.754 E0.01139
G1 X138.689 Y87.415 E0.01436
G1 X138.970 Y87.164 E0.01181
G1 X139.270 Y86.941 E0.01174
G1 X139.589 Y86.750 E0.01164
G1 X139.924 Y86.592 E0.01164
G1 X140.274 Y86.467 E0.01164
G1 X140.634 Y86.376 E0.01164
G1 X141.004 Y86.322 E0.01174
G1 X141.408 Y86.299 E0.01266
G1 X144.040 Y86.299 E0.08255
G1 X144.822 Y86.195 E0.02474
G1 X145.760 Y86.126 E0.02948
G1 X146.694 Y86.126 E0.02928
G1 X147.625 Y86.194 E0.02928
G1 X148.549 Y86.330 E0.02928
G1 X149.461 Y86.533 E0.02928
G1 X150.355 Y86.802 E0.02928
G1 X151.227 Y87.136 E0.02928
G1 X152.072 Y87.532 E0.02928
G1 X152.887 Y87.989 E0.02928
G1 X153.666 Y88.504 E0.02928
G1 X154.405 Y89.075 E0.02928
G1 X155.100 Y89.698 E0.02928
G1 X155.748 Y90.370 E0.02928
G1 X156.346 Y91.088 E0.02928
G1 X156.889 Y91.848 E0.02928
G1 X157.375 Y92.645 E0.02928
G1 X157.802 Y93.475 E0.02928
G1 X158.171 Y94.344 E0.02958
G1 X166.831 Y119.387 E0.83084
G1 X231.505 Y211.748 E3.53529
G1 X216.358 Y211.748 E0.47493
G1 X216.675 Y212.125 F10800.000
G1 F1200
G1 X216.676 Y216.223 E0.12852
G1 X217.359 Y216.287 E0.02151
G1 X217.497 Y216.337 E0.00460
G1 X217.609 Y216.431 E0.00457
G1 X217.651 Y216.490 E0.00229
G1 X217.700 Y216.627 E0.00457
G1 X217.700 Y216.773 E0.00456
G1 X217.681 Y216.844 E0.00231
G1 X217.570 Y217.008 E0.00623
G1 X217.454 Y217.079 E0.00425
G1 X217.345 Y217.115 E0.00362
G1 X213.347 Y217.125 E0.12535
G1 X213.347 Y212.125 E0.15679
G1 X113.676 Y212.125 E3.12511
G1 X113.673 Y216.942 E0.15104
G1 X113.640 Y217.471 E0.01664
G1 X113.546 Y217.975 E0.01606
G1 X113.391 Y218.463 E0.01606
G1 X113.176 Y218.929 E0.01606
G1 X112.907 Y219.364 E0.01606
G1 X112.586 Y219.763 E0.01606
G1 X112.218 Y220.120 E0.01606
G1 X111.809 Y220.428 E0.01606
G1 X111.365 Y220.685 E0.01606
G1 X111.173 Y220.766 E0.00654
G1 X110.894 Y220.884 E0.00952
G1 X110.401 Y221.024 E0.01606
G1 X109.898 Y221.103 E0.01596
G1 X108.766 Y221.125 E0.03549
G1 X105.349 Y221.125 E0.10714
G1 X105.357 Y219.321 E0.05656
G1 X105.405 Y219.042 E0.00887
G1 X105.499 Y218.777 E0.00883
G1 X105.636 Y218.531 E0.00883
G1 X105.813 Y218.312 E0.00883
G1 X106.024 Y218.126 E0.00883
G1 X106.264 Y217.978 E0.00883
G1 X106.525 Y217.873 E0.00883
G1 X106.806 Y217.813 E0.00902
G1 X107.030 Y217.799 E0.00703
G1 X110.347 Y217.795 E0.10399
G1 X110.347 Y212.125 E0.17780
G1 X109.100 Y212.125 E0.03909
G1 X137.274 Y106.989 E3.41276
G1 X137.458 Y106.560 E0.01464
G1 X137.793 Y105.910 E0.02293
G1 X138.089 Y105.513 E0.01553
G1 X138.418 Y105.152 E0.01530
G1 X138.833 Y104.788 E0.01733
G1 X139.055 Y104.631 E0.00851
G1 X139.411 Y104.418 E0.01301
G1 X139.780 Y104.243 E0.01280
G1 X140.164 Y104.105 E0.01280
G1 X140.561 Y104.006 E0.01280
G1 X140.966 Y103.946 E0.01286
G1 X141.392 Y103.922 E0.01337
G1 X146.323 Y103.925 E0.15461
G1 X146.807 Y103.900 E0.01520
G1 X147.307 Y103.821 E0.01588
G1 X147.797 Y103.689 E0.01588
G1 X148.270 Y103.508 E0.01588
G1 X148.721 Y103.278 E0.01588
G1 X149.146 Y103.002 E0.01588
G1 X149.539 Y102.683 E0.01588
G1 X149.898 Y102.325 E0.01588
G1 X150.216 Y101.931 E0.01588
G1 X150.492 Y101.507 E0.01588
G1 X150.625 Y101.245 E0.00920
G1 X150.722 Y101.055 E0.00669
G1 X150.904 Y100.582 E0.01588
G1 X151.035 Y100.093 E0.01588
G1 X151.114 Y99.593 E0.01588
G1 X151.141 Y99.087 E0.01588
G1 X151.114 Y98.581 E0.01588
G1 X151.035 Y98.081 E0.01588
G1 X150.904 Y97.591 E0.01588
G1 X150.722 Y97.118 E0.01588
G1 X150.492 Y96.667 E0.01588
G1 X150.216 Y96.242 E0.01588
G1 X149.898 Y95.849 E0.01588
G1 X149.539 Y95.490 E0.01588
G1 X149.146 Y95.172 E0.01588
G1 X148.721 Y94.896 E0.01588
G1 X148.270 Y94.666 E0.01588
G1 X147.797 Y94.484 E0.01588
G1 X147.307 Y94.353 E0.01588
G1 X146.807 Y94.274 E0.01588
G1 X146.323 Y94.249 E0.01520
G1 X141.392 Y94.252 E0.15461
G1 X140.966 Y94.228 E0.01337
G1 X140.561 Y94.168 E0.01286
G1 X140.164 Y94.068 E0.01280
G1 X139.780 Y93.931 E0.01280
G1 X139.411 Y93.756 E0.01280
G1 X139.058 Y93.545 E0.01289
G1 X138.736 Y93.306 E0.01259
G1 X138.361 Y92.964 E0.01590
G1 X138.091 Y92.663 E0.01270
G1 X137.850 Y92.340 E0.01263
G1 X137.642 Y91.997 E0.01257
G1 X137.469 Y91.635 E0.01257
G1 X137.330 Y91.259 E0.01257
G1 X137.229 Y90.871 E0.01257
G1 X137.166 Y90.475 E0.01257
G1 X137.142 Y90.087 E0.01220
G1 X137.166 Y89.699 E0.01220
G1 X137.229 Y89.303 E0.01257
G1 X137.330 Y88.915 E0.01257
G1 X137.469 Y88.538 E0.01257
G1 X137.642 Y88.177 E0.01257
G1 X137.850 Y87.834 E0.01257
G1 X138.089 Y87.513 E0.01255
G1 X138.423 Y87.147 E0.01554
G1 X138.731 Y86.872 E0.01295
G1 X139.061 Y86.627 E0.01286
G1 X139.411 Y86.418 E0.01280
G1 X139.780 Y86.243 E0.01280
G1 X140.164 Y86.105 E0.01280
G1 X140.561 Y86.006 E0.01280
G1 X140.966 Y85.946 E0.01286
G1 X141.397 Y85.922 E0.01353
G1 X144.015 Y85.922 E0.08209
G1 X144.784 Y85.819 E0.02430
G1 X145.746 Y85.749 E0.03027
G1 X146.708 Y85.749 E0.03014
G1 X147.667 Y85.819 E0.03014
G1 X148.618 Y85.959 E0.03014
G1 X149.556 Y86.168 E0.03014
G1 X150.477 Y86.445 E0.03014
G1 X151.375 Y86.789 E0.03014
G1 X152.245 Y87.197 E0.03014
G1 X153.083 Y87.667 E0.03014
G1 X153.885 Y88.198 E0.03014
G1 X154.646 Y88.785 E0.03014
G1 X155.362 Y89.427 E0.03014
G1 X156.029 Y90.119 E0.03014
G1 X156.644 Y90.858 E0.03014
G1 X157.204 Y91.639 E0.03014
G1 X157.704 Y92.460 E0.03014
G1 X158.144 Y93.315 E0.03014
G1 X158.522 Y94.205 E0.03033
G1 X167.170 Y119.214 E0.82969
G1 X232.230 Y212.125 E3.55635
M73 Q1 S121
M73 P1 R121
G1 X216.735 Y212.125 E0.48582
G1 X217.052 Y212.502 F10800.000
G1 F1200
G1 X217.053 Y215.880 E0.10592
G1 X217.426 Y215.914 E0.01174
G1 X217.560 Y215.950 E0.00436
G1 X217.800 Y216.089 E0.00869
G1 X217.978 Y216.301 E0.00869
G1 X218.073 Y216.562 E0.00869
G1 X218.085 Y216.700 E0.00436
G1 X218.037 Y216.974 E0.00871
G1 X217.978 Y217.100 E0.00436
G1 X217.805 Y217.307 E0.00848
G1 X217.613 Y217.424 E0.00704
G1 X217.420 Y217.487 E0.00636
G1 X217.278 Y217.499 E0.00447
G1 X212.969 Y217.503 E0.13509
G1 X212.969 Y212.502 E0.15680
G1 X114.053 Y212.502 E3.10147
G1 X114.050 Y216.954 E0.13959
G1 X114.015 Y217.518 E0.01773
G1 X113.912 Y218.067 E0.01752
G1 X113.743 Y218.600 E0.01752
G1 X113.509 Y219.107 E0.01752
G1 X113.215 Y219.582 E0.01752
G1 X112.865 Y220.018 E0.01752
G1 X112.464 Y220.407 E0.01752
G1 X112.018 Y220.743 E0.01752
G1 X111.534 Y221.023 E0.01752
G1 X111.320 Y221.113 E0.00727
G1 X111.019 Y221.241 E0.01025
G1 X110.482 Y221.393 E0.01752
G1 X109.931 Y221.479 E0.01748
G1 X108.770 Y221.502 E0.03640
G1 X104.970 Y221.502 E0.11913
G1 X104.980 Y219.288 E0.06942
G1 X105.039 Y218.947 E0.01085
G1 X105.154 Y218.621 E0.01084
G1 X105.322 Y218.319 E0.01084
G1 X105.540 Y218.050 E0.01084
G1 X105.799 Y217.822 E0.01084
G1 X106.093 Y217.640 E0.01084
G1 X106.414 Y217.512 E0.01084
G1 X106.754 Y217.438 E0.01091
G1 X107.018 Y217.421 E0.00828
G1 X109.969 Y217.419 E0.09255
G1 X109.969 Y212.502 E0.15416
G1 X108.609 Y212.502 E0.04267
G1 X136.917 Y106.865 E3.42902
G1 X137.117 Y106.399 E0.01590
G1 X137.472 Y105.710 E0.02431
G1 X137.798 Y105.273 E0.01709
G1 X138.153 Y104.883 E0.01654
G1 X138.599 Y104.491 E0.01861
G1 X138.849 Y104.315 E0.00958
G1 X139.233 Y104.085 E0.01404
G1 X139.636 Y103.894 E0.01396
G1 X140.055 Y103.744 E0.01396
G1 X140.487 Y103.636 E0.01396
G1 X140.928 Y103.570 E0.01399
G1 X141.382 Y103.545 E0.01424
G1 X146.313 Y103.548 E0.15463
G1 X146.768 Y103.524 E0.01427
G1 X147.229 Y103.451 E0.01464
G1 X147.493 Y103.380 E0.00858
G1 X147.680 Y103.330 E0.00607
G1 X148.116 Y103.163 E0.01464
G1 X148.532 Y102.951 E0.01464
G1 X148.924 Y102.697 E0.01464
G1 X149.287 Y102.403 E0.01464
G1 X149.617 Y102.072 E0.01464
G1 X149.911 Y101.710 E0.01464
G1 X150.165 Y101.318 E0.01464
G1 X150.377 Y100.902 E0.01464
G1 X150.545 Y100.466 E0.01464
G1 X150.666 Y100.015 E0.01464
G1 X150.739 Y99.553 E0.01464
G1 X150.763 Y99.087 E0.01464
G1 X150.739 Y98.620 E0.01464
G1 X150.666 Y98.159 E0.01464
G1 X150.545 Y97.708 E0.01464
G1 X150.377 Y97.272 E0.01464
G1 X150.165 Y96.856 E0.01464
G1 X149.911 Y96.464 E0.01464
G1 X149.617 Y96.101 E0.01464
G1 X149.287 Y95.771 E0.01464
G1 X148.924 Y95.477 E0.01464
G1 X148.532 Y95.223 E0.01464
G1 X148.116 Y95.011 E0.01464
G1 X147.680 Y94.843 E0.01464
G1 X147.229 Y94.723 E0.01464
G1 X146.768 Y94.649 E0.01464
G1 X146.313 Y94.626 E0.01427
G1 X141.382 Y94.629 E0.15463
G1 X140.928 Y94.603 E0.01424
G1 X140.487 Y94.538 E0.01399
G1 X140.055 Y94.430 E0.01396
G1 X139.636 Y94.280 E0.01396
G1 X139.233 Y94.089 E0.01396
G1 X138.849 Y93.859 E0.01405
G1 X138.496 Y93.597 E0.01376
G1 X138.093 Y93.230 E0.01709
G1 X137.799 Y92.902 E0.01383
G1 X137.537 Y92.551 E0.01373
G1 X137.310 Y92.176 E0.01371
G1 X137.121 Y91.782 E0.01371
G1 X136.970 Y91.372 E0.01371
G1 X136.860 Y90.949 E0.01371
G1 X136.791 Y90.517 E0.01371
G1 X136.764 Y90.087 E0.01350
G1 X136.791 Y89.657 E0.01351
G1 X136.860 Y89.225 E0.01371
G1 X136.970 Y88.802 E0.01371
G1 X137.121 Y88.392 E0.01371
G1 X137.310 Y87.997 E0.01371
G1 X137.537 Y87.623 E0.01371
G1 X137.798 Y87.273 E0.01370
G1 X138.158 Y86.879 E0.01673
G1 X138.493 Y86.579 E0.01409
G1 X138.851 Y86.314 E0.01399
G1 X139.233 Y86.085 E0.01396
G1 X139.636 Y85.894 E0.01396
G1 X140.055 Y85.744 E0.01396
G1 X140.487 Y85.636 E0.01396
G1 X140.928 Y85.570 E0.01398
G1 X141.387 Y85.545 E0.01440
G1 X143.990 Y85.545 E0.08163
G1 X144.745 Y85.444 E0.02387
G1 X145.733 Y85.372 E0.03105
G1 X146.722 Y85.372 E0.03101
G1 X147.708 Y85.444 E0.03101
G1 X148.686 Y85.588 E0.03101
G1 X149.651 Y85.803 E0.03101
G1 X150.598 Y86.088 E0.03101
G1 X151.522 Y86.441 E0.03101
G1 X152.418 Y86.861 E0.03101
G1 X153.280 Y87.345 E0.03101
G1 X154.105 Y87.891 E0.03101
G1 X154.887 Y88.495 E0.03101
G1 X155.624 Y89.155 E0.03101
G1 X156.310 Y89.867 E0.03101
G1 X156.943 Y90.627 E0.03101
