; generated by PrusaSlicer 2.3.1+win64 on 2021-05-30 at 04:55:28 UTC

; 

; external perimeters extrusion width = 0.45mm
; perimeters extrusion width = 0.45mm
; infill extrusion width = 0.45mm
; solid infill extrusion width = 0.45mm
; top infill extrusion width = 0.40mm
; first layer extrusion width = 0.42mm

M73 P0 R52
M73 Q0 S52
M201 X1000 Y1000 Z200 E5000 ; sets maximum accelerations, mm/sec^2
M203 X200 Y200 Z12 E120 ; sets maximum feedrates, mm/sec
M204 P1250 R1250 T1250 ; sets acceleration (P, T) and retract acceleration (R), mm/sec^2
M205 X8.00 Y8.00 Z0.40 E4.50 ; sets the jerk limits, mm/sec
M205 S0 T0 ; sets the minimum extruding and travel feed rate, mm/sec
M107
;TYPE:Custom
M862.3 P "MK3SMMU2S" ; printer model check
M862.1 P0.4 ; nozzle diameter check
M115 U3.9.3 ; tell printer latest fw version
G90 ; use absolute coordinates
M83 ; extruder relative mode
M104 S220 ; set extruder temp
M140 S60 ; set bed temp
Tx
M190 S60 ; wait for bed temp
M109 S220 ; wait for extruder temp
G28 W ; home all without mesh bed level
G80 ; mesh bed leveling

;go outside print area
G1 Y-3.0 F1000.0
G1 Z0.4 F1000.0
; select extruder
Tc
; purge line
G1 X55.0 F2000.0
G1 Z0.3 F1000.0
G92 E0.0
G1 X240.0 E25.0 F2200.0
G1 Y-2.0 F1000.0
G1 X55.0 E25 F1400.0
M73 P0 R51
G1 Z0.20 F1000.0
G1 X5.0 E4.0 F1000.0

M221 S95
G92 E0.0

; Don't change E values below. Excessive value can damage the printer.
M907 E430 ; set extruder motor current
G21 ; set units to millimeters
G90 ; use absolute coordinates
M83 ; use relative distances for extrusion
M900 K0.06 ; Filament gcode LA 1.5
M900 K30 ; Filament gcode LA 1.0
;LAYER_CHANGE
;Z:0.2
;HEIGHT:0.2
;BEFORE_LAYER_CHANGE
G92 E0.0
;0.2


G1 E-0.80000 F2100.000
G1 Z0.400 F10800.000
;AFTER_LAYER_CHANGE
;0.2
G1 X62.367 Y61.785
G1 Z0.200
G1 E0.80000 F2100.000
M204 S1000
;TYPE:Skirt
;WIDTH:0.42
G1 F1200.000
G1 X63.504 Y61.377 E0.03788
G1 X64.464 Y61.260 E0.03033
G1 X99.573 Y61.258 E1.10082
G1 X100.515 Y61.350 E0.02966
G1 X101.412 Y61.619 E0.02938
G1 X102.252 Y62.062 E0.02974
G1 X102.939 Y62.611 E0.02760
G1 X103.408 Y63.129 E0.02191
G1 X103.914 Y63.922 E0.02949
G1 X104.245 Y64.746 E0.02783
G1 X104.426 Y65.685 E0.02998
G1 X104.446 Y101.203 E1.11366
G1 X104.353 Y102.084 E0.02776
G1 X104.106 Y102.925 E0.02748
G1 X103.813 Y103.535 E0.02123
G1 X103.292 Y104.285 E0.02863
G1 X102.578 Y104.971 E0.03104
G1 X101.532 Y105.598 E0.03824
G1 X100.557 Y105.911 E0.03211
G1 X99.602 Y106.012 E0.03010
G1 X64.497 Y106.011 E1.10070
M73 Q0 S51
G1 X63.620 Y105.919 E0.02764
G1 X62.780 Y105.671 E0.02748
G1 X62.173 Y105.381 E0.02108
G1 X61.419 Y104.857 E0.02878
G1 X60.733 Y104.144 E0.03104
G1 X60.108 Y103.101 E0.03812
G1 X59.794 Y102.122 E0.03223
G1 X59.693 Y101.168 E0.03009
G1 X59.694 Y66.062 E1.10070
G1 X59.786 Y65.186 E0.02764
G1 X60.033 Y64.345 E0.02748
G1 X60.326 Y63.734 E0.02123
G1 X60.847 Y62.985 E0.02863
G1 X61.509 Y62.338 E0.02902
G1 X62.316 Y61.817 E0.03011
; printing object Clasp_Bracket_x2.stl id:0 copy 0
;WIPE_START
G1 F8640.000
G1 X63.504 Y61.377 E-0.29250
G1 X64.464 Y61.260 E-0.22333
G1 X65.522 Y61.260 E-0.24418
;WIPE_END
G1 E-0.04000 F2100.000
G1 Z0.600 F10800.000
G1 X65.452 Y97.565
G1 Z0.200
G1 E0.80000 F2100.000
;TYPE:Perimeter
G1 F1200.000
G1 X65.755 Y97.565 E0.00951
G1 X66.054 Y97.601 E0.00943
G1 X66.346 Y97.671 E0.00943
G1 X66.608 Y97.769 E0.00876
G1 X66.894 Y97.912 E0.01002
G1 X67.145 Y98.082 E0.00951
G1 X67.373 Y98.278 E0.00943
G1 X67.576 Y98.500 E0.00943
G1 X67.752 Y98.744 E0.00943
G1 X67.897 Y99.008 E0.00943
G1 X68.010 Y99.286 E0.00943
G1 X68.089 Y99.576 E0.00943
G1 X68.133 Y99.874 E0.00943
G1 X68.142 Y100.175 E0.00943
G1 X68.116 Y100.474 E0.00943
G1 X68.054 Y100.768 E0.00943
G1 X67.964 Y101.033 E0.00876
G1 X67.829 Y101.323 E0.01001
G1 X67.667 Y101.579 E0.00951
G1 X67.478 Y101.813 E0.00943
G1 X67.262 Y102.022 E0.00943
G1 X67.023 Y102.205 E0.00943
G1 X66.764 Y102.358 E0.00943
G1 X66.489 Y102.479 E0.00943
G1 X66.201 Y102.567 E0.00943
G1 X65.905 Y102.620 E0.00943
G1 X65.605 Y102.638 E0.00943
G1 X65.305 Y102.620 E0.00943
G1 X65.030 Y102.571 E0.00876
G1 X64.724 Y102.480 E0.01001
G1 X64.446 Y102.358 E0.00951
G1 X64.187 Y102.205 E0.00943
G1 X63.948 Y102.022 E0.00943
G1 X63.732 Y101.813 E0.00943
G1 X63.543 Y101.579 E0.00943
G1 X63.382 Y101.325 E0.00943
G1 X63.253 Y101.053 E0.00943
G1 X63.156 Y100.768 E0.00943
G1 X63.094 Y100.474 E0.00943
G1 X63.068 Y100.175 E0.00943
G1 X63.077 Y99.874 E0.00943
G1 X63.121 Y99.576 E0.00943
G1 X63.200 Y99.286 E0.00943
G1 X63.313 Y99.008 E0.00943
G1 X63.459 Y98.744 E0.00943
G1 X63.634 Y98.500 E0.00943
G1 X63.837 Y98.278 E0.00943
G1 X64.065 Y98.082 E0.00943
G1 X64.314 Y97.914 E0.00943
G1 X64.582 Y97.776 E0.00943
G1 X64.864 Y97.671 E0.00943
G1 X65.135 Y97.606 E0.00876
G1 X65.393 Y97.573 E0.00813
G1 X65.440 Y97.947 F10800.000
;TYPE:External perimeter
G1 F1200.000
G1 X65.733 Y97.942 E0.00918
G1 X65.987 Y97.973 E0.00803
G1 X66.236 Y98.033 E0.00803
G1 X66.458 Y98.115 E0.00741
G1 X66.703 Y98.238 E0.00861
G1 X66.916 Y98.382 E0.00806
G1 X67.110 Y98.549 E0.00803
G1 X67.283 Y98.738 E0.00803
G1 X67.432 Y98.946 E0.00803
G1 X67.556 Y99.170 E0.00803
G1 X67.652 Y99.407 E0.00803
G1 X67.719 Y99.654 E0.00803
G1 X67.757 Y99.907 E0.00803
G1 X67.765 Y100.163 E0.00803
G1 X67.742 Y100.418 E0.00803
G1 X67.689 Y100.669 E0.00803
G1 X67.614 Y100.893 E0.00741
G1 X67.498 Y101.142 E0.00861
G1 X67.361 Y101.359 E0.00806
G1 X67.199 Y101.558 E0.00803
G1 X67.016 Y101.736 E0.00803
G1 X66.812 Y101.891 E0.00803
G1 X66.592 Y102.022 E0.00803
G1 X66.357 Y102.125 E0.00803
G1 X66.113 Y102.200 E0.00803
G1 X65.861 Y102.245 E0.00803
G1 X65.605 Y102.260 E0.00803
G1 X65.349 Y102.245 E0.00803
G1 X65.117 Y102.203 E0.00741
G1 X64.854 Y102.125 E0.00861
G1 X64.618 Y102.022 E0.00806
G1 X64.398 Y101.891 E0.00803
G1 X64.194 Y101.736 E0.00803
G1 X64.011 Y101.558 E0.00803
G1 X63.849 Y101.359 E0.00803
G1 X63.713 Y101.142 E0.00803
G1 X63.603 Y100.911 E0.00803
G1 X63.521 Y100.669 E0.00803
G1 X63.468 Y100.418 E0.00803
G1 X63.445 Y100.163 E0.00803
G1 X63.453 Y99.907 E0.00803
G1 X63.491 Y99.654 E0.00803
G1 X63.558 Y99.407 E0.00803
G1 X63.654 Y99.170 E0.00803
G1 X63.778 Y98.946 E0.00803
G1 X63.927 Y98.738 E0.00803
G1 X64.100 Y98.549 E0.00803
G1 X64.294 Y98.382 E0.00803
G1 X64.506 Y98.239 E0.00803
G1 X64.734 Y98.122 E0.00803
G1 X64.974 Y98.033 E0.00803
G1 X65.381 Y97.955 E0.01299
G1 X65.563 Y97.681 F10800.000
;WIPE_START
G1 F8640.000
G1 X65.733 Y97.942 E-0.08135
G1 X65.987 Y97.973 E-0.05911
G1 X66.236 Y98.033 E-0.05911
G1 X66.458 Y98.115 E-0.05456
G1 X66.703 Y98.238 E-0.06342
G1 X66.916 Y98.382 E-0.05933
G1 X67.110 Y98.549 E-0.05911
G1 X67.283 Y98.738 E-0.05911
G1 X67.432 Y98.946 E-0.05911
G1 X67.556 Y99.170 E-0.05911
G1 X67.652 Y99.407 E-0.05911
G1 X67.719 Y99.654 E-0.05911
G1 X67.738 Y99.776 E-0.02844
;WIPE_END
G1 E-0.04000 F2100.000
G1 Z0.600 F10800.000
G1 X65.605 Y69.709
G1 Z0.200
G1 E0.80000 F2100.000
;TYPE:Perimeter
G1 F1200.000
G1 X65.305 Y69.691 E0.00943
G1 X65.009 Y69.638 E0.00943
G1 X64.742 Y69.556 E0.00876
G1 X64.448 Y69.430 E0.01002
G1 X64.187 Y69.276 E0.00951
G1 X63.948 Y69.093 E0.00943
G1 X63.732 Y68.884 E0.00943
G1 X63.543 Y68.650 E0.00943
G1 X63.382 Y68.396 E0.00943
G1 X63.253 Y68.124 E0.00943
G1 X63.156 Y67.839 E0.00943
G1 X63.094 Y67.545 E0.00943
G1 X63.068 Y67.246 E0.00943
G1 X63.076 Y66.966 E0.00876
G1 X63.120 Y66.650 E0.01002
G1 X63.200 Y66.357 E0.00951
G1 X63.313 Y66.079 E0.00943
G1 X63.459 Y65.815 E0.00943
G1 X63.634 Y65.571 E0.00943
G1 X63.837 Y65.349 E0.00943
G1 X64.065 Y65.153 E0.00943
G1 X64.314 Y64.985 E0.00943
G1 X64.563 Y64.857 E0.00876
G1 X64.861 Y64.743 E0.01002
G1 X65.156 Y64.672 E0.00951
G1 X65.455 Y64.636 E0.00943
G1 X65.755 Y64.636 E0.00943
G1 X66.054 Y64.672 E0.00943
G1 X66.346 Y64.743 E0.00943
G1 X66.608 Y64.840 E0.00876
G1 X66.894 Y64.983 E0.01002
G1 X67.145 Y65.153 E0.00951
G1 X67.373 Y65.349 E0.00943
G1 X67.576 Y65.571 E0.00943
G1 X67.752 Y65.815 E0.00943
G1 X67.897 Y66.079 E0.00943
M73 Q1 S51
G1 X68.010 Y66.357 E0.00943
G1 X68.089 Y66.647 E0.00943
G1 X68.133 Y66.945 E0.00943
G1 X68.142 Y67.246 E0.00943
G1 X68.118 Y67.524 E0.00876
G1 X68.055 Y67.837 E0.01002
G1 X67.957 Y68.124 E0.00951
G1 X67.828 Y68.396 E0.00943
G1 X67.667 Y68.650 E0.00943
G1 X67.478 Y68.884 E0.00943
G1 X67.262 Y69.093 E0.00943
G1 X67.023 Y69.276 E0.00943
G1 X66.764 Y69.429 E0.00943
M73 P1 R51
G1 X66.489 Y69.550 E0.00943
G1 X66.201 Y69.638 E0.00943
G1 X65.905 Y69.691 E0.00943
G1 X65.665 Y69.705 E0.00755
G1 X65.643 Y69.329 F10800.000
;TYPE:External perimeter
G1 F1200.000
G1 X65.349 Y69.316 E0.00920
G1 X65.098 Y69.271 E0.00803
G1 X64.872 Y69.202 E0.00741
G1 X64.619 Y69.093 E0.00861
G1 X64.398 Y68.962 E0.00806
G1 X64.194 Y68.807 E0.00803
G1 X64.011 Y68.629 E0.00803
G1 X63.849 Y68.430 E0.00803
G1 X63.713 Y68.214 E0.00803
G1 X63.603 Y67.982 E0.00803
G1 X63.521 Y67.740 E0.00803
G1 X63.468 Y67.489 E0.00803
G1 X63.445 Y67.234 E0.00803
G1 X63.452 Y66.998 E0.00741
G1 X63.490 Y66.726 E0.00861
G1 X63.558 Y66.478 E0.00806
G1 X63.654 Y66.241 E0.00803
G1 X63.778 Y66.017 E0.00803
G1 X63.927 Y65.809 E0.00803
G1 X64.100 Y65.620 E0.00803
G1 X64.294 Y65.453 E0.00803
G1 X64.506 Y65.310 E0.00803
G1 X64.716 Y65.202 E0.00741
G1 X64.973 Y65.104 E0.00861
G1 X65.223 Y65.044 E0.00806
G1 X65.477 Y65.013 E0.00803
G1 X65.733 Y65.013 E0.00803
G1 X65.987 Y65.044 E0.00803
G1 X66.236 Y65.104 E0.00803
G1 X66.458 Y65.186 E0.00741
G1 X66.703 Y65.309 E0.00861
G1 X66.916 Y65.453 E0.00806
G1 X67.110 Y65.620 E0.00803
G1 X67.283 Y65.809 E0.00803
G1 X67.432 Y66.017 E0.00803
G1 X67.556 Y66.241 E0.00803
G1 X67.652 Y66.478 E0.00803
G1 X67.719 Y66.725 E0.00803
G1 X67.757 Y66.978 E0.00803
G1 X67.765 Y67.234 E0.00803
G1 X67.744 Y67.470 E0.00741
G1 X67.690 Y67.739 E0.00861
G1 X67.607 Y67.982 E0.00806
G1 X67.497 Y68.214 E0.00803
G1 X67.361 Y68.430 E0.00803
G1 X67.199 Y68.629 E0.00803
G1 X67.016 Y68.807 E0.00803
G1 X66.812 Y68.962 E0.00803
G1 X66.592 Y69.093 E0.00803
G1 X66.357 Y69.196 E0.00803
G1 X66.113 Y69.271 E0.00803
G1 X65.702 Y69.325 E0.01297
G1 X65.504 Y69.587 F10800.000
;WIPE_START
G1 F8640.000
G1 X65.349 Y69.316 E-0.08154
G1 X65.098 Y69.271 E-0.05911
G1 X64.872 Y69.202 E-0.05456
G1 X64.619 Y69.093 E-0.06342
G1 X64.398 Y68.962 E-0.05933
G1 X64.194 Y68.807 E-0.05911
G1 X64.011 Y68.629 E-0.05911
G1 X63.849 Y68.430 E-0.05911
G1 X63.713 Y68.214 E-0.05911
G1 X63.603 Y67.982 E-0.05911
G1 X63.521 Y67.740 E-0.05911
G1 X63.468 Y67.489 E-0.05911
G1 X63.457 Y67.367 E-0.02825
;WIPE_END
G1 E-0.04000 F2100.000
G1 Z0.600 F10800.000
G1 X63.765 Y69.902
G1 Z0.200
G1 E0.80000 F2100.000
;TYPE:Perimeter
G1 F1200.000
G1 X64.106 Y70.104 E0.01242
G1 X64.482 Y70.265 E0.01282
G1 X64.831 Y70.372 E0.01146
G1 X65.215 Y70.441 E0.01224
G1 X65.605 Y70.464 E0.01224
G1 X65.995 Y70.441 E0.01224
G1 X66.379 Y70.372 E0.01224
G1 X66.752 Y70.258 E0.01224
G1 X67.109 Y70.101 E0.01224
G1 X67.445 Y69.902 E0.01224
G1 X67.755 Y69.666 E0.01224
G1 X68.035 Y69.394 E0.01224
G1 X68.281 Y69.091 E0.01224
G1 X68.490 Y68.761 E0.01224
G1 X68.657 Y68.408 E0.01224
G1 X68.784 Y68.033 E0.01242
G1 X68.865 Y67.632 E0.01282
G1 X68.898 Y67.268 E0.01146
G1 X68.886 Y66.878 E0.01224
G1 X68.828 Y66.492 E0.01224
G1 X68.725 Y66.115 E0.01224
G1 X68.579 Y65.754 E0.01224
G1 X68.390 Y65.412 E0.01224
G1 X68.221 Y65.176 E0.00910
G1 X95.918 Y65.176 E0.86841
G1 X95.749 Y65.412 E0.00910
G1 X95.560 Y65.754 E0.01224
G1 X95.414 Y66.115 E0.01224
G1 X95.309 Y66.498 E0.01242
G1 X95.252 Y66.903 E0.01282
G1 X95.241 Y67.268 E0.01146
G1 X95.276 Y67.657 E0.01224
G1 X95.356 Y68.039 E0.01224
G1 X95.481 Y68.408 E0.01224
G1 X95.649 Y68.761 E0.01224
G1 X95.858 Y69.091 E0.01224
G1 X96.104 Y69.394 E0.01224
G1 X96.384 Y69.666 E0.01224
G1 X96.694 Y69.902 E0.01224
G1 X97.035 Y70.104 E0.01242
G1 X97.411 Y70.265 E0.01282
G1 X97.760 Y70.372 E0.01146
G1 X98.144 Y70.441 E0.01224
G1 X98.534 Y70.464 E0.01224
G1 X98.924 Y70.441 E0.01224
G1 X99.308 Y70.372 E0.01224
G1 X99.681 Y70.258 E0.01224
G1 X100.038 Y70.101 E0.01224
G1 X100.374 Y69.902 E0.01224
G1 X100.528 Y69.785 E0.00608
G1 X100.528 Y97.478 E0.86831
G1 X100.204 Y97.260 E0.01226
G1 X99.839 Y97.076 E0.01282
G1 X99.496 Y96.949 E0.01146
G1 X99.117 Y96.857 E0.01224
G1 X98.729 Y96.811 E0.01224
G1 X98.339 Y96.811 E0.01224
G1 X97.951 Y96.857 E0.01224
G1 X97.572 Y96.949 E0.01224
G1 X97.206 Y97.085 E0.01224
G1 X96.859 Y97.263 E0.01224
G1 X96.535 Y97.481 E0.01224
G1 X96.240 Y97.736 E0.01224
G1 X95.976 Y98.024 E0.01224
G1 X95.749 Y98.341 E0.01224
G1 X95.560 Y98.683 E0.01224
G1 X95.414 Y99.044 E0.01224
G1 X95.311 Y99.421 E0.01224
G1 X95.253 Y99.807 E0.01224
G1 X95.241 Y100.197 E0.01224
G1 X95.276 Y100.586 E0.01224
G1 X95.358 Y100.973 E0.01242
G1 X95.492 Y101.360 E0.01282
G1 X95.649 Y101.690 E0.01146
G1 X95.918 Y102.094 E0.01521
G1 X68.221 Y102.094 E0.86840
G1 X68.493 Y101.685 E0.01540
G1 X68.665 Y101.314 E0.01282
G1 X68.782 Y100.968 E0.01146
G1 X68.863 Y100.586 E0.01224
G1 X68.898 Y100.197 E0.01224
G1 X68.886 Y99.807 E0.01224
G1 X68.828 Y99.421 E0.01224
G1 X68.725 Y99.044 E0.01224
G1 X68.579 Y98.683 E0.01224
G1 X68.390 Y98.341 E0.01224
G1 X68.163 Y98.024 E0.01224
G1 X67.899 Y97.736 E0.01224
G1 X67.604 Y97.481 E0.01224
G1 X67.275 Y97.260 E0.01242
G1 X66.910 Y97.076 E0.01282
G1 X66.567 Y96.949 E0.01146
G1 X66.188 Y96.857 E0.01224
G1 X65.800 Y96.811 E0.01224
G1 X65.404 Y96.811 E0.01242
G1 X64.998 Y96.863 E0.01282
G1 X64.643 Y96.949 E0.01146
G1 X64.277 Y97.085 E0.01224
G1 X63.930 Y97.263 E0.01224
G1 X63.611 Y97.478 E0.01207
G1 X63.611 Y69.785 E0.86831
G1 X63.717 Y69.866 E0.00420
;WIPE_START
G1 F8640.000
G1 X64.106 Y70.104 E-0.10526
G1 X64.482 Y70.265 E-0.09443
G1 X64.831 Y70.372 E-0.08440
G1 X65.215 Y70.441 E-0.09011
G1 X65.605 Y70.464 E-0.09011
G1 X65.995 Y70.441 E-0.09011
G1 X66.379 Y70.372 E-0.09011
G1 X66.752 Y70.258 E-0.09011
G1 X66.852 Y70.214 E-0.02534
;WIPE_END
G1 E-0.04000 F2100.000
G1 Z0.600 F10800.000
G1 X63.236 Y68.870
G1 Z0.200
G1 E0.80000 F2100.000
G1 F1200.000
G1 X63.453 Y69.139 E0.01083
G1 X63.701 Y69.379 E0.01083
G1 X63.976 Y69.589 E0.01083
G1 X64.277 Y69.767 E0.01097
G1 X64.612 Y69.911 E0.01142
G1 X64.920 Y70.005 E0.01011
G1 X65.260 Y70.066 E0.01083
G1 X65.605 Y70.087 E0.01083
G1 X65.950 Y70.066 E0.01083
G1 X66.290 Y70.005 E0.01083
G1 X66.620 Y69.904 E0.01083
G1 X66.937 Y69.765 E0.01083
G1 X67.234 Y69.589 E0.01083
G1 X67.509 Y69.379 E0.01083
G1 X67.757 Y69.139 E0.01083
G1 X67.974 Y68.870 E0.01083
G1 X68.159 Y68.578 E0.01083
G1 X68.307 Y68.266 E0.01083
G1 X68.419 Y67.935 E0.01097
G1 X68.491 Y67.578 E0.01142
G1 X68.520 Y67.257 E0.01011
G1 X68.510 Y66.911 E0.01083
G1 X68.459 Y66.570 E0.01083
G1 X68.368 Y66.236 E0.01083
G1 X68.238 Y65.916 E0.01083
G1 X68.071 Y65.614 E0.01083
G1 X67.870 Y65.333 E0.01083
G1 X67.636 Y65.078 E0.01083
G1 X67.295 Y64.799 E0.01381
G1 X96.843 Y64.799 E0.92646
G1 X96.503 Y65.078 E0.01381
G1 X96.269 Y65.333 E0.01083
G1 X96.068 Y65.614 E0.01083
G1 X95.901 Y65.916 E0.01083
G1 X95.771 Y66.236 E0.01083
G1 X95.679 Y66.574 E0.01097
G1 X95.629 Y66.934 E0.01142
G1 X95.619 Y67.257 E0.01011
G1 X95.650 Y67.601 E0.01083
G1 X95.721 Y67.939 E0.01083
G1 X95.832 Y68.266 E0.01083
G1 X95.980 Y68.578 E0.01083
G1 X96.165 Y68.870 E0.01083
G1 X96.382 Y69.139 E0.01083
G1 X96.630 Y69.379 E0.01083
G1 X96.905 Y69.589 E0.01083
G1 X97.206 Y69.767 E0.01097
G1 X97.541 Y69.911 E0.01142
G1 X97.849 Y70.005 E0.01011
G1 X98.189 Y70.066 E0.01083
G1 X98.534 Y70.087 E0.01083
G1 X98.879 Y70.066 E0.01083
G1 X99.219 Y70.005 E0.01083
G1 X99.549 Y69.904 E0.01083
G1 X99.866 Y69.765 E0.01083
G1 X100.163 Y69.589 E0.01083
G1 X100.438 Y69.379 E0.01083
G1 X100.686 Y69.139 E0.01083
G1 X100.905 Y68.867 E0.01095
G1 X100.905 Y98.411 E0.92632
G1 X100.798 Y98.262 E0.00575
G1 X100.565 Y98.007 E0.01083
G1 X100.304 Y97.781 E0.01083
G1 X100.013 Y97.586 E0.01097
G1 X99.688 Y97.422 E0.01142
G1 X99.386 Y97.310 E0.01011
G1 X99.050 Y97.229 E0.01083
G1 X98.707 Y97.188 E0.01083
G1 X98.361 Y97.188 E0.01083
G1 X98.018 Y97.229 E0.01083
G1 X97.682 Y97.310 E0.01083
G1 X97.358 Y97.431 E0.01083
G1 X97.051 Y97.588 E0.01083
G1 X96.764 Y97.781 E0.01083
G1 X96.503 Y98.007 E0.01083
G1 X96.269 Y98.262 E0.01083
G1 X96.068 Y98.543 E0.01083
G1 X95.901 Y98.845 E0.01083
G1 X95.771 Y99.165 E0.01083
G1 X95.680 Y99.499 E0.01083
G1 X95.629 Y99.840 E0.01083
