; generated by PrusaSlicer 2.3.0+win64 on 2021-05-27 at 21:56:13 UTC

; 

; external perimeters extrusion width = 0.65mm
; perimeters extrusion width = 0.65mm
; infill extrusion width = 0.65mm
; solid infill extrusion width = 0.65mm
; top infill extrusion width = 0.60mm
; support material extrusion width = 0.55mm
; first layer extrusion width = 0.65mm

M73 P0 R67
M73 Q0 S68
M201 X1000 Y1000 Z1000 E5000 ; sets maximum accelerations, mm/sec^2
M203 X200 Y200 Z12 E120 ; sets maximum feedrates, mm/sec
M204 P1250 R1250 T1250 ; sets acceleration (P, T) and retract acceleration (R), mm/sec^2
M205 X8.00 Y8.00 Z0.40 E1.50 ; sets the jerk limits, mm/sec
M205 S0 T0 ; sets the minimum extruding and travel feed rate, mm/sec
M107
;TYPE:Custom
G28 ; home all without mesh bed level
G90 ; use absolute coordinates
M83 ; extruder relative mode
M140 S60 ; set bed temp
M104 S220 ; set extruder temp
M190 S60; wait for bed temp
M109 S220 ; wait for extruder temp
G29 A L1; mesh bed leveling
;G29 J; mesh bed leveling. I don't think this is needed and may cause issues.
G0 X0 Y0 Z0.4 F5000.0; move head to start location
G92 E0.0
G1 X60.0 Z0.4 E9.0 F1000.0 ; intro line
G1 X100.0 E12.5 F1000.0 ; intro line
G92 E0.0
M221 S95
G21 ; set units to millimeters
G90 ; use absolute coordinates
M83 ; use relative distances for extrusion
M900 K0.04 ; Filament gcode LA 1.5
M900 K18 ; Filament gcode LA 1.0
;LAYER_CHANGE
;Z:0.2
;HEIGHT:0.2
;BEFORE_LAYER_CHANGE
G92 E0.0
;0.2


G1 E-0.80000 F2100.000
G1 Z0.600 F10800.000
;AFTER_LAYER_CHANGE
;0.2
G1 X56.065 Y35.366
G1 Z0.200
G1 E0.80000 F2100.000
M204 S1000
;TYPE:Skirt
;WIDTH:0.65
G1 F1200.000
G1 X56.881 Y35.113 E0.04311
G1 X57.525 Y35.013 E0.03294
G1 X92.987 Y34.992 E1.79004
G1 X93.951 Y35.085 E0.04892
G1 X94.825 Y35.337 E0.04592
G1 X129.200 Y48.045 E1.85000
G1 X130.028 Y48.465 E0.04687
G1 X130.688 Y48.951 E0.04136
G1 X131.206 Y49.474 E0.03714
G1 X131.740 Y50.226 E0.04658
G1 X132.442 Y51.612 E0.07840
G1 X133.028 Y53.087 E0.08015
G1 X133.474 Y54.593 E0.07928
G1 X133.800 Y56.369 E0.09115
G1 X133.800 Y96.065 E2.00377
G1 X133.601 Y98.250 E0.11075
G1 X133.022 Y100.379 E0.11143
G1 X132.406 Y101.780 E0.07722
G1 X131.612 Y103.115 E0.07842
G1 X130.291 Y104.743 E0.10581
G1 X129.183 Y105.768 E0.07620
G1 X98.567 Y130.087 E1.97371
G1 X97.874 Y130.555 E0.04220
M73 Q0 S67
G1 X97.312 Y130.828 E0.03153
G1 X96.362 Y131.115 E0.05014
G1 X95.373 Y131.213 E0.05014
G1 X60.345 Y131.212 E1.76819
G1 X59.396 Y131.119 E0.04812
G1 X58.530 Y130.869 E0.04552
G1 X57.427 Y130.278 E0.06316
G1 X56.803 Y129.762 E0.04087
G1 X56.345 Y129.248 E0.03474
G1 X55.906 Y128.586 E0.04010
G1 X55.628 Y128.005 E0.03254
G1 X55.378 Y127.184 E0.04332
G1 X55.278 Y126.499 E0.03494
G1 X52.876 Y75.161 E2.59431
G1 X52.876 Y40.075 E1.77110
G1 X52.969 Y39.127 E0.04812
G1 X53.220 Y38.260 E0.04552
G1 X53.807 Y37.161 E0.06293
G1 X54.324 Y36.537 E0.04091
G1 X54.827 Y36.085 E0.03414
G1 X55.987 Y35.411 E0.06772
; printing object Clasp.stl id:0 copy 0
;WIPE_START
G1 F8640.000
G1 X56.881 Y35.113 E-0.21750
G1 X57.525 Y35.013 E-0.15065
G1 X59.222 Y35.012 E-0.39184
;WIPE_END
G1 E-0.04000 F2100.000
G1 Z0.800 F10800.000
G1 X117.752 Y69.889
G1 Z0.200
G1 E0.80000 F2100.000
;TYPE:Perimeter
G1 F1200.000
G1 X118.390 Y69.791 E0.03262
G1 X119.036 Y69.653 E0.03334
G1 X119.673 Y69.477 E0.03334
G1 X120.298 Y69.264 E0.03334
G1 X120.909 Y69.014 E0.03334
G1 X121.504 Y68.728 E0.03334
G1 X122.081 Y68.407 E0.03334
G1 X122.638 Y68.052 E0.03334
G1 X123.174 Y67.665 E0.03334
G1 X123.685 Y67.248 E0.03334
G1 X124.171 Y66.800 E0.03334
G1 X124.629 Y66.324 E0.03334
G1 X125.058 Y65.823 E0.03334
G1 X125.457 Y65.296 E0.03334
G1 X125.824 Y64.747 E0.03334
G1 X126.157 Y64.177 E0.03334
G1 X126.457 Y63.588 E0.03334
G1 X126.720 Y62.983 E0.03334
G1 X126.948 Y62.363 E0.03334
G1 X127.138 Y61.731 E0.03333
G1 X127.257 Y61.231 E0.02594
G1 X127.404 Y60.443 E0.04047
G1 X127.480 Y59.781 E0.03360
G1 X127.516 Y59.122 E0.03334
G1 X127.513 Y58.462 E0.03334
G1 X127.471 Y57.803 E0.03334
G1 X127.391 Y57.149 E0.03326
G1 X127.271 Y56.499 E0.03334
G1 X127.113 Y55.858 E0.03335
G1 X126.917 Y55.227 E0.03335
G1 X126.684 Y54.609 E0.03335
G1 X126.415 Y54.005 E0.03335
G1 X126.111 Y53.419 E0.03335
G1 X125.786 Y52.875 E0.03200
G1 X126.169 Y52.081 E0.04450
G1 X126.285 Y51.923 E0.00989
G1 X126.486 Y51.726 E0.01419
G1 X126.648 Y51.618 E0.00982
G1 X126.916 Y51.496 E0.01487
G1 X127.185 Y51.440 E0.01389
G1 X127.480 Y51.444 E0.01492
G1 X127.693 Y51.481 E0.01089
G1 X127.976 Y51.594 E0.01536
G1 X128.236 Y51.776 E0.01604
G1 X128.349 Y51.888 E0.00803
G1 X128.531 Y52.145 E0.01589
G1 X129.036 Y53.156 E0.05708
G1 X129.272 Y53.714 E0.03055
G1 X129.486 Y54.288 E0.03097
G1 X129.675 Y54.872 E0.03098
G1 X129.838 Y55.464 E0.03099
G1 X130.062 Y56.540 E0.05546
G1 X130.062 Y96.000 E1.99189
G1 X130.045 Y96.542 E0.02738
G1 X129.999 Y97.066 E0.02653
G1 X129.921 Y97.586 E0.02653
G1 X129.813 Y98.100 E0.02653
G1 X129.674 Y98.607 E0.02653
G1 X129.306 Y99.596 E0.05329
G1 X129.082 Y100.066 E0.02628
G1 X128.829 Y100.527 E0.02653
G1 X128.548 Y100.971 E0.02653
G1 X128.242 Y101.398 E0.02653
G1 X127.910 Y101.806 E0.02653
G1 X127.640 Y102.102 E0.02025
G1 X127.175 Y102.563 E0.03306
G1 X126.780 Y102.903 E0.02628
G1 X126.362 Y103.222 E0.02653
G1 X125.926 Y103.516 E0.02653
G1 X125.474 Y103.783 E0.02653
G1 X125.006 Y104.023 E0.02653
G1 X124.525 Y104.235 E0.02653
G1 X124.032 Y104.418 E0.02653
G1 X123.530 Y104.571 E0.02653
G1 X123.139 Y104.665 E0.02029
G1 X122.496 Y104.788 E0.03302
G1 X121.980 Y104.849 E0.02628
G1 X121.455 Y104.880 E0.02653
G1 X120.929 Y104.880 E0.02653
G1 X120.405 Y104.849 E0.02653
G1 X119.883 Y104.787 E0.02653
G1 X119.365 Y104.694 E0.02653
G1 X118.855 Y104.570 E0.02653
G1 X118.352 Y104.417 E0.02653
G1 X117.859 Y104.233 E0.02653
G1 X117.378 Y104.021 E0.02653
G1 X116.911 Y103.781 E0.02653
G1 X116.458 Y103.514 E0.02653
G1 X116.022 Y103.220 E0.02653
G1 X115.605 Y102.901 E0.02653
G1 X115.207 Y102.558 E0.02653
G1 X114.830 Y102.192 E0.02653
G1 X114.475 Y101.804 E0.02653
G1 X114.144 Y101.396 E0.02653
G1 X113.838 Y100.968 E0.02653
G1 X113.557 Y100.524 E0.02653
G1 X113.303 Y100.064 E0.02653
G1 X113.078 Y99.589 E0.02653
G1 X112.880 Y99.102 E0.02653
G1 X112.712 Y98.604 E0.02653
G1 X112.574 Y98.097 E0.02653
G1 X112.466 Y97.582 E0.02653
G1 X112.388 Y97.063 E0.02653
G1 X112.342 Y96.539 E0.02653
G1 X112.326 Y96.014 E0.02649
G1 X112.342 Y95.488 E0.02657
G1 X112.389 Y94.965 E0.02653
G1 X112.467 Y94.445 E0.02653
G1 X112.575 Y93.931 E0.02653
G1 X112.714 Y93.424 E0.02653
G1 X112.879 Y92.937 E0.02595
G1 X113.009 Y92.674 E0.01482
G1 X113.139 Y92.505 E0.01073
G1 X113.347 Y92.309 E0.01444
G1 X113.579 Y92.169 E0.01370
G1 X113.850 Y92.077 E0.01442
G1 X114.062 Y92.041 E0.01088
G1 X116.211 Y92.059 E0.10847
G1 X116.410 Y92.045 E0.01007
G1 X116.101 Y92.386 E0.02324
G1 X115.794 Y92.853 E0.02821
G1 X115.548 Y93.317 E0.02653
G1 X115.343 Y93.796 E0.02628
G1 X115.213 Y94.184 E0.02063
G1 X115.057 Y94.790 E0.03163
G1 X114.975 Y95.312 E0.02666
G1 X114.938 Y95.832 E0.02629
G1 X114.943 Y96.240 E0.02062
G1 X114.993 Y96.864 E0.03161
G1 X115.087 Y97.384 E0.02665
G1 X115.222 Y97.888 E0.02635
G1 X115.398 Y98.378 E0.02626
G1 X115.614 Y98.852 E0.02630
G1 X115.873 Y99.312 E0.02666
G1 X116.232 Y99.825 E0.03162
G1 X116.489 Y100.143 E0.02063
G1 X116.848 Y100.520 E0.02628
G1 X117.243 Y100.871 E0.02665
G1 X117.750 Y101.239 E0.03164
G1 X118.097 Y101.455 E0.02064
G1 X118.559 Y101.693 E0.02626
G1 X119.047 Y101.895 E0.02664
G1 X119.647 Y102.078 E0.03165
G1 X120.046 Y102.169 E0.02065
G1 X120.560 Y102.243 E0.02624
G1 X121.087 Y102.274 E0.02663
G1 X121.714 Y102.251 E0.03167
G1 X122.121 Y102.206 E0.02066
G1 X122.631 Y102.107 E0.02622
G1 X123.139 Y101.965 E0.02662
G1 X123.724 Y101.738 E0.03169
G1 X124.094 Y101.562 E0.02067
G1 X124.544 Y101.303 E0.02621
G1 X124.972 Y101.006 E0.02630
G1 X125.378 Y100.670 E0.02660
G1 X125.822 Y100.226 E0.03171
G1 X126.089 Y99.915 E0.02069
G1 X126.395 Y99.496 E0.02618
G1 X126.666 Y99.051 E0.02630
G1 X126.902 Y98.580 E0.02659
G1 X127.129 Y97.994 E0.03174
G1 X127.247 Y97.601 E0.02070
G1 X127.358 Y97.095 E0.02616
G1 X127.426 Y96.577 E0.02636
G1 X127.451 Y96.039 E0.02717
G1 X127.451 Y83.348 E0.64066
G1 X127.422 Y82.787 E0.02832
G1 X127.373 Y82.390 E0.02022
G1 X127.271 Y81.884 E0.02605
G1 X127.092 Y81.290 E0.03133
G1 X126.947 Y80.914 E0.02031
G1 X126.725 Y80.448 E0.02607
G1 X126.406 Y79.915 E0.03132
G1 X126.175 Y79.587 E0.02031
G1 X125.845 Y79.188 E0.02610
G1 X125.407 Y78.750 E0.03131
G1 X125.102 Y78.487 E0.02030
G1 X124.685 Y78.181 E0.02612
G1 X124.153 Y77.863 E0.03129
G1 X123.794 Y77.682 E0.02029
G1 X123.321 Y77.489 E0.02581
G1 X122.831 Y77.334 E0.02591
G1 X122.331 Y77.220 E0.02591
G1 X121.816 Y77.147 E0.02624
G1 X121.197 Y77.119 E0.03126
G1 X120.796 Y77.129 E0.02027
G1 X120.287 Y77.182 E0.02584
G1 X119.782 Y77.277 E0.02591
G1 X119.287 Y77.414 E0.02591
G1 X118.805 Y77.590 E0.02591
G1 X118.339 Y77.805 E0.02591
G1 X117.893 Y78.058 E0.02591
G1 X117.468 Y78.346 E0.02591
G1 X117.069 Y78.668 E0.02591
G1 X116.697 Y79.022 E0.02591
G1 X116.355 Y79.405 E0.02591
G1 X116.114 Y79.725 E0.02024
G1 X114.931 Y79.167 E0.06600
G1 X114.662 Y79.004 E0.01589
G1 X114.406 Y78.759 E0.01793
G1 X114.316 Y78.631 E0.00787
G1 X114.184 Y78.349 E0.01571
G1 X114.119 Y78.045 E0.01571
G1 X114.113 Y77.889 E0.00787
G1 X114.124 Y77.749 E0.00710
G1 X114.189 Y77.463 E0.01480
G1 X114.250 Y77.309 E0.00835
G1 X117.713 Y69.970 E0.40963
G1 X117.350 Y69.317 F10800.000
;TYPE:External perimeter
G1 F1200.000
G1 X118.281 Y69.194 E0.04740
G1 X118.892 Y69.063 E0.03152
G1 X119.493 Y68.897 E0.03152
G1 X120.084 Y68.695 E0.03152
G1 X120.662 Y68.459 E0.03152
G1 X121.225 Y68.188 E0.03152
G1 X121.771 Y67.885 E0.03152
G1 X122.297 Y67.550 E0.03152
G1 X122.803 Y67.184 E0.03152
G1 X123.287 Y66.789 E0.03152
G1 X123.746 Y66.366 E0.03152
G1 X124.179 Y65.916 E0.03152
G1 X124.585 Y65.442 E0.03152
G1 X124.962 Y64.944 E0.03152
G1 X125.309 Y64.425 E0.03152
G1 X125.624 Y63.886 E0.03152
G1 X125.907 Y63.329 E0.03152
G1 X126.157 Y62.757 E0.03152
G1 X126.372 Y62.171 E0.03152
G1 X126.552 Y61.573 E0.03152
G1 X126.663 Y61.105 E0.02429
G1 X126.803 Y60.352 E0.03864
G1 X126.875 Y59.730 E0.03161
G1 X126.909 Y59.107 E0.03152
G1 X126.906 Y58.482 E0.03152
G1 X126.867 Y57.859 E0.03152
G1 X126.790 Y57.241 E0.03145
G1 X126.677 Y56.627 E0.03153
G1 X126.528 Y56.020 E0.03153
G1 X126.343 Y55.424 E0.03153
G1 X126.122 Y54.839 E0.03153
G1 X125.868 Y54.269 E0.03153
G1 X125.580 Y53.715 E0.03153
G1 X125.087 Y52.925 E0.04700
G1 X125.646 Y51.767 E0.06491
G1 X125.824 Y51.524 E0.01520
G1 X126.102 Y51.253 E0.01958
G1 X126.352 Y51.086 E0.01518
G1 X126.709 Y50.923 E0.01982
G1 X126.924 Y50.865 E0.01124
G1 X127.144 Y50.832 E0.01123
G1 X127.537 Y50.838 E0.01984
G1 X127.841 Y50.891 E0.01555
G1 X128.055 Y50.961 E0.01137
G1 X128.263 Y51.058 E0.01161
G1 X128.459 Y51.178 E0.01161
G1 X128.640 Y51.321 E0.01161
G1 X128.803 Y51.483 E0.01161
G1 X128.946 Y51.664 E0.01165
G1 X129.061 Y51.848 E0.01093
G1 X129.587 Y52.902 E0.05949
G1 X129.836 Y53.489 E0.03218
G1 X130.060 Y54.089 E0.03233
G1 X130.257 Y54.699 E0.03234
G1 X130.427 Y55.317 E0.03235
G1 X130.669 Y56.485 E0.06022
G1 X130.669 Y96.009 E1.99514
G1 X130.652 Y96.578 E0.02874
G1 X130.602 Y97.138 E0.02835
G1 X130.519 Y97.693 E0.02835
G1 X130.403 Y98.243 E0.02835
G1 X130.255 Y98.784 E0.02835
G1 X130.116 Y99.195 E0.02190
G1 X129.863 Y99.838 E0.03488
G1 X129.623 Y100.344 E0.02826
G1 X129.352 Y100.836 E0.02835
G1 X129.052 Y101.310 E0.02835
G1 X128.724 Y101.767 E0.02835
G1 X128.370 Y102.203 E0.02835
G1 X128.078 Y102.523 E0.02190
G1 X127.587 Y103.009 E0.03488
G1 X127.163 Y103.375 E0.02826
G1 X126.716 Y103.716 E0.02835
G1 X126.251 Y104.029 E0.02835
G1 X125.767 Y104.315 E0.02835
G1 X125.267 Y104.571 E0.02835
G1 X124.753 Y104.797 E0.02835
G1 X124.227 Y104.993 E0.02835
G1 X123.690 Y105.157 E0.02835
G1 X123.267 Y105.259 E0.02194
G1 X122.589 Y105.388 E0.03484
G1 X122.033 Y105.454 E0.02826
G1 X121.473 Y105.487 E0.02835
G1 X120.911 Y105.487 E0.02835
G1 X120.351 Y105.454 E0.02835
G1 X119.793 Y105.387 E0.02835
G1 X119.240 Y105.288 E0.02835
G1 X118.694 Y105.156 E0.02835
G1 X118.157 Y104.992 E0.02835
G1 X117.631 Y104.796 E0.02835
G1 X117.117 Y104.570 E0.02835
G1 X116.617 Y104.313 E0.02835
G1 X116.134 Y104.027 E0.02835
G1 X115.668 Y103.714 E0.02835
G1 X115.222 Y103.373 E0.02835
G1 X114.797 Y103.006 E0.02835
G1 X114.394 Y102.615 E0.02835
G1 X114.015 Y102.200 E0.02835
G1 X113.661 Y101.764 E0.02835
G1 X113.334 Y101.308 E0.02835
G1 X113.034 Y100.833 E0.02835
G1 X112.763 Y100.341 E0.02835
G1 X112.522 Y99.834 E0.02835
G1 X112.311 Y99.313 E0.02835
G1 X112.131 Y98.781 E0.02835
G1 X111.983 Y98.239 E0.02835
G1 X111.868 Y97.690 E0.02835
G1 X111.785 Y97.134 E0.02835
G1 X111.735 Y96.575 E0.02835
G1 X111.719 Y96.014 E0.02831
G1 X111.736 Y95.452 E0.02839
G1 X111.786 Y94.893 E0.02835
G1 X111.869 Y94.337 E0.02835
G1 X111.985 Y93.788 E0.02835
G1 X112.133 Y93.246 E0.02835
G1 X112.312 Y92.719 E0.02811
G1 X112.502 Y92.338 E0.02151
G1 X112.687 Y92.097 E0.01532
G1 X112.965 Y91.835 E0.01929
G1 X113.338 Y91.610 E0.02201
G1 X113.700 Y91.487 E0.01928
G1 X114.000 Y91.435 E0.01538
G1 X116.193 Y91.452 E0.11068
G1 X116.722 Y91.414 E0.02678
G1 X117.219 Y91.317 E0.02556
G1 X117.681 Y91.284 E0.02340
G1 X118.475 Y91.297 E0.04004
G1 X118.004 Y91.597 E0.02816
G1 X117.676 Y91.856 E0.02110
G1 X117.298 Y92.077 E0.02213
G1 X116.987 Y92.312 E0.01966
G1 X116.582 Y92.758 E0.03041
G1 X116.317 Y93.163 E0.02441
G1 X116.096 Y93.580 E0.02383
G1 X115.911 Y94.012 E0.02374
G1 X115.796 Y94.356 E0.01831
G1 X115.652 Y94.913 E0.02905
G1 X115.579 Y95.381 E0.02387
M73 P0 R66
G1 X115.546 Y95.850 E0.02374
G1 X115.550 Y96.212 E0.01831
G1 X115.596 Y96.786 E0.02905
G1 X115.680 Y97.251 E0.02386
G1 X115.802 Y97.706 E0.02380
G1 X115.961 Y98.148 E0.02371
G1 X116.156 Y98.576 E0.02375
G1 X116.388 Y98.989 E0.02387
G1 X116.718 Y99.460 E0.02905
G1 X116.945 Y99.742 E0.01831
G1 X117.270 Y100.083 E0.02374
G1 X117.624 Y100.397 E0.02387
G1 X118.089 Y100.735 E0.02906
G1 X118.397 Y100.927 E0.01832
G1 X118.815 Y101.142 E0.02373
G1 X119.252 Y101.323 E0.02386
G1 X119.803 Y101.491 E0.02906
G1 X120.157 Y101.571 E0.01832
G1 X120.622 Y101.638 E0.02373
G1 X121.094 Y101.666 E0.02386
G1 X121.669 Y101.645 E0.02907
G1 X122.030 Y101.605 E0.01832
G1 X122.491 Y101.516 E0.02372
G1 X122.946 Y101.388 E0.02386
G1 X123.483 Y101.180 E0.02908
G1 X123.811 Y101.024 E0.01833
G1 X124.218 Y100.789 E0.02371
G1 X124.605 Y100.521 E0.02375
G1 X124.969 Y100.220 E0.02385
G1 X125.376 Y99.813 E0.02908
G1 X125.613 Y99.537 E0.01833
G1 X125.890 Y99.158 E0.02370
G1 X126.135 Y98.757 E0.02375
G1 X126.347 Y98.334 E0.02385
G1 X126.555 Y97.797 E0.02909
G1 X126.659 Y97.449 E0.01834
G1 X126.759 Y96.990 E0.02370
G1 X126.821 Y96.523 E0.02377
G1 X126.844 Y96.026 E0.02516
G1 X126.844 Y83.363 E0.63918
G1 X126.817 Y82.840 E0.02644
G1 X126.774 Y82.487 E0.01796
G1 X126.682 Y82.032 E0.02344
G1 X126.518 Y81.487 E0.02873
G1 X126.389 Y81.154 E0.01799
G1 X126.190 Y80.735 E0.02345
G1 X125.897 Y80.247 E0.02873
G1 X125.692 Y79.955 E0.01799
G1 X125.396 Y79.597 E0.02346
G1 X124.993 Y79.195 E0.02872
G1 X124.724 Y78.962 E0.01798
G1 X124.349 Y78.687 E0.02347
G1 X123.861 Y78.395 E0.02871
G1 X123.542 Y78.235 E0.01798
G1 X123.114 Y78.060 E0.02336
G1 X122.672 Y77.921 E0.02339
G1 X122.220 Y77.818 E0.02339
G1 X121.759 Y77.752 E0.02351
G1 X121.191 Y77.726 E0.02870
G1 X120.835 Y77.735 E0.01798
G1 X120.375 Y77.783 E0.02337
G1 X119.919 Y77.869 E0.02339
G1 X119.473 Y77.992 E0.02339
G1 X119.037 Y78.151 E0.02339
G1 X118.617 Y78.346 E0.02339
G1 X118.213 Y78.574 E0.02339
G1 X117.830 Y78.834 E0.02339
G1 X117.469 Y79.125 E0.02339
G1 X117.133 Y79.445 E0.02339
G1 X116.825 Y79.790 E0.02339
G1 X116.546 Y80.161 E0.02340
G1 X116.332 Y80.499 E0.02023
G1 X114.644 Y79.703 E0.09422
G1 X114.305 Y79.498 E0.01997
G1 X114.075 Y79.301 E0.01532
G1 X113.928 Y79.135 E0.01117
G1 X113.799 Y78.950 E0.01138
G1 X113.692 Y78.752 E0.01138
G1 X113.608 Y78.543 E0.01138
G1 X113.548 Y78.325 E0.01138
G1 X113.514 Y78.102 E0.01138
G1 X113.505 Y77.877 E0.01137
G1 X113.522 Y77.658 E0.01110
G1 X113.607 Y77.282 E0.01945
G1 X113.693 Y77.067 E0.01170
G1 X117.312 Y69.398 E0.42804
G1 X117.851 Y69.647 F10800.000
;WIPE_START
M73 P1 R66
M73 Q1 S67
G1 F8640.000
