; generated by PrusaSlicer 2.3.0+win64 on 2021-05-27 at 21:56:58 UTC

; 

; external perimeters extrusion width = 0.45mm
; perimeters extrusion width = 0.45mm
; infill extrusion width = 0.45mm
; solid infill extrusion width = 0.45mm
; top infill extrusion width = 0.40mm
; first layer extrusion width = 0.42mm

M73 P0 R65
M73 Q0 S66
M201 X1000 Y1000 Z200 E5000 ; sets maximum accelerations, mm/sec^2
M203 X200 Y200 Z12 E120 ; sets maximum feedrates, mm/sec
M204 P1250 R1250 T1250 ; sets acceleration (P, T) and retract acceleration (R), mm/sec^2
M205 X8.00 Y8.00 Z0.40 E4.50 ; sets the jerk limits, mm/sec
M205 S0 T0 ; sets the minimum extruding and travel feed rate, mm/sec
M107
;TYPE:Custom
M862.3 P "MK3SMMU2S" ; printer model check
M862.1 P0.4 ; nozzle diameter check
M115 U3.9.3 ; tell printer latest fw version
G90 ; use absolute coordinates
M83 ; extruder relative mode
M104 S220 ; set extruder temp
M140 S50 ; set bed temp
Tx
M190 S50 ; wait for bed temp
M109 S220 ; wait for extruder temp
G28 W ; home all without mesh bed level
G80 ; mesh bed leveling

;go outside print area
G1 Y-3.0 F1000.0
G1 Z0.4 F1000.0
; select extruder
Tc
; purge line
G1 X55.0 F2000.0
M73 Q0 S65
G1 Z0.3 F1000.0
G92 E0.0
G1 X240.0 E25.0 F2200.0
G1 Y-2.0 F1000.0
G1 X55.0 E25 F1400.0
G1 Z0.20 F1000.0
G1 X5.0 E4.0 F1000.0

M221 S95
G92 E0.0

; Don't change E values below. Excessive value can damage the printer.
M907 E430 ; set extruder motor current
G21 ; set units to millimeters
G90 ; use absolute coordinates
M83 ; use relative distances for extrusion
M900 K0
;LAYER_CHANGE
;Z:0.2
;HEIGHT:0.2
;BEFORE_LAYER_CHANGE
G92 E0.0
;0.2


G1 E-1.60000 F3000.000
G1 Z0.200 F10800.000
;AFTER_LAYER_CHANGE
;0.2
G1 Z0.400
G1 X14.102 Y31.331
G1 Z0.200
G1 E1.60000 F3000.000
M204 S1000
;TYPE:Skirt
;WIDTH:0.42
G1 F1193.382
G1 X15.028 Y31.104 E0.03408
G1 X112.051 Y28.103 E3.46963
G1 X140.124 Y28.102 E1.00346
G1 X237.217 Y31.104 E3.47212
G1 X237.757 Y31.189 E0.01956
G1 X238.267 Y31.397 E0.01970
G1 X238.713 Y31.715 E0.01956
G1 X239.077 Y32.129 E0.01970
G1 X239.389 Y32.770 E0.02550
G1 X239.497 Y33.472 E0.02536
G1 X239.497 Y169.483 E4.86158
G1 X239.343 Y170.322 E0.03047
G1 X238.901 Y171.054 E0.03060
G1 X238.139 Y171.627 E0.03408
G1 X237.213 Y171.855 E0.03408
G1 X140.054 Y174.856 E3.47449
M73 P1 R65
M73 Q1 S65
G1 X112.052 Y174.855 E1.00091
G1 X15.035 Y171.855 E3.46940
M73 P1 R64
G1 X14.238 Y171.687 E0.02913
G1 X13.544 Y171.259 E0.02913
G1 X13.206 Y170.889 E0.01794
G1 X12.954 Y170.459 E0.01780
G1 X12.797 Y169.982 E0.01794
G1 X12.743 Y169.483 E0.01794
G1 X12.743 Y33.468 E4.86171
G1 X12.900 Y32.630 E0.03047
G1 X13.340 Y31.904 E0.03033
G1 X14.054 Y31.368 E0.03193
; printing object Filament_Box_Gasket.stl id:0 copy 0
;WIPE_START
G1 F8640.000
G1 X15.028 Y31.104 E-0.33277
G1 X18.625 Y30.993 E-1.18723
;WIPE_END
G1 E-0.08000 F3000.000
G1 Z0.400 F10800.000
G1 X16.333 Y34.692
G1 Z0.200
G1 E1.60000 F3000.000
;TYPE:Perimeter
G1 F1193.382
G1 X113.333 Y34.692 E3.46716
G1 X113.333 Y31.692 E0.10723
G1 X138.907 Y31.692 E0.91412
M73 Q1 S64
G1 X138.907 Y34.692 E0.10723
G1 X235.907 Y34.692 E3.46716
G1 X235.907 Y168.266 E4.77446
G1 X138.841 Y168.266 E3.46953
M73 P2 R64
M73 Q2 S64
G1 X138.841 Y171.266 E0.10723
G1 X113.333 Y171.266 E0.91175
G1 X113.333 Y168.266 E0.10723
G1 X16.333 Y168.266 E3.46716
G1 X16.333 Y34.752 E4.77232
G1 X16.710 Y35.069 F10800.000
;TYPE:External perimeter
G1 F1193.382
G1 X113.710 Y35.069 E3.46716
G1 X113.710 Y32.069 E0.10723
G1 X138.530 Y32.069 E0.88716
G1 X138.530 Y35.069 E0.10723
G1 X235.530 Y35.069 E3.46716
G1 X235.530 Y167.889 E4.74750
M73 P2 R63
G1 X138.464 Y167.889 E3.46953
G1 X138.464 Y170.889 E0.10723
G1 X113.710 Y170.889 E0.88479
G1 X113.710 Y167.889 E0.10723
G1 X16.710 Y167.889 E3.46716
M73 P3 R63
M73 Q3 S64
G1 X16.710 Y35.129 E4.74536
M73 Q3 S63
G1 X16.627 Y34.678 F10800.000
;WIPE_START
G1 F8640.000
G1 X21.318 Y35.127 E-1.52000
;WIPE_END
G1 E-0.08000 F3000.000
G1 Z0.400 F10800.000
G1 X139.333 Y34.266
G1 Z0.200
G1 E1.60000 F3000.000
;TYPE:Perimeter
G1 F1193.382
G1 X236.333 Y34.266 E3.46716
G1 X236.333 Y168.692 E4.80490
G1 X139.267 Y168.692 E3.46953
G1 X139.267 Y171.692 E0.10723
G1 X112.907 Y171.692 E0.94219
G1 X112.907 Y168.692 E0.10723
G1 X15.907 Y168.692 E3.46716
G1 X15.907 Y34.266 E4.80490
M73 P4 R63
M73 Q4 S63
G1 X112.907 Y34.266 E3.46716
G1 X112.907 Y31.266 E0.10723
M73 P4 R62
G1 X139.333 Y31.266 E0.94456
G1 X139.333 Y34.206 E0.10509
G1 X139.710 Y33.889 F10800.000
;TYPE:External perimeter
G1 F1193.382
G1 X236.710 Y33.889 E3.46716
G1 X236.710 Y169.069 E4.83186
G1 X139.644 Y169.069 E3.46953
M73 Q4 S62
G1 X139.644 Y172.069 E0.10723
G1 X112.530 Y172.069 E0.96915
G1 X112.530 Y169.069 E0.10723
G1 X15.530 Y169.069 E3.46716
G1 X15.530 Y33.889 E4.83186
G1 X112.530 Y33.889 E3.46716
M73 P5 R62
M73 Q5 S62
G1 X112.530 Y30.889 E0.10723
G1 X139.710 Y30.889 E0.97152
G1 X139.710 Y33.829 E0.10509
G1 X139.897 Y34.243 F10800.000
; stop printing object Filament_Box_Gasket.stl id:0 copy 0
M106 S255
;LAYER_CHANGE
;Z:0.4
;HEIGHT:0.2
;BEFORE_LAYER_CHANGE
G92 E0.0
;0.4


;WIPE_START
G1 F8640.000
G1 X144.318 Y33.832 E-1.52000
;WIPE_END
G1 E-0.08000 F3000.000
G1 Z0.400 F10800.000
;AFTER_LAYER_CHANGE
;0.4
G1 Z0.600
G1 X14.102 Y31.331
G1 Z0.400
G1 E1.60000 F3000.000
;TYPE:Skirt
G1 F1193.382
G1 X15.028 Y31.104 E0.03408
G1 X112.051 Y28.103 E3.46963
G1 X140.124 Y28.102 E1.00346
G1 X237.217 Y31.104 E3.47212
G1 X237.757 Y31.189 E0.01956
G1 X238.267 Y31.397 E0.01970
G1 X238.713 Y31.715 E0.01956
G1 X239.077 Y32.129 E0.01970
G1 X239.389 Y32.770 E0.02550
G1 X239.497 Y33.472 E0.02536
G1 X239.497 Y169.483 E4.86158
G1 X239.343 Y170.322 E0.03047
G1 X238.901 Y171.054 E0.03060
G1 X238.139 Y171.627 E0.03408
G1 X237.213 Y171.855 E0.03408
G1 X140.054 Y174.856 E3.47449
M73 P5 R61
G1 X112.052 Y174.855 E1.00091
G1 X15.035 Y171.855 E3.46940
G1 X14.238 Y171.687 E0.02913
G1 X13.544 Y171.259 E0.02913
G1 X13.206 Y170.889 E0.01794
G1 X12.954 Y170.459 E0.01780
G1 X12.797 Y169.982 E0.01794
G1 X12.743 Y169.483 E0.01794
G1 X12.743 Y33.468 E4.86171
M73 P6 R61
M73 Q6 S62
G1 X12.900 Y32.630 E0.03047
G1 X13.340 Y31.904 E0.03033
G1 X14.054 Y31.368 E0.03193
; printing object Filament_Box_Gasket.stl id:0 copy 0
;WIPE_START
G1 F8640.000
G1 X15.028 Y31.104 E-0.33277
G1 X18.625 Y30.993 E-1.18723
;WIPE_END
G1 E-0.08000 F3000.000
G1 Z0.600 F10800.000
G1 X16.488 Y34.847
G1 Z0.400
G1 E1.60000 F3000.000
M204 S800
;TYPE:Perimeter
;WIDTH:0.45
G1 F1105.435
G1 X113.488 Y34.847 E3.74300
M73 Q6 S61
G1 X113.488 Y31.847 E0.11576
G1 X138.752 Y31.847 E0.97488
G1 X138.752 Y34.847 E0.11576
G1 X235.752 Y34.847 E3.74300
G1 X235.752 Y168.111 E5.14235
G1 X138.686 Y168.111 E3.74556
G1 X138.686 Y171.111 E0.11576
G1 X113.488 Y171.111 E0.97233
G1 X113.488 Y168.111 E0.11576
G1 X16.488 Y168.111 E3.74300
G1 X16.488 Y34.907 E5.14003
M204 S1000
M73 P7 R61
M73 Q7 S61
G1 X16.895 Y35.254 F10800.000
M204 S800
;TYPE:External perimeter
G1 F1105.435
G1 X113.895 Y35.254 E3.74300
M73 P7 R60
G1 X113.895 Y32.254 E0.11576
G1 X138.345 Y32.254 E0.94347
G1 X138.345 Y35.254 E0.11576
G1 X235.345 Y35.254 E3.74300
G1 X235.345 Y167.704 E5.11093
G1 X138.279 Y167.704 E3.74556
M73 Q7 S60
G1 X138.279 Y170.704 E0.11576
G1 X113.895 Y170.704 E0.94091
G1 X113.895 Y167.704 E0.11576
G1 X16.895 Y167.704 E3.74300
G1 X16.895 Y35.314 E5.10862
M204 S1000
M73 P8 R60
M73 Q8 S60
G1 X16.812 Y34.863 F10800.000
;WIPE_START
G1 F8640.000
G1 X21.503 Y35.312 E-1.52000
;WIPE_END
G1 E-0.08000 F3000.000
G1 Z0.600 F10800.000
G1 X139.488 Y34.111
G1 Z0.400
G1 E1.60000 F3000.000
M204 S800
;TYPE:Perimeter
G1 F1105.435
G1 X236.488 Y34.111 E3.74300
G1 X236.488 Y168.847 E5.19914
G1 X139.422 Y168.847 E3.74556
G1 X139.422 Y171.847 E0.11576
G1 X112.752 Y171.847 E1.02912
G1 X112.752 Y168.847 E0.11576
G1 X15.752 Y168.847 E3.74300
M73 P8 R59
G1 X15.752 Y34.111 E5.19914
G1 X112.752 Y34.111 E3.74300
M73 P9 R59
M73 Q9 S60
G1 X112.752 Y31.111 E0.11576
G1 X139.488 Y31.111 E1.03167
G1 X139.488 Y34.051 E0.11345
M204 S1000
G1 X139.895 Y33.704 F10800.000
M204 S800
;TYPE:External perimeter
G1 F1105.435
G1 X236.895 Y33.704 E3.74300
M73 Q9 S59
G1 X236.895 Y169.254 E5.23056
G1 X139.829 Y169.254 E3.74556
G1 X139.829 Y172.254 E0.11576
G1 X112.345 Y172.254 E1.06053
G1 X112.345 Y169.254 E0.11576
G1 X15.345 Y169.254 E3.74300
G1 X15.345 Y33.704 E5.23056
M73 P10 R59
G1 X112.345 Y33.704 E3.74300
M73 Q10 S59
G1 X112.345 Y30.704 E0.11576
G1 X139.895 Y30.704 E1.06309
G1 X139.895 Y33.644 E0.11345
M204 S1000
G1 X140.083 Y34.058 F10800.000
;WIPE_START
G1 F8640.000
G1 X144.503 Y33.647 E-1.52000
;WIPE_END
G1 E-0.08000 F3000.000
G1 Z0.600 F10800.000
G1 X16.148 Y34.508
G1 Z0.400
G1 E1.60000 F3000.000
;TYPE:Gap fill
;WIDTH:0.371684
G1 F1368.763
G1 X16.285 Y34.479 E0.00433
G1 X112.956 Y34.479 E3.01266
G1 X113.092 Y34.451 E0.00433
G1 X113.120 Y34.315 E0.00433
G1 X113.120 Y31.644 E0.08325
M73 P10 R58
G1 X113.148 Y31.508 E0.00433
G1 X113.285 Y31.479 E0.00433
G1 X138.956 Y31.479 E0.80002
G1 X139.092 Y31.508 E0.00433
G1 X139.120 Y31.644 E0.00433
G1 X139.120 Y34.315 E0.08325
G1 X139.148 Y34.451 E0.00433
G1 X139.285 Y34.479 E0.00433
G1 X235.956 Y34.479 E3.01266
G1 X236.092 Y34.508 E0.00433
G1 X236.120 Y34.644 E0.00433
G1 X236.120 Y168.315 E4.16573
G1 X236.092 Y168.451 E0.00433
G1 X235.956 Y168.479 E0.00433
G1 X139.218 Y168.479 E3.01473
M73 Q10 S58
G1 X139.082 Y168.508 E0.00433
G1 X139.054 Y168.644 E0.00433
G1 X139.054 Y171.315 E0.08325
G1 X139.026 Y171.451 E0.00433
G1 X138.890 Y171.479 E0.00433
G1 X113.285 Y171.479 E0.79795
G1 X113.148 Y171.451 E0.00433
G1 X113.120 Y171.315 E0.00433
G1 X113.120 Y168.644 E0.08325
G1 X113.092 Y168.508 E0.00433
G1 X112.956 Y168.479 E0.00433
G1 X16.285 Y168.479 E3.01266
G1 X16.148 Y168.451 E0.00433
G1 X16.120 Y168.315 E0.00433
G1 X16.120 Y34.644 E4.16573
;WIDTH:0.399889
M73 P11 R58
M73 Q11 S58
G1 F1260.617
G1 X16.134 Y34.576 E0.00235
;WIDTH:0.428093
G1 F1168.308
G1 X16.136 Y34.566 E0.00035
; stop printing object Filament_Box_Gasket.stl id:0 copy 0
;LAYER_CHANGE
;Z:0.6
;HEIGHT:0.2
;BEFORE_LAYER_CHANGE
G92 E0.0
;0.6


;WIPE_START
G1 F8640.000
G1 X16.285 Y34.479 E-0.05672
G1 X20.721 Y34.479 E-1.46328
;WIPE_END
G1 E-0.08000 F3000.000
G1 Z0.600 F10800.000
;AFTER_LAYER_CHANGE
;0.6
G1 Z0.800
G1 X14.102 Y31.331
G1 Z0.600
G1 E1.60000 F3000.000
;TYPE:Skirt
;WIDTH:0.42
G1 F1193.382
G1 X15.028 Y31.104 E0.03408
G1 X112.051 Y28.103 E3.46963
G1 X140.124 Y28.102 E1.00346
G1 X237.217 Y31.104 E3.47212
G1 X237.757 Y31.189 E0.01956
G1 X238.267 Y31.397 E0.01970
G1 X238.713 Y31.715 E0.01956
G1 X239.077 Y32.129 E0.01970
G1 X239.389 Y32.770 E0.02550
G1 X239.497 Y33.472 E0.02536
G1 X239.497 Y169.483 E4.86158
G1 X239.343 Y170.322 E0.03047
G1 X238.901 Y171.054 E0.03060
G1 X238.139 Y171.627 E0.03408
G1 X237.213 Y171.855 E0.03408
G1 X140.054 Y174.856 E3.47449
G1 X112.052 Y174.855 E1.00091
G1 X15.035 Y171.855 E3.46940
G1 X14.238 Y171.687 E0.02913
G1 X13.544 Y171.259 E0.02913
G1 X13.206 Y170.889 E0.01794
G1 X12.954 Y170.459 E0.01780
G1 X12.797 Y169.982 E0.01794
G1 X12.743 Y169.483 E0.01794
G1 X12.743 Y33.468 E4.86171
M73 P11 R57
G1 X12.900 Y32.630 E0.03047
G1 X13.340 Y31.904 E0.03033
G1 X14.054 Y31.368 E0.03193
; printing object Filament_Box_Gasket.stl id:0 copy 0
;WIPE_START
G1 F8640.000
G1 X15.028 Y31.104 E-0.33277
G1 X18.625 Y30.993 E-1.18723
;WIPE_END
G1 E-0.08000 F3000.000
G1 Z0.800 F10800.000
G1 X16.488 Y34.847
G1 Z0.600
G1 E1.60000 F3000.000
M204 S800
;TYPE:Perimeter
;WIDTH:0.45
G1 F1105.435
G1 X113.488 Y34.847 E3.74300
M73 P12 R57
M73 Q12 S58
G1 X113.488 Y31.847 E0.11576
G1 X138.752 Y31.847 E0.97488
G1 X138.752 Y34.847 E0.11576
G1 X235.752 Y34.847 E3.74300
M73 Q12 S57
G1 X235.752 Y168.111 E5.14235
G1 X138.686 Y168.111 E3.74556
G1 X138.686 Y171.111 E0.11576
G1 X113.488 Y171.111 E0.97233
G1 X113.488 Y168.111 E0.11576
G1 X16.488 Y168.111 E3.74300
G1 X16.488 Y34.907 E5.14003
M204 S1000
G1 X16.895 Y35.254 F10800.000
M204 S800
;TYPE:External perimeter
G1 F1105.435
G1 X113.895 Y35.254 E3.74300
M73 P13 R57
M73 Q13 S57
G1 X113.895 Y32.254 E0.11576
G1 X138.345 Y32.254 E0.94347
G1 X138.345 Y35.254 E0.11576
G1 X235.345 Y35.254 E3.74300
G1 X235.345 Y167.704 E5.11093
M73 P13 R56
G1 X138.279 Y167.704 E3.74556
G1 X138.279 Y170.704 E0.11576
G1 X113.895 Y170.704 E0.94091
G1 X113.895 Y167.704 E0.11576
G1 X16.895 Y167.704 E3.74300
G1 X16.895 Y35.314 E5.10862
M204 S1000
M73 Q13 S56
G1 X16.812 Y34.863 F10800.000
;WIPE_START
G1 F8640.000
G1 X21.503 Y35.312 E-1.52000
;WIPE_END
G1 E-0.08000 F3000.000
G1 Z0.800 F10800.000
G1 X139.488 Y34.111
M73 P14 R56
G1 Z0.600
M73 Q14 S56
G1 E1.60000 F3000.000
M204 S800
;TYPE:Perimeter
G1 F1105.435
G1 X236.488 Y34.111 E3.74300
G1 X236.488 Y168.847 E5.19914
G1 X139.422 Y168.847 E3.74556
G1 X139.422 Y171.847 E0.11576
G1 X112.752 Y171.847 E1.02912
G1 X112.752 Y168.847 E0.11576
G1 X15.752 Y168.847 E3.74300
G1 X15.752 Y34.111 E5.19914
G1 X112.752 Y34.111 E3.74300
M73 P14 R55
G1 X112.752 Y31.111 E0.11576
G1 X139.488 Y31.111 E1.03167
M73 P15 R55
G1 X139.488 Y34.051 E0.11345
M204 S1000
M73 Q15 S56
G1 X139.895 Y33.704 F10800.000
M204 S800
;TYPE:External perimeter
G1 F1105.435
G1 X236.895 Y33.704 E3.74300
G1 X236.895 Y169.254 E5.23056
M73 Q15 S55
G1 X139.829 Y169.254 E3.74556
G1 X139.829 Y172.254 E0.11576
G1 X112.345 Y172.254 E1.06053
G1 X112.345 Y169.254 E0.11576
G1 X15.345 Y169.254 E3.74300
G1 X15.345 Y33.704 E5.23056
G1 X112.345 Y33.704 E3.74300
G1 X112.345 Y30.704 E0.11576
G1 X139.895 Y30.704 E1.06309
M73 P16 R55
M73 Q16 S55
G1 X139.895 Y33.644 E0.11345
M204 S1000
G1 X140.083 Y34.058 F10800.000
;WIPE_START
G1 F8640.000
G1 X144.503 Y33.647 E-1.52000
;WIPE_END
G1 E-0.08000 F3000.000
G1 Z0.800 F10800.000
G1 X16.148 Y34.508
G1 Z0.600
G1 E1.60000 F3000.000
;TYPE:Gap fill
;WIDTH:0.371684
G1 F1368.763
G1 X16.285 Y34.479 E0.00433
G1 X112.956 Y34.479 E3.01266
G1 X113.092 Y34.451 E0.00433
G1 X113.120 Y34.315 E0.00433
G1 X113.120 Y31.644 E0.08325
G1 X113.148 Y31.508 E0.00433
G1 X113.285 Y31.479 E0.00433
G1 X138.956 Y31.479 E0.80002
G1 X139.092 Y31.508 E0.00433
G1 X139.120 Y31.644 E0.00433
G1 X139.120 Y34.315 E0.08325
G1 X139.148 Y34.451 E0.00433
G1 X139.285 Y34.479 E0.00433
G1 X235.956 Y34.479 E3.01266
G1 X236.092 Y34.508 E0.00433
G1 X236.120 Y34.644 E0.00433
G1 X236.120 Y168.315 E4.16573
G1 X236.092 Y168.451 E0.00433
G1 X235.956 Y168.479 E0.00433
G1 X139.218 Y168.479 E3.01473
M73 P16 R54
G1 X139.082 Y168.508 E0.00433
G1 X139.054 Y168.644 E0.00433
G1 X139.054 Y171.315 E0.08325
G1 X139.026 Y171.451 E0.00433
G1 X138.890 Y171.479 E0.00433
G1 X113.285 Y171.479 E0.79795
G1 X113.148 Y171.451 E0.00433
G1 X113.120 Y171.315 E0.00433
G1 X113.120 Y168.644 E0.08325
G1 X113.092 Y168.508 E0.00433
G1 X112.956 Y168.479 E0.00433
G1 X16.285 Y168.479 E3.01266
G1 X16.148 Y168.451 E0.00433
G1 X16.120 Y168.315 E0.00433
G1 X16.120 Y34.644 E4.16573
;WIDTH:0.399889
M73 Q16 S54
G1 F1260.617
G1 X16.134 Y34.576 E0.00235
;WIDTH:0.428093
G1 F1168.308
G1 X16.136 Y34.566 E0.00035
; stop printing object Filament_Box_Gasket.stl id:0 copy 0
;LAYER_CHANGE
;Z:0.8
;HEIGHT:0.2
;BEFORE_LAYER_CHANGE
G92 E0.0
;0.8


;WIPE_START
G1 F8640.000
G1 X16.285 Y34.479 E-0.05672
G1 X20.721 Y34.479 E-1.46328
;WIPE_END
G1 E-0.08000 F3000.000
G1 Z0.800 F10800.000
;AFTER_LAYER_CHANGE
;0.8
; printing object Filament_Box_Gasket.stl id:0 copy 0
G1 Z1.000
G1 X113.488 Y31.847
G1 Z0.800
G1 E1.60000 F3000.000
M204 S800
;TYPE:Perimeter
;WIDTH:0.45
G1 F1105.435
G1 X138.752 Y31.847 E0.97488
G1 X138.752 Y34.847 E0.11576
G1 X235.752 Y34.847 E3.74300
M73 P17 R54
M73 Q17 S54
G1 X235.752 Y168.111 E5.14235
G1 X138.686 Y168.111 E3.74556
G1 X138.686 Y171.111 E0.11576
G1 X113.488 Y171.111 E0.97233
G1 X113.488 Y168.111 E0.11576
G1 X16.488 Y168.111 E3.74300
G1 X16.488 Y34.847 E5.14235
G1 X113.488 Y34.847 E3.74300
G1 X113.488 Y31.907 E0.11345
M204 S1000
G1 X113.895 Y32.254 F10800.000
M204 S800
;TYPE:External perimeter
G1 F1105.435
G1 X138.345 Y32.254 E0.94347
G1 X138.345 Y35.254 E0.11576
G1 X235.345 Y35.254 E3.74300
M73 P18 R53
M73 Q18 S54
G1 X235.345 Y167.704 E5.11093
G1 X138.279 Y167.704 E3.74556
M73 Q18 S53
G1 X138.279 Y170.704 E0.11576
G1 X113.895 Y170.704 E0.94091
G1 X113.895 Y167.704 E0.11576
G1 X16.895 Y167.704 E3.74300
G1 X16.895 Y35.254 E5.11093
G1 X113.895 Y35.254 E3.74300
G1 X113.895 Y32.314 E0.11345
