; generated by PrusaSlicer 2.3.0+win64 on 2021-05-27 at 21:53:56 UTC

; 

; external perimeters extrusion width = 0.65mm
; perimeters extrusion width = 0.65mm
; infill extrusion width = 0.65mm
; solid infill extrusion width = 0.65mm
; top infill extrusion width = 0.60mm
; support material extrusion width = 0.55mm
; first layer extrusion width = 0.65mm

M73 P0 R568
M73 Q0 S576
M201 X1000 Y1000 Z1000 E5000 ; sets maximum accelerations, mm/sec^2
M203 X200 Y200 Z12 E120 ; sets maximum feedrates, mm/sec
M204 P1250 R1250 T1250 ; sets acceleration (P, T) and retract acceleration (R), mm/sec^2
M205 X8.00 Y8.00 Z0.40 E1.50 ; sets the jerk limits, mm/sec
M205 S0 T0 ; sets the minimum extruding and travel feed rate, mm/sec
M107
;TYPE:Custom
G28 ; home all without mesh bed level
G90 ; use absolute coordinates
M83 ; extruder relative mode
M140 S60 ; set bed temp
M104 S220 ; set extruder temp
M190 S60; wait for bed temp
M109 S220 ; wait for extruder temp
G29 A L1; mesh bed leveling
;G29 J; mesh bed leveling. I don't think this is needed and may cause issues.
G0 X0 Y0 Z0.4 F5000.0; move head to start location
G92 E0.0
G1 X60.0 Z0.4 E9.0 F1000.0 ; intro line
G1 X100.0 E12.5 F1000.0 ; intro line
G92 E0.0
M221 S95
G21 ; set units to millimeters
G90 ; use absolute coordinates
M83 ; use relative distances for extrusion
M900 K0.04 ; Filament gcode LA 1.5
M900 K18 ; Filament gcode LA 1.0
;LAYER_CHANGE
;Z:0.2
;HEIGHT:0.2
;BEFORE_LAYER_CHANGE
G92 E0.0
;0.2


G1 E-0.80000 F2100.000
G1 Z0.600 F10800.000
;AFTER_LAYER_CHANGE
;0.2
G1 X40.561 Y74.979
G1 Z0.200
G1 E0.80000 F2100.000
M204 S1000
;TYPE:Skirt
;WIDTH:0.65
G1 F1200.000
G1 X41.399 Y75.530 E0.05063
G1 X41.966 Y76.357 E0.05063
G1 X42.180 Y77.333 E0.05043
G1 X42.177 Y190.515 E5.71330
G1 X42.019 Y191.294 E0.04012
G1 X41.631 Y191.992 E0.04031
G1 X41.053 Y192.538 E0.04012
G1 X40.334 Y192.885 E0.04031
G1 X39.620 Y192.998 E0.03653
G1 X34.056 Y192.996 E0.28083
G1 X33.108 Y192.768 E0.04924
G1 X32.312 Y192.210 E0.04905
G1 X31.776 Y191.400 E0.04905
G1 X31.573 Y190.446 E0.04924
G1 X31.576 Y77.268 E5.71310
G1 X31.733 Y76.493 E0.03992
M73 Q0 S575
G1 X32.117 Y75.797 E0.04012
G1 X32.693 Y75.250 E0.04012
G1 X33.407 Y74.901 E0.04012
G1 X34.130 Y74.785 E0.03693
G1 X39.577 Y74.784 E0.27499
G1 X40.473 Y74.961 E0.04608
; printing object Filament_Box_Top.stl id:0 copy 0
;WIPE_START
G1 F8640.000
G1 X41.399 Y75.530 E-0.25095
G1 X41.966 Y76.357 E-0.23158
G1 X42.180 Y77.333 E-0.23068
G1 X42.180 Y77.536 E-0.04680
;WIPE_END
G1 E-0.04000 F2100.000
G1 Z0.800 F10800.000
G1 X37.420 Y175.916
G1 Z0.200
G1 E0.80000 F2100.000
;TYPE:External perimeter
G1 F1200.000
G1 X37.420 Y189.866 E0.70418
G1 X36.371 Y189.866 E0.05299
G1 X36.371 Y175.916 E0.70418
G1 X37.330 Y175.916 E0.04844
G1 X37.405 Y176.516 F10800.000
;WIPE_START
G1 F8640.000
G1 X37.352 Y179.208 E-0.76000
;WIPE_END
G1 E-0.04000 F2100.000
G1 Z0.800 F10800.000
G1 X36.896 Y189.563
G1 Z0.200
G1 E0.80000 F2100.000
;TYPE:Gap fill
;WIDTH:0.485544
G1 F1200.000
G1 X36.896 Y176.220 E0.49108
;WIPE_START
G1 F8640.000
G1 X36.896 Y179.511 E-0.76000
;WIPE_END
G1 E-0.04000 F2100.000
G1 Z0.800 F10800.000
G1 X37.420 Y140.866
G1 Z0.200
G1 E0.80000 F2100.000
;TYPE:External perimeter
;WIDTH:0.65
G1 F1200.000
G1 X36.371 Y140.866 E0.05299
G1 X36.371 Y126.916 E0.70418
G1 X37.420 Y126.916 E0.05299
G1 X37.420 Y140.776 E0.69964
G1 X36.893 Y140.579 F10800.000
;WIPE_START
G1 F8640.000
G1 X36.371 Y140.866 E-0.24327
G1 X36.371 Y138.628 E-0.51673
;WIPE_END
G1 E-0.04000 F2100.000
G1 Z0.800 F10800.000
G1 X36.896 Y127.220
G1 Z0.200
G1 E0.80000 F2100.000
;TYPE:Gap fill
;WIDTH:0.485544
G1 F1200.000
G1 X36.896 Y140.563 E0.49108
;WIPE_START
G1 F8640.000
G1 X36.896 Y137.271 E-0.76000
;WIPE_END
G1 E-0.04000 F2100.000
G1 Z0.800 F10800.000
G1 X37.420 Y91.866
G1 Z0.200
G1 E0.80000 F2100.000
;TYPE:External perimeter
;WIDTH:0.65
G1 F1200.000
G1 X36.371 Y91.866 E0.05299
G1 X36.371 Y77.916 E0.70418
G1 X37.420 Y77.916 E0.05299
G1 X37.420 Y91.776 E0.69963
G1 X36.893 Y91.579 F10800.000
;WIPE_START
G1 F8640.000
G1 X36.371 Y91.866 E-0.24327
G1 X36.371 Y89.628 E-0.51673
;WIPE_END
G1 E-0.04000 F2100.000
G1 Z0.800 F10800.000
G1 X36.896 Y78.220
G1 Z0.200
G1 E0.80000 F2100.000
;TYPE:Gap fill
;WIDTH:0.485544
G1 F1200.000
G1 X36.896 Y91.563 E0.49107
; stop printing object Filament_Box_Top.stl id:0 copy 0
M106 S255
;LAYER_CHANGE
;Z:0.5
;HEIGHT:0.3
;BEFORE_LAYER_CHANGE
G92 E0.0
;0.5


;WIPE_START
G1 F8640.000
G1 X36.896 Y88.271 E-0.76000
;WIPE_END
G1 E-0.04000 F2100.000
G1 Z0.800 F10800.000
;AFTER_LAYER_CHANGE
;0.5
M104 S215 ; set temperature
G1 X41.966 Y76.357
G1 Z0.500
G1 E0.80000 F2100.000
;TYPE:Skirt
;WIDTH:0.65
G1 F2172
G1 X42.180 Y77.333 E0.07297
G1 X42.177 Y190.515 E8.26700
G1 X42.019 Y191.294 E0.05805
G1 X41.631 Y191.992 E0.05833
G1 X41.053 Y192.538 E0.05805
G1 X40.334 Y192.885 E0.05833
G1 X39.620 Y192.998 E0.05286
G1 X34.056 Y192.996 E0.40635
G1 X33.108 Y192.768 E0.07125
G1 X32.312 Y192.210 E0.07097
G1 X31.776 Y191.400 E0.07097
G1 X31.573 Y190.446 E0.07125
G1 X31.576 Y77.268 E8.26671
G1 X31.733 Y76.493 E0.05776
G1 X32.117 Y75.797 E0.05805
G1 X32.693 Y75.250 E0.05805
G1 X33.407 Y74.901 E0.05805
G1 X34.130 Y74.785 E0.05343
G1 X39.577 Y74.784 E0.39790
G1 X40.561 Y74.979 E0.07326
G1 X41.399 Y75.530 E0.07326
G1 X41.915 Y76.283 E0.06668
; printing object Filament_Box_Top.stl id:0 copy 0
;WIPE_START
G1 F8640.000
G1 X42.180 Y77.333 E-0.25005
G1 X42.180 Y79.542 E-0.50995
;WIPE_END
G1 E-0.04000 F2100.000
G1 Z1.100 F10800.000
G1 X37.953 Y176.302
G1 Z0.500
G1 E0.80000 F2100.000
M204 S800
;TYPE:Perimeter
G1 F1500.000
G1 X37.953 Y189.481 E0.96260
G1 X35.795 Y189.481 E0.15763
G1 X35.795 Y176.302 E0.96260
G1 X37.863 Y176.302 E0.15106
M204 S1000
G1 X37.863 Y175.716 F10800.000
M204 S800
;TYPE:External perimeter
G1 F1500.000
G1 X38.245 Y175.716 E0.02794
;TYPE:Overhang perimeter
;WIDTH:0.584808
;HEIGHT:0.584808
G1
G1 X38.539 Y175.716 E0.03274
G1 X38.539 Y190.066 E1.60251
G1 X38.245 Y190.066 E0.03274
;TYPE:External perimeter
;WIDTH:0.65
;HEIGHT:0.3
G1 X35.546 Y190.066 E0.19719
;TYPE:Overhang perimeter
;WIDTH:0.584808
;HEIGHT:0.584808
G1
G1 X35.209 Y190.066 E0.03758
G1 X35.209 Y175.716 E1.60251
G1 X35.546 Y175.716 E0.03758
;TYPE:External perimeter
;WIDTH:0.65
;HEIGHT:0.3
G1 X37.773 Y175.716 E0.16268
M204 S1000
;WIPE_START
G1 F8640.000
G1 X38.245 Y175.716 E-0.10910
;WIPE_END
G1 E-0.69090 F2100.000
G1 Z1.100 F10800.000
G1 X36.534 Y189.305
G1 Z0.500
G1 E0.80000 F2100.000
;TYPE:Solid infill
;WIDTH:0.677954
G1 F2172
G1 X37.514 Y188.326 E0.10602
G1 X37.514 Y187.458 E0.06641
G1 X36.234 Y188.738 E0.13850
G1 X36.234 Y187.870 E0.06641
G1 X37.514 Y186.590 E0.13850
G1 X37.514 Y185.722 E0.06641
G1 X36.234 Y187.002 E0.13850
G1 X36.234 Y186.134 E0.06641
G1 X37.514 Y184.855 E0.13850
G1 X37.514 Y183.987 E0.06641
G1 X36.234 Y185.267 E0.13850
G1 X36.234 Y184.399 E0.06641
G1 X37.514 Y183.119 E0.13850
G1 X37.514 Y182.252 E0.06641
G1 X36.234 Y183.531 E0.13850
G1 X36.234 Y182.664 E0.06641
G1 X37.514 Y181.384 E0.13850
G1 X37.514 Y180.516 E0.06641
G1 X36.234 Y181.796 E0.13850
G1 X36.234 Y180.928 E0.06641
G1 X37.514 Y179.648 E0.13850
G1 X37.514 Y178.781 E0.06641
G1 X36.234 Y180.060 E0.13850
G1 X36.234 Y179.193 E0.06641
G1 X37.514 Y177.913 E0.13850
G1 X37.514 Y177.045 E0.06641
G1 X36.234 Y178.325 E0.13850
G1 X36.234 Y177.457 E0.06641
G1 X37.213 Y176.478 E0.10600
;WIPE_START
G1 F8640.000
G1 X36.234 Y177.457 E-0.31983
G1 X36.234 Y178.325 E-0.20036
G1 X36.968 Y177.591 E-0.23981
;WIPE_END
G1 E-0.04000 F2100.000
G1 Z1.100 F10800.000
G1 X37.213 Y140.481
G1 Z0.500
G1 E0.80000 F2100.000
M204 S800
;TYPE:Perimeter
;WIDTH:0.65
G1 F1500.000
G1 X35.795 Y140.481 E0.10362
G1 X35.795 Y127.302 E0.96260
G1 X37.953 Y127.302 E0.15763
G1 X37.953 Y140.481 E0.96260
G1 X37.303 Y140.481 E0.04744
M204 S1000
G1 X37.303 Y141.066 F10800.000
M204 S800
;TYPE:External perimeter
G1 F1500.000
G1 X35.546 Y141.066 E0.12839
;TYPE:Overhang perimeter
;WIDTH:0.584808
;HEIGHT:0.584808
G1
G1 X35.209 Y141.066 E0.03758
G1 X35.209 Y126.716 E1.60251
G1 X35.546 Y126.716 E0.03758
;TYPE:External perimeter
;WIDTH:0.65
;HEIGHT:0.3
G1 X38.245 Y126.716 E0.19719
;TYPE:Overhang perimeter
;WIDTH:0.584808
;HEIGHT:0.584808
G1
G1 X38.539 Y126.716 E0.03274
G1 X38.539 Y141.066 E1.60251
G1 X38.245 Y141.066 E0.03274
;TYPE:External perimeter
;WIDTH:0.65
;HEIGHT:0.3
G1 X37.393 Y141.066 E0.06223
M204 S1000
;WIPE_START
G1 F8640.000
G1 X35.546 Y141.066 E-0.42665
;WIPE_END
G1 E-0.37335 F2100.000
G1 Z1.100 F10800.000
G1 X37.213 Y127.478
G1 Z0.500
G1 E0.80000 F2100.000
;TYPE:Solid infill
;WIDTH:0.677954
G1 F2172
G1 X36.234 Y128.457 E0.10600
G1 X36.234 Y129.325 E0.06641
G1 X37.514 Y128.045 E0.13850
G1 X37.514 Y128.913 E0.06641
G1 X36.234 Y130.193 E0.13850
G1 X36.234 Y131.060 E0.06641
G1 X37.514 Y129.781 E0.13850
G1 X37.514 Y130.648 E0.06641
G1 X36.234 Y131.928 E0.13850
G1 X36.234 Y132.796 E0.06641
G1 X37.514 Y131.516 E0.13850
G1 X37.514 Y132.384 E0.06641
G1 X36.234 Y133.663 E0.13850
G1 X36.234 Y134.531 E0.06641
G1 X37.514 Y133.251 E0.13850
G1 X37.514 Y134.119 E0.06641
G1 X36.234 Y135.399 E0.13850
G1 X36.234 Y136.267 E0.06641
G1 X37.514 Y134.987 E0.13850
G1 X37.514 Y135.855 E0.06641
G1 X36.234 Y137.134 E0.13850
G1 X36.234 Y138.002 E0.06641
G1 X37.514 Y136.722 E0.13850
G1 X37.514 Y137.590 E0.06641
G1 X36.234 Y138.870 E0.13850
G1 X36.234 Y139.737 E0.06641
G1 X37.514 Y138.458 E0.13850
G1 X37.514 Y139.325 E0.06641
G1 X36.534 Y140.305 E0.10602
;WIPE_START
G1 F8640.000
G1 X37.514 Y139.325 E-0.31987
G1 X37.514 Y138.458 E-0.20036
G1 X36.780 Y139.192 E-0.23977
;WIPE_END
G1 E-0.04000 F2100.000
G1 Z1.100 F10800.000
G1 X36.534 Y91.481
G1 Z0.500
G1 E0.80000 F2100.000
M204 S800
;TYPE:Perimeter
;WIDTH:0.65
G1 F1500.000
G1 X35.795 Y91.481 E0.05400
G1 X35.795 Y78.302 E0.96259
G1 X37.953 Y78.302 E0.15763
G1 X37.953 Y91.481 E0.96259
G1 X36.624 Y91.481 E0.09706
M204 S1000
G1 X36.624 Y92.066 F10800.000
M204 S800
;TYPE:External perimeter
G1 F1500.000
G1 X35.546 Y92.066 E0.07877
;TYPE:Overhang perimeter
;WIDTH:0.584808
;HEIGHT:0.584808
G1
G1 X35.209 Y92.066 E0.03758
G1 X35.209 Y77.716 E1.60250
G1 X35.546 Y77.716 E0.03758
;TYPE:External perimeter
;WIDTH:0.65
;HEIGHT:0.3
M73 P0 R567
G1 X38.245 Y77.716 E0.19719
;TYPE:Overhang perimeter
;WIDTH:0.584808
;HEIGHT:0.584808
G1
G1 X38.539 Y77.716 E0.03274
G1 X38.539 Y92.066 E1.60250
G1 X38.245 Y92.066 E0.03274
;TYPE:External perimeter
;WIDTH:0.65
;HEIGHT:0.3
G1 X36.714 Y92.066 E0.11185
M204 S1000
;WIPE_START
G1 F8640.000
G1 X35.546 Y92.066 E-0.26980
;WIPE_END
G1 E-0.53020 F2100.000
G1 Z1.100 F10800.000
G1 X37.213 Y78.478
G1 Z0.500
G1 E0.80000 F2100.000
;TYPE:Solid infill
;WIDTH:0.67795
G1 F2172
G1 X36.234 Y79.457 E0.10600
G1 X36.234 Y80.325 E0.06640
G1 X37.514 Y79.045 E0.13850
G1 X37.514 Y79.913 E0.06640
G1 X36.234 Y81.192 E0.13850
G1 X36.234 Y82.060 E0.06640
G1 X37.514 Y80.780 E0.13850
G1 X37.514 Y81.648 E0.06640
G1 X36.234 Y82.928 E0.13850
G1 X36.234 Y83.796 E0.06640
G1 X37.514 Y82.516 E0.13850
G1 X37.514 Y83.384 E0.06640
G1 X36.234 Y84.663 E0.13850
G1 X36.234 Y85.531 E0.06640
G1 X37.514 Y84.251 E0.13850
G1 X37.514 Y85.119 E0.06640
G1 X36.234 Y86.399 E0.13850
G1 X36.234 Y87.267 E0.06640
G1 X37.514 Y85.987 E0.13850
G1 X37.514 Y86.855 E0.06640
G1 X36.234 Y88.134 E0.13850
G1 X36.234 Y89.002 E0.06640
G1 X37.514 Y87.722 E0.13850
G1 X37.514 Y88.590 E0.06640
G1 X36.234 Y89.870 E0.13850
G1 X36.234 Y90.737 E0.06640
G1 X37.514 Y89.458 E0.13850
G1 X37.514 Y90.325 E0.06640
G1 X36.534 Y91.305 E0.10601
; stop printing object Filament_Box_Top.stl id:0 copy 0
;LAYER_CHANGE
;Z:0.8
;HEIGHT:0.3
;BEFORE_LAYER_CHANGE
G92 E0.0
;0.8


;WIPE_START
G1 F8640.000
G1 X37.514 Y90.325 E-0.31987
G1 X37.514 Y89.458 E-0.20036
G1 X36.780 Y90.192 E-0.23977
;WIPE_END
G1 E-0.04000 F2100.000
G1 Z1.100 F10800.000
;AFTER_LAYER_CHANGE
;0.8
G1 X40.561 Y74.979
G1 Z0.800
G1 E0.80000 F2100.000
;TYPE:Skirt
;WIDTH:0.65
G1 F2920
G1 X41.399 Y75.530 E0.07326
G1 X41.966 Y76.357 E0.07326
G1 X42.180 Y77.333 E0.07297
G1 X42.177 Y190.515 E8.26700
G1 X42.019 Y191.294 E0.05805
G1 X41.631 Y191.992 E0.05833
G1 X41.053 Y192.538 E0.05805
G1 X40.334 Y192.885 E0.05833
G1 X39.620 Y192.998 E0.05286
G1 X34.056 Y192.996 E0.40635
G1 X33.108 Y192.768 E0.07125
G1 X32.312 Y192.210 E0.07097
G1 X31.776 Y191.400 E0.07097
G1 X31.573 Y190.446 E0.07125
G1 X31.576 Y77.268 E8.26671
G1 X31.733 Y76.493 E0.05776
G1 X32.117 Y75.797 E0.05805
G1 X32.693 Y75.250 E0.05805
G1 X33.407 Y74.901 E0.05805
G1 X34.130 Y74.785 E0.05343
G1 X39.577 Y74.784 E0.39790
G1 X40.473 Y74.961 E0.06668
; printing object Filament_Box_Top.stl id:0 copy 0
;WIPE_START
G1 F8640.000
G1 X41.399 Y75.530 E-0.25095
G1 X41.966 Y76.357 E-0.23158
G1 X42.180 Y77.333 E-0.23068
G1 X42.180 Y77.536 E-0.04680
;WIPE_END
G1 E-0.04000 F2100.000
G1 Z1.400 F10800.000
G1 X38.663 Y176.302
G1 Z0.800
G1 E0.80000 F2100.000
M204 S800
;TYPE:Perimeter
G1 F1500.000
G1 X38.663 Y189.481 E0.96260
G1 X35.091 Y189.481 E0.26091
G1 X35.091 Y176.302 E0.96260
G1 X38.573 Y176.302 E0.25434
M204 S1000
G1 X38.573 Y175.716 F10800.000
M204 S800
;TYPE:External perimeter
G1 F1500.000
G1 X39.164 Y175.716 E0.04317
;TYPE:Overhang perimeter
;WIDTH:0.584808
;HEIGHT:0.584808
G1
G1 X39.248 Y175.716 E0.00945
G1 X39.248 Y190.066 E1.60251
G1 X39.164 Y190.066 E0.00945
;TYPE:External perimeter
;WIDTH:0.65
;HEIGHT:0.3
G1 X34.584 Y190.066 E0.33448
;TYPE:Overhang perimeter
;WIDTH:0.584808
;HEIGHT:0.584808
G1
G1 X34.505 Y190.066 E0.00886
G1 X34.505 Y175.716 E1.60251
G1 X34.584 Y175.716 E0.00886
;TYPE:External perimeter
;WIDTH:0.65
;HEIGHT:0.3
G1 X38.483 Y175.716 E0.28475
M204 S1000
;WIPE_START
G1 F8640.000
G1 X39.164 Y175.716 E-0.15724
;WIPE_END
G1 E-0.64276 F2100.000
G1 Z1.400 F10800.000
G1 X35.266 Y188.088
G1 Z0.800
G1 E0.80000 F2100.000
;TYPE:Solid infill
;WIDTH:0.66599
G1 F2920
G1 X36.220 Y189.042 E0.10124
G1 X37.071 Y189.042 E0.06384
G1 X35.530 Y187.500 E0.16356
G1 X35.530 Y186.649 E0.06384
G1 X37.922 Y189.042 E0.25385
G1 X38.223 Y189.042 E0.02263
G1 X38.223 Y188.492 E0.04121
G1 X35.530 Y185.799 E0.28585
G1 X35.530 Y184.948 E0.06384
G1 X38.223 Y187.642 E0.28585
G1 X38.223 Y186.791 E0.06384
G1 X35.530 Y184.097 E0.28585
G1 X35.530 Y183.246 E0.06384
G1 X38.223 Y185.940 E0.28585
G1 X38.223 Y185.089 E0.06384
G1 X35.530 Y182.395 E0.28585
G1 X35.530 Y181.545 E0.06384
G1 X38.223 Y184.238 E0.28585
G1 X38.223 Y183.388 E0.06384
G1 X35.530 Y180.694 E0.28585
G1 X35.530 Y179.843 E0.06384
G1 X38.223 Y182.537 E0.28585
G1 X38.223 Y181.686 E0.06384
G1 X35.530 Y178.992 E0.28585
G1 X35.530 Y178.141 E0.06384
G1 X38.223 Y180.835 E0.28585
G1 X38.223 Y179.984 E0.06384
G1 X35.530 Y177.291 E0.28585
G1 X35.530 Y176.741 E0.04122
G1 X35.831 Y176.741 E0.02262
G1 X38.223 Y179.134 E0.25386
G1 X38.223 Y178.283 E0.06384
G1 X36.682 Y176.741 E0.16358
G1 X37.533 Y176.741 E0.06384
G1 X38.487 Y177.695 E0.10126
;WIPE_START
G1 F8640.000
G1 X37.533 Y176.741 E-0.31159
G1 X36.682 Y176.741 E-0.19645
G1 X37.454 Y177.513 E-0.25196
;WIPE_END
G1 E-0.04000 F2100.000
G1 Z1.400 F10800.000
G1 X38.487 Y140.481
G1 Z0.800
G1 E0.80000 F2100.000
M204 S800
;TYPE:Perimeter
;WIDTH:0.65
G1 F1500.000
G1 X35.091 Y140.481 E0.24808
G1 X35.091 Y127.302 E0.96260
G1 X38.663 Y127.302 E0.26091
G1 X38.663 Y140.481 E0.96260
G1 X38.577 Y140.481 E0.00626
M204 S1000
G1 X38.577 Y141.066 F10800.000
M204 S800
;TYPE:External perimeter
G1 F1500.000
G1 X34.584 Y141.066 E0.29163
;TYPE:Overhang perimeter
;WIDTH:0.584808
;HEIGHT:0.584808
G1
G1 X34.505 Y141.066 E0.00886
G1 X34.505 Y126.716 E1.60251
G1 X34.584 Y126.716 E0.00886
;TYPE:External perimeter
;WIDTH:0.65
;HEIGHT:0.3
G1 X39.164 Y126.716 E0.33448
;TYPE:Overhang perimeter
;WIDTH:0.584808
;HEIGHT:0.584808
G1
G1 X39.248 Y126.716 E0.00945
G1 X39.248 Y141.066 E1.60251
G1 X39.164 Y141.066 E0.00945
;TYPE:External perimeter
;WIDTH:0.65
;HEIGHT:0.3
G1 X38.667 Y141.066 E0.03628
M204 S1000
;WIPE_START
G1 F8640.000
G1 X35.376 Y141.066 E-0.76000
;WIPE_END
G1 E-0.04000 F2100.000
G1 Z1.400 F10800.000
G1 X38.487 Y128.695
G1 Z0.800
G1 E0.80000 F2100.000
;TYPE:Solid infill
;WIDTH:0.66599
G1 F2920
G1 X37.533 Y127.741 E0.10126
G1 X36.682 Y127.741 E0.06384
G1 X38.223 Y129.283 E0.16358
G1 X38.223 Y130.133 E0.06384
G1 X35.831 Y127.741 E0.25386
G1 X35.530 Y127.741 E0.02262
G1 X35.530 Y128.291 E0.04122
