; generated by PrusaSlicer 2.3.0+win64 on 2021-05-19 at 00:02:38 UTC

; 

; external perimeters extrusion width = 0.45mm
; perimeters extrusion width = 0.45mm
; infill extrusion width = 0.45mm
; solid infill extrusion width = 0.45mm
; top infill extrusion width = 0.40mm
; first layer extrusion width = 0.42mm

; external perimeters extrusion width = 0.45mm
; perimeters extrusion width = 0.45mm
; infill extrusion width = 0.45mm
; solid infill extrusion width = 0.45mm
; top infill extrusion width = 0.40mm
; first layer extrusion width = 0.42mm

; external perimeters extrusion width = 0.45mm
; perimeters extrusion width = 0.45mm
; infill extrusion width = 0.45mm
; solid infill extrusion width = 0.45mm
; top infill extrusion width = 0.40mm
; first layer extrusion width = 0.42mm

M73 P0 R119
M73 Q0 S120
M201 X1000 Y1000 Z200 E5000 ; sets maximum accelerations, mm/sec^2
M203 X200 Y200 Z12 E120 ; sets maximum feedrates, mm/sec
M204 P1250 R1250 T1250 ; sets acceleration (P, T) and retract acceleration (R), mm/sec^2
M205 X8.00 Y8.00 Z0.40 E4.50 ; sets the jerk limits, mm/sec
M205 S0 T0 ; sets the minimum extruding and travel feed rate, mm/sec
M107
;TYPE:Custom
M862.3 P "MK3SMMU2S" ; printer model check
M862.1 P0.4 ; nozzle diameter check
M115 U3.9.3 ; tell printer latest fw version
G90 ; use absolute coordinates
M83 ; extruder relative mode
M104 S240 ; set extruder temp
M140 S70 ; set bed temp
Tx
M190 S70 ; wait for bed temp
M109 S240 ; wait for extruder temp
G28 W ; home all without mesh bed level
G80 ; mesh bed leveling

;go outside print area
G1 Y-3.0 F1000.0
G1 Z0.4 F1000.0
; select extruder
Tc
; purge line
G1 X55.0 F2000.0
G1 Z0.3 F1000.0
G92 E0.0
G1 X240.0 E25.0 F2200.0
G1 Y-2.0 F1000.0
G1 X55.0 E25 F1400.0
G1 Z0.20 F1000.0
G1 X5.0 E4.0 F1000.0

M221 S95
G92 E0.0

; Don't change E values below. Excessive value can damage the printer.
M907 E430 ; set extruder motor current
G21 ; set units to millimeters
G90 ; use absolute coordinates
M83 ; use relative distances for extrusion
M900 K0.12 ; Filament gcode LA 1.5
M900 K45 ; Filament gcode LA 1.0
;LAYER_CHANGE
;Z:0.2
;HEIGHT:0.2
;BEFORE_LAYER_CHANGE
G92 E0.0
;0.2


G1 E-0.80000 F2100.000
G1 Z0.400 F10800.000
;AFTER_LAYER_CHANGE
;0.2
G1 X98.851 Y60.861
G1 Z0.200
G1 E0.80000 F2100.000
M204 S1000
;TYPE:Skirt
;WIDTH:0.42
G1 F1200.000
G1 X99.340 Y60.301 E0.02331
G1 X99.982 Y59.918 E0.02343
G1 X100.711 Y59.753 E0.02343
G1 X126.368 Y59.748 E0.80446
G1 X126.897 Y59.809 E0.01668
G1 X127.399 Y59.985 E0.01669
G1 X127.849 Y60.269 E0.01668
G1 X128.225 Y60.646 E0.01668
G1 X160.142 Y102.272 E1.64467
G1 X160.327 Y102.779 E0.01692
G1 X160.392 Y103.315 E0.01692
G1 X160.392 Y127.340 E0.75331
G1 X160.321 Y127.910 E0.01799
G1 X159.971 Y128.683 E0.02661
G1 X159.372 Y129.284 E0.02661
G1 X110.061 Y162.873 E1.87075
M73 Q0 S119
G1 X109.509 Y163.110 E0.01882
G1 X108.920 Y163.201 E0.01870
G1 X101.035 Y163.202 E0.24722
G1 X100.477 Y163.131 E0.01763
G1 X99.767 Y162.824 E0.02426
G1 X99.194 Y162.305 E0.02426
G1 X98.817 Y161.629 E0.02426
G1 X98.677 Y160.868 E0.02426
G1 X98.487 Y85.627 E2.35913
G1 X98.487 Y62.118 E0.73713
G1 X98.558 Y61.548 E0.01799
G1 X98.828 Y60.916 E0.02155
; printing object IRsensorholderII_SUPPORT.stl id:1 copy 0
;WIPE_START
G1 F8640.000
G1 X99.340 Y60.301 E-0.18490
G1 X99.982 Y59.918 E-0.17255
G1 X100.711 Y59.753 E-0.17255
G1 X101.707 Y59.753 E-0.23001
;WIPE_END
G1 E-0.04000 F2100.000
G1 Z0.600 F10800.000
G1 X135.179 Y104.497
G1 Z0.200
G1 E0.80000 F2100.000
;TYPE:Perimeter
G1 F1200.000
G1 X140.351 Y104.497 E0.16215
G1 X140.351 Y116.658 E0.38132
G1 X135.179 Y116.668 E0.16215
G1 X135.179 Y112.958 E0.11635
G1 X135.517 Y113.221 E0.01342
G1 X136.029 Y113.474 E0.01791
G1 X136.582 Y113.618 E0.01791
G1 X137.155 Y113.649 E0.01799
G1 X137.736 Y113.558 E0.01844
G1 X138.233 Y113.373 E0.01664
G1 X138.527 Y113.210 E0.01053
G1 X138.969 Y112.864 E0.01760
G1 X139.313 Y112.462 E0.01659
G1 X139.489 Y112.179 E0.01045
G1 X139.705 Y111.677 E0.01712
G1 X139.819 Y111.122 E0.01778
G1 X139.829 Y109.780 E0.04208
G1 X139.778 Y109.274 E0.01593
G1 X139.610 Y108.730 E0.01784
G1 X139.334 Y108.230 E0.01791
G1 X138.964 Y107.795 E0.01791
G1 X138.513 Y107.444 E0.01791
G1 X138.001 Y107.191 E0.01791
G1 X137.448 Y107.047 E0.01791
G1 X136.875 Y107.017 E0.01799
G1 X136.294 Y107.108 E0.01844
G1 X135.797 Y107.293 E0.01664
G1 X135.503 Y107.456 E0.01053
G1 X135.179 Y107.709 E0.01290
G1 X135.179 Y104.557 E0.09883
G1 X134.802 Y104.120 F10800.000
G1 F1200.000
G1 X140.728 Y104.120 E0.18580
G1 X140.728 Y117.036 E0.40497
G1 X134.802 Y117.046 E0.18580
G1 X134.802 Y111.847 E0.16301
G1 X135.007 Y112.220 E0.01336
G1 X135.328 Y112.596 E0.01550
G1 X135.718 Y112.900 E0.01550
G1 X136.162 Y113.119 E0.01550
G1 X136.640 Y113.244 E0.01550
G1 X137.135 Y113.270 E0.01555
G1 X137.640 Y113.191 E0.01602
G1 X138.075 Y113.029 E0.01456
G1 X138.318 Y112.894 E0.00871
G1 X138.707 Y112.590 E0.01549
G1 X139.008 Y112.238 E0.01452
G1 X139.154 Y112.004 E0.00866
G1 X139.343 Y111.564 E0.01502
G1 X139.442 Y111.082 E0.01542
G1 X139.452 Y109.797 E0.04028
G1 X139.407 Y109.350 E0.01411
G1 X139.261 Y108.879 E0.01546
G1 X139.022 Y108.445 E0.01550
G1 X138.702 Y108.069 E0.01550
G1 X138.312 Y107.765 E0.01550
G1 X137.868 Y107.547 E0.01550
G1 X137.390 Y107.421 E0.01550
G1 X136.895 Y107.395 E0.01555
G1 X136.390 Y107.474 E0.01602
G1 X135.955 Y107.636 E0.01456
G1 X135.712 Y107.771 E0.00871
G1 X135.323 Y108.075 E0.01549
G1 X135.022 Y108.427 E0.01452
G1 X134.876 Y108.662 E0.00866
G1 X134.802 Y108.833 E0.00585
G1 X134.802 Y104.180 E0.14590
;WIPE_START
G1 F8640.000
G1 X138.093 Y104.146 E-0.76000
;WIPE_END
G1 E-0.04000 F2100.000
G1 Z0.600 F10800.000
G1 X136.486 Y107.841
G1 Z0.200
G1 E0.80000 F2100.000
;TYPE:External perimeter
G1 F1200.000
G1 X136.914 Y107.774 E0.01359
G1 X137.332 Y107.796 E0.01311
G1 X137.736 Y107.902 E0.01309
G1 X138.110 Y108.087 E0.01309
G1 X138.440 Y108.343 E0.01309
G1 X138.711 Y108.661 E0.01309
G1 X138.912 Y109.027 E0.01309
G1 X139.035 Y109.425 E0.01308
G1 X139.075 Y109.815 E0.01228
G1 X139.066 Y111.042 E0.03848
G1 X138.982 Y111.450 E0.01306
G1 X138.819 Y111.829 E0.01292
G1 X138.703 Y112.015 E0.00688
G1 X138.445 Y112.316 E0.01245
G1 X138.109 Y112.579 E0.01337
G1 X137.917 Y112.686 E0.00689
G1 X137.544 Y112.824 E0.01248
G1 X137.116 Y112.891 E0.01359
G1 X136.698 Y112.869 E0.01311
G1 X136.294 Y112.764 E0.01309
G1 X135.920 Y112.579 E0.01309
G1 X135.590 Y112.322 E0.01309
G1 X135.319 Y112.004 E0.01309
G1 X135.118 Y111.639 E0.01309
G1 X134.995 Y111.240 E0.01308
G1 X134.955 Y110.850 E0.01228
G1 X134.964 Y109.623 E0.03848
G1 X135.048 Y109.215 E0.01306
G1 X135.211 Y108.837 E0.01292
G1 X135.327 Y108.651 E0.00688
G1 X135.585 Y108.349 E0.01245
G1 X135.921 Y108.086 E0.01337
G1 X136.113 Y107.980 E0.00689
G1 X136.430 Y107.862 E0.01060
G1 X136.598 Y107.457 F10800.000
;WIPE_START
G1 F8640.000
G1 X136.914 Y107.774 E-0.11369
G1 X137.332 Y107.796 E-0.09656
G1 X137.736 Y107.902 E-0.09643
G1 X138.110 Y108.087 E-0.09643
G1 X138.440 Y108.343 E-0.09643
G1 X138.711 Y108.661 E-0.09642
G1 X138.912 Y109.027 E-0.09643
G1 X138.999 Y109.307 E-0.06763
;WIPE_END
G1 E-0.04000 F2100.000
G1 Z0.600 F10800.000
G1 X153.207 Y111.097
G1 Z0.200
G1 E0.80000 F2100.000
G1 F1200.000
G1 X153.344 Y110.718 E0.01262
G1 X153.458 Y110.528 E0.00693
G1 X153.594 Y110.364 E0.00670
G1 X153.748 Y110.217 E0.00667
G1 X153.938 Y110.080 E0.00733
G1 X154.289 Y109.905 E0.01231
G1 X154.499 Y109.838 E0.00692
G1 X154.923 Y109.774 E0.01343
G1 X155.324 Y109.795 E0.01259
G1 X155.728 Y109.899 E0.01308
G1 X156.104 Y110.083 E0.01314
G1 X156.435 Y110.338 E0.01309
G1 X156.706 Y110.655 E0.01308
G1 X156.909 Y111.019 E0.01308
G1 X157.034 Y111.417 E0.01308
G1 X157.075 Y111.818 E0.01262
G1 X157.064 Y113.050 E0.03864
G1 X156.984 Y113.443 E0.01258
G1 X156.812 Y113.841 E0.01358
G1 X156.586 Y114.166 E0.01242
G1 X156.435 Y114.325 E0.00688
G1 X156.110 Y114.579 E0.01294
G1 X155.720 Y114.769 E0.01359
G1 X155.337 Y114.868 E0.01242
G1 X155.118 Y114.891 E0.00688
G1 X154.707 Y114.871 E0.01293
G1 X154.301 Y114.766 E0.01312
G1 X153.923 Y114.578 E0.01325
G1 X153.603 Y114.311 E0.01305
G1 X153.458 Y114.137 E0.00712
G1 X153.265 Y113.769 E0.01303
G1 X153.172 Y113.382 E0.01248
G1 X153.133 Y113.014 E0.01159
G1 X153.128 Y111.827 E0.03723
G1 X153.147 Y111.473 E0.01111
G1 X153.198 Y111.156 E0.01008
G1 X152.926 Y110.813 F10800.000
;WIPE_START
G1 F8640.000
G1 X153.344 Y110.718 E-0.10658
G1 X153.458 Y110.528 E-0.05105
G1 X153.594 Y110.364 E-0.04933
G1 X153.748 Y110.217 E-0.04914
G1 X153.938 Y110.080 E-0.05400
G1 X154.289 Y109.905 E-0.09066
G1 X154.499 Y109.838 E-0.05094
G1 X154.923 Y109.774 E-0.09887
G1 X155.324 Y109.795 E-0.09272
G1 X155.728 Y109.899 E-0.09636
G1 X155.807 Y109.937 E-0.02034
;WIPE_END
G1 E-0.04000 F2100.000
G1 Z0.600 F10800.000
G1 X153.675 Y109.368
G1 Z0.200
G1 E0.80000 F2100.000
;TYPE:Perimeter
G1 F1200.000
G1 X153.678 Y104.497 E0.15274
G1 X156.851 Y104.497 E0.09947
G1 X156.851 Y109.707 E0.16335
G1 X156.505 Y109.439 E0.01372
G1 X155.990 Y109.187 E0.01797
G1 X155.438 Y109.045 E0.01786
G1 X154.885 Y109.017 E0.01735
G1 X154.327 Y109.101 E0.01769
G1 X154.004 Y109.204 E0.01063
G1 X153.729 Y109.341 E0.00965
G1 X153.318 Y110.106 F10800.000
G1 F1200.000
G1 X153.285 Y110.146 E0.00163
G1 X153.302 Y104.120 E0.18896
G1 X157.228 Y104.120 E0.12310
G1 X157.228 Y110.817 E0.20998
G1 X157.017 Y110.438 E0.01359
G1 X156.696 Y110.063 E0.01549
G1 X156.305 Y109.761 E0.01550
G1 X155.859 Y109.543 E0.01556
G1 X155.381 Y109.420 E0.01547
G1 X154.904 Y109.395 E0.01497
G1 X154.413 Y109.469 E0.01556
G1 X154.147 Y109.554 E0.00877
G1 X153.741 Y109.757 E0.01420
G1 X153.506 Y109.927 E0.00910
G1 X153.362 Y110.065 E0.00627
;WIPE_START
G1 F8640.000
G1 X153.285 Y110.146 E-0.02581
G1 X153.294 Y106.967 E-0.73419
;WIPE_END
G1 E-0.04000 F2100.000
G1 Z0.600 F10800.000
G1 X153.676 Y115.297
G1 Z0.200
G1 E0.80000 F2100.000
G1 F1200.000
G1 X154.036 Y115.476 E0.01261
G1 X154.593 Y115.620 E0.01803
G1 X155.139 Y115.647 E0.01715
G1 X155.470 Y115.612 E0.01044
G1 X155.982 Y115.480 E0.01657
G1 X156.511 Y115.222 E0.01845
G1 X156.851 Y114.958 E0.01350
G1 X156.851 Y126.168 E0.35150
G1 X141.679 Y126.168 E0.47570
G1 X141.679 Y117.497 E0.27189
G1 X153.681 Y117.497 E0.37633
G1 X153.676 Y115.357 E0.06709
;WIPE_START
G1 F8640.000
G1 X154.036 Y115.476 E-0.08754
G1 X154.593 Y115.620 E-0.13275
G1 X155.139 Y115.647 E-0.12632
G1 X155.470 Y115.612 E-0.07691
G1 X155.982 Y115.480 E-0.12206
G1 X156.511 Y115.222 E-0.13584
G1 X156.780 Y115.013 E-0.07857
;WIPE_END
G1 E-0.04000 F2100.000
G1 Z0.600 F10800.000
G1 X153.303 Y117.120
G1 Z0.200
G1 E0.80000 F2100.000
G1 F1200.000
G1 X153.285 Y114.519 E0.08156
G1 X153.716 Y114.896 E0.01795
G1 X154.169 Y115.121 E0.01587
G1 X154.650 Y115.245 E0.01557
G1 X155.129 Y115.269 E0.01504
G1 X155.404 Y115.240 E0.00866
G1 X155.851 Y115.125 E0.01450
G1 X156.310 Y114.901 E0.01602
G1 X156.690 Y114.605 E0.01508
G1 X156.879 Y114.405 E0.00866
G1 X157.144 Y114.025 E0.01450
G1 X157.228 Y113.829 E0.00668
G1 X157.228 Y126.546 E0.39871
G1 X141.302 Y126.546 E0.49934
G1 X141.302 Y117.120 E0.29554
G1 X153.243 Y117.120 E0.37442
;WIPE_START
G1 F8640.000
G1 X153.285 Y114.519 E-0.60071
G1 X153.716 Y114.896 E-0.13221
G1 X153.821 Y114.948 E-0.02709
;WIPE_END
G1 E-0.04000 F2100.000
G1 Z0.600 F10800.000
G1 X135.353 Y125.997
G1 Z0.200
G1 E0.80000 F2100.000
G1 F1200.000
G1 X135.353 Y126.187 E0.00596
G1 X128.527 Y126.187 E0.21400
G1 X128.527 Y123.987 E0.06898
G1 X130.853 Y123.987 E0.07291
G1 X130.853 Y125.997 E0.06302
G1 X135.293 Y125.997 E0.13921
;WIPE_START
G1 F8640.000
G1 X135.353 Y126.187 E-0.04601
G1 X132.260 Y126.187 E-0.71399
;WIPE_END
G1 E-0.04000 F2100.000
G1 Z0.600 F10800.000
G1 X131.230 Y125.620
G1 Z0.200
G1 E0.80000 F2100.000
G1 F1200.000
G1 X135.730 Y125.620 E0.14108
G1 X135.730 Y126.564 E0.02960
G1 X128.150 Y126.564 E0.23765
G1 X128.150 Y123.610 E0.09263
G1 X131.230 Y123.610 E0.09656
G1 X131.230 Y125.560 E0.06114
G1 X131.607 Y125.243 F10800.000
;TYPE:External perimeter
G1 F1200.000
G1 X135.425 Y125.243 E0.11971
G1 X135.425 Y117.423 E0.24519
G1 X134.425 Y117.423 E0.03135
G1 X134.425 Y103.743 E0.42893
M73 P0 R118
G1 X141.105 Y103.743 E0.20945
G1 X141.105 Y116.743 E0.40761
G1 X152.925 Y116.743 E0.37062
G1 X152.921 Y114.828 E0.06004
G1 X152.899 Y114.315 E0.01609
G1 X152.776 Y113.315 E0.03161
G1 X152.751 Y112.827 E0.01529
G1 X152.751 Y111.838 E0.03103
G1 X152.776 Y111.351 E0.01529
G1 X152.899 Y110.350 E0.03161
G1 X152.921 Y109.837 E0.01609
G1 X152.925 Y103.743 E0.19109
G1 X157.605 Y103.743 E0.14674
G1 X157.605 Y126.923 E0.72679
G1 X140.925 Y126.923 E0.52299
G1 X140.925 Y117.413 E0.29818
G1 X136.105 Y117.423 E0.15113
G1 X136.107 Y126.941 E0.29841
G1 X127.773 Y126.941 E0.26130
G1 X127.773 Y123.233 E0.11627
G1 X131.607 Y123.233 E0.12021
G1 X131.607 Y125.183 E0.06114
G1 X131.749 Y125.617 F10800.000
;WIPE_START
G1 F8640.000
G1 X134.898 Y125.234 E-0.76000
;WIPE_END
G1 E-0.04000 F2100.000
G1 Z0.600 F10800.000
G1 X129.888 Y124.100
G1 Z0.200
G1 E0.80000 F2100.000
;TYPE:Solid infill
;WIDTH:0.461983
G1 F1200.000
G1 X130.570 Y124.782 E0.03359
G1 X130.570 Y125.374 E0.02065
G1 X129.465 Y124.270 E0.05443
G1 X128.873 Y124.270 E0.02065
G1 X130.507 Y125.904 E0.08054
G1 X129.915 Y125.904 E0.02065
G1 X128.810 Y124.800 E0.05443
G1 X128.810 Y125.392 E0.02065
G1 X129.492 Y126.074 E0.03358
;WIPE_START
G1 F8640.000
G1 X128.810 Y125.392 E-0.22254
G1 X128.810 Y124.800 E-0.13684
G1 X129.915 Y125.904 E-0.36066
G1 X130.088 Y125.904 E-0.03995
;WIPE_END
G1 E-0.04000 F2100.000
G1 Z0.600 F10800.000
G1 X135.766 Y125.431
G1 Z0.200
G1 E0.80000 F2100.000
;TYPE:Gap fill
;WIDTH:0.347442
G1 F1200.000
G1 X135.765 Y117.236 E0.20750
;WIPE_START
G1 F8640.000
G1 X135.765 Y120.528 E-0.76000
;WIPE_END
G1 E-0.04000 F2100.000
G1 Z0.600 F10800.000
G1 X134.767 Y111.661
G1 Z0.200
G1 E0.80000 F2100.000
;WIDTH:0.30967
G1 F1200.000
G1 X134.740 Y111.484 E0.00397
;WIDTH:0.196152
G1 X134.711 Y111.288 E0.00253
G1 X134.690 Y110.859 E0.00547
;WIDTH:0.207088
G1 X134.696 Y109.587 E0.01736
;WIDTH:0.252261
G1 X134.718 Y109.365 E0.00388
;WIDTH:0.277216
G1 X134.741 Y109.143 E0.00435
G1 X134.903 Y109.046 E0.00367
;WIPE_START
G1 F8640.000
G1 X134.741 Y109.143 E-0.04354
G1 X134.718 Y109.365 E-0.05153
;WIPE_END
G1 E-0.70493 F2100.000
G1 Z0.600 F10800.000
G1 X140.002 Y108.818
G1 Z0.200
G1 E0.80000 F2100.000
;WIDTH:0.283987
G1 F1200.000
G1 X140.061 Y109.206 E0.00788
;WIDTH:0.187516
G1 X140.090 Y109.771 E0.00680
;WIDTH:0.199274
G1 X140.084 Y111.157 E0.01802
;WIDTH:0.235445
G1 X140.061 Y111.379 E0.00357
;WIDTH:0.271619
G1 X140.039 Y111.601 E0.00424
;WIDTH:0.307792
G1 X140.016 Y111.823 E0.00491
G1 X139.636 Y112.123 F10800.000
;TYPE:Solid infill
;WIDTH:0.420632
G1 F1200.000
G1 X140.068 Y112.555 E0.01917
G1 X140.068 Y113.089 E0.01678
G1 X139.567 Y112.588 E0.02224
G1 X139.326 Y112.882 E0.01192
G1 X140.068 Y113.623 E0.03295
G1 X140.068 Y114.158 E0.01678
G1 X139.061 Y113.151 E0.04471
G1 X138.762 Y113.385 E0.01195
G1 X140.068 Y114.692 E0.05803
G1 X140.068 Y115.226 E0.01678
G1 X138.429 Y113.587 E0.07278
G1 X138.050 Y113.742 E0.01286
G1 X140.068 Y115.760 E0.08962
G1 X140.068 Y116.294 E0.01678
G1 X137.634 Y113.860 E0.10812
G1 X137.172 Y113.932 E0.01468
G1 X139.617 Y116.377 E0.10859
G1 X139.084 Y116.378 E0.01674
G1 X136.608 Y113.903 E0.10994
G1 X136.538 Y113.899 E0.00222
G1 X135.894 Y113.722 E0.02098
G1 X138.551 Y116.379 E0.11800
G1 X138.017 Y116.380 E0.01674
G1 X135.462 Y113.825 E0.11350
G1 X135.462 Y114.359 E0.01678
G1 X137.484 Y116.381 E0.08982
G1 X136.951 Y116.382 E0.01674
G1 X135.462 Y114.893 E0.06614
G1 X135.462 Y115.427 E0.01678
G1 X136.418 Y116.383 E0.04246
G1 X135.885 Y116.384 E0.01674
G1 X135.292 Y115.792 E0.02632
;WIPE_START
G1 F8640.000
G1 X135.885 Y116.384 E-0.19352
G1 X136.418 Y116.383 E-0.12310
G1 X135.462 Y115.427 E-0.31220
G1 X135.462 Y114.893 E-0.12334
G1 X135.486 Y114.917 E-0.00784
;WIPE_END
G1 E-0.04000 F2100.000
G1 Z0.600 F10800.000
G1 X140.238 Y105.420
G1 Z0.200
G1 E0.80000 F2100.000
;WIDTH:0.442313
G1 F1200.000
G1 X139.598 Y104.780 E0.03005
G1 X139.033 Y104.780 E0.01876
G1 X140.068 Y105.815 E0.04861
G1 X140.068 Y106.379 E0.01876
G1 X138.468 Y104.780 E0.07514
G1 X137.903 Y104.780 E0.01876
G1 X140.068 Y106.944 E0.10167
G1 X140.068 Y107.509 E0.01876
