; generated by PrusaSlicer 2.3.0+win64 on 2021-05-19 at 16:01:41 UTC

; 

; external perimeters extrusion width = 0.45mm
; perimeters extrusion width = 0.45mm
; infill extrusion width = 0.45mm
; solid infill extrusion width = 0.45mm
; top infill extrusion width = 0.40mm
; first layer extrusion width = 0.42mm

; external perimeters extrusion width = 0.45mm
; perimeters extrusion width = 0.45mm
; infill extrusion width = 0.45mm
; solid infill extrusion width = 0.45mm
; top infill extrusion width = 0.40mm
; first layer extrusion width = 0.42mm

; external perimeters extrusion width = 0.45mm
; perimeters extrusion width = 0.45mm
; infill extrusion width = 0.45mm
; solid infill extrusion width = 0.45mm
; top infill extrusion width = 0.40mm
; first layer extrusion width = 0.42mm

M73 P0 R134
M73 Q0 S135
M201 X1000 Y1000 Z200 E8000 ; sets maximum accelerations, mm/sec^2
M203 X200 Y200 Z12 E120 ; sets maximum feedrates, mm/sec
M204 P1250 R1250 T1250 ; sets acceleration (P, T) and retract acceleration (R), mm/sec^2
M205 X8.00 Y8.00 Z0.40 E4.50 ; sets the jerk limits, mm/sec
M205 S0 T0 ; sets the minimum extruding and travel feed rate, mm/sec
M107
;TYPE:Custom
M862.3 P "MK3SMMU2S" ; printer model check
M862.1 P0.4 ; nozzle diameter check
M115 U3.9.3 ; tell printer latest fw version
G90 ; use absolute coordinates
M83 ; extruder relative mode
M104 S220 ; set extruder temp
M140 S50 ; set bed temp
M190 S50 ; wait for bed temp
M109 S220 ; wait for extruder temp
G28 W ; home all without mesh bed level
G80 ; mesh bed leveling

; Send the filament type to the MMU2.0 unit.
; E stands for extruder number, F stands for filament type (0: default; 1:flex; 2: PVA)
M403 E0 F0
M403 E1 F0
M403 E2 F0
M403 E3 F0
M403 E4 F0


;go outside print area
G1 Y-3.0 F1000.0
G1 Z0.4 F1000.0
; select extruder
T3
; initial load
G1 X55.0 E29.0 F1073.0
G1 X5.0 E29.0 F1800.0
G1 X55.0 E8.0 F2000.0
G1 Z0.3 F1000.0
G92 E0.0
G1 X240.0 E25.0 F2200.0
M73 Q0 S134
G1 Y-2.0 F1000.0
G1 X55.0 E25 F1400.0
G1 Z0.20 F1000.0
G1 X5.0 E4.0 F1000.0
G92 E0.0


M221 S95
G92 E0.0

; Don't change E values below. Excessive value can damage the printer.
M907 E430 ; set extruder motor current
G21 ; set units to millimeters
G90 ; use absolute coordinates
M83 ; use relative distances for extrusion
T3
M900 K0
G1 Z0.200 F10800.000
;LAYER_CHANGE
;Z:0.2
;HEIGHT:0.2
;BEFORE_LAYER_CHANGE
G92 E0.0
;0.2


G1 E-1.60000 F3000.000
G1 Z0.400 F10800.000
;AFTER_LAYER_CHANGE
;0.2
G1 E-1.40000 F3000.000
G1 X233.000 Y125.000 F10800.000
G1 Z0.200
G1 E3.00000 F3000.000
;HEIGHT:0.200000
;TYPE:Wipe tower
;WIDTH:0.500000
;-------------------------------------
; CP WIPE TOWER FIRST LAYER BRIM START
G1  X233.000 Y139.400  E0.8209 F656
G1  X230.457 Y139.857   F7000
G1  Y124.543  E0.6402 F895
G1  X169.543  E2.5466
G1  Y139.857  E0.6402
G1  X230.457  E2.5466
G1  X230.914 Y140.314   F7000
G1  Y124.086  E0.6785 F895
G1  X169.086  E2.5849
M73 P0 R133
G1  Y140.314  E0.6785
G1  X230.914  E2.5849
G1  X231.371 Y140.771   F7000
G1  Y123.629  E0.7167 F895
G1  X168.629  E2.6231
G1  Y140.771  E0.7167
G1  X231.371  E2.6231
G1  X231.828 Y141.228   F7000
G1  Y123.172  E0.7549 F895
G1  X168.172  E2.6613
G1  Y141.228  E0.7549
G1  X231.828  E2.6613
; CP WIPE TOWER FIRST LAYER BRIM END
;-----------------------------------

;WIPE_START
M73 Q0 S133
G1 F8640.000
G1 X231.371 Y140.771 E-0.21322
G1 X227.410 Y140.771 E-1.30678
;WIPE_END
G1 E-0.08000 F3000.000
G1 Z0.400 F10800.000
G1 X233.388 Y142.566
G1 Z0.200
G1 E1.60000 F3000.000
M204 S1000
;TYPE:Skirt
;WIDTH:0.42
;HEIGHT:0.2
G1 F1193.382
G1 X232.891 Y142.996 E0.02348
G1 X232.295 Y143.273 E0.02348
G1 X231.647 Y143.376 E0.02348
G1 X168.396 Y143.377 E2.26081
G1 X167.831 Y143.308 E0.02037
G1 X167.288 Y143.100 E0.02078
G1 X108.872 Y112.092 E2.36393
G1 X108.234 Y111.591 E0.02899
G1 X107.802 Y110.905 E0.02899
G1 X107.623 Y110.037 E0.03167
G1 X107.634 Y99.768 E0.36706
G1 X107.781 Y99.147 E0.02280
G1 X108.090 Y98.585 E0.02294
G1 X108.538 Y98.125 E0.02294
G1 X109.093 Y97.803 E0.02294
G1 X109.987 Y97.623 E0.03261
G1 X140.004 Y97.623 E1.07290
G1 X140.588 Y97.697 E0.02106
G1 X232.617 Y121.252 E3.39552
M73 P1 R133
M73 Q1 S133
G1 X233.152 Y121.600 E0.02280
G1 X233.573 Y122.075 E0.02267
G1 X233.853 Y122.643 E0.02267
G1 X233.973 Y123.270 E0.02280
G1 X233.977 Y141.026 E0.63468
G1 X233.916 Y141.536 E0.01834
G1 X233.748 Y142.017 E0.01821
G1 X233.421 Y142.516 E0.02133
; printing object TPU Joint concept v0.stl id:0 copy 0
;WIPE_START
G1 F8640.000
G1 X232.891 Y142.996 E-0.23577
G1 X232.295 Y143.273 E-0.21667
G1 X231.647 Y143.376 E-0.21667
G1 X229.067 Y143.376 E-0.85089
;WIPE_END
G1 E-0.08000 F3000.000
G1 Z0.400 F10800.000
G1 X130.827 Y106.497
G1 Z0.200
G1 E1.60000 F3000.000
;TYPE:Perimeter
G1 F1193.382
G1 X130.787 Y106.457 E0.00202
G1 X130.787 Y105.713 E0.02659
G1 X119.213 Y105.713 E0.41371
G1 X119.213 Y106.457 E0.02659
G1 X119.173 Y106.497 E0.00202
G1 X119.173 Y103.503 E0.10701
G1 X119.213 Y103.543 E0.00202
G1 X119.213 Y104.287 E0.02659
G1 X130.787 Y104.287 E0.41371
G1 X130.787 Y103.543 E0.02659
G1 X130.827 Y103.503 E0.00202
G1 X130.827 Y106.437 E0.10486
G1 X130.410 Y106.090 F10800.000
;TYPE:External perimeter
G1 F1193.382
G1 X119.590 Y106.090 E0.38675
G1 X119.590 Y106.613 E0.01869
G1 X118.796 Y107.407 E0.04015
G1 X118.796 Y102.593 E0.17209
G1 X119.590 Y103.387 E0.04015
G1 X119.590 Y103.910 E0.01869
G1 X130.410 Y103.910 E0.38675
G1 X130.410 Y103.387 E0.01869
G1 X131.204 Y102.593 E0.04015
G1 X131.204 Y107.407 E0.17209
G1 X130.410 Y106.613 E0.04015
G1 X130.410 Y106.150 E0.01655
G1 X130.338 Y105.697 F10800.000
G1 X129.923 Y104.400
;TYPE:Solid infill
;WIDTH:0.43346
G1 F1152.251
G1 X130.544 Y105.021 E0.03252
G1 X130.544 Y105.430 E0.01513
G1 X130.401 Y105.430 E0.00531
G1 X129.541 Y104.570 E0.04504
G1 X128.988 Y104.570 E0.02045
G1 X129.849 Y105.430 E0.04504
G1 X129.296 Y105.430 E0.02045
G1 X128.436 Y104.570 E0.04504
G1 X127.884 Y104.570 E0.02045
G1 X128.744 Y105.430 E0.04504
G1 X128.192 Y105.430 E0.02045
G1 X127.331 Y104.570 E0.04504
G1 X126.779 Y104.570 E0.02045
G1 X127.639 Y105.430 E0.04504
G1 X127.087 Y105.430 E0.02045
G1 X126.227 Y104.570 E0.04504
G1 X125.674 Y104.570 E0.02045
G1 X126.535 Y105.430 E0.04504
G1 X125.982 Y105.430 E0.02045
G1 X125.122 Y104.570 E0.04504
G1 X124.570 Y104.570 E0.02045
G1 X125.430 Y105.430 E0.04504
G1 X124.878 Y105.430 E0.02045
G1 X124.018 Y104.570 E0.04504
G1 X123.465 Y104.570 E0.02045
G1 X124.325 Y105.430 E0.04504
G1 X123.773 Y105.430 E0.02045
G1 X122.913 Y104.570 E0.04504
G1 X122.361 Y104.570 E0.02045
G1 X123.221 Y105.430 E0.04504
G1 X122.669 Y105.430 E0.02045
G1 X121.808 Y104.570 E0.04504
G1 X121.256 Y104.570 E0.02045
G1 X122.116 Y105.430 E0.04504
G1 X121.564 Y105.430 E0.02045
G1 X120.704 Y104.570 E0.04504
G1 X120.151 Y104.570 E0.02045
G1 X121.012 Y105.430 E0.04504
G1 X120.459 Y105.430 E0.02045
G1 X119.599 Y104.570 E0.04504
G1 X119.456 Y104.570 E0.00531
G1 X119.456 Y104.979 E0.01514
G1 X120.077 Y105.600 E0.03251
; stop printing object TPU Joint concept v0.stl id:0 copy 0
;WIPE_START
G1 F8640.000
G1 X119.456 Y104.979 E-0.28970
G1 X119.456 Y104.570 E-0.13489
G1 X119.599 Y104.570 E-0.04730
G1 X120.459 Y105.430 E-0.40130
G1 X121.012 Y105.430 E-0.18218
G1 X120.151 Y104.570 E-0.40130
G1 X120.704 Y104.570 E-0.18218
G1 X121.564 Y105.430 E-0.40130
G1 X122.116 Y105.430 E-0.18218
G1 X121.256 Y104.570 E-0.40130
G1 X121.808 Y104.570 E-0.18218
G1 X121.903 Y104.665 E-0.04418
;WIPE_END
G1 E-0.15000 F3000.000
G1 Z0.400 F10800.000
G1 X229.750 Y139.150
G1 Z0.200
G1 E3.00000 F3000.000
;HEIGHT:0.200000
;TYPE:Wipe tower
;WIDTH:0.500000
;--------------------
; CP TOOLCHANGE START
; toolchange #1
; material : FLX -> PETG
;--------------------
M220 B
M220 S100
; CP TOOLCHANGE UNLOAD
;WIDTH:0.600000
G1  X229.250 Y138.850  
M900 K0
G1 F3554
G1  X214.441  E0.6860
G1 F3662
G1  X199.182  E0.7068
G1 F3877
G1  X183.027  E0.7484
G1 F4093
G1  X170.750  E0.5687
G1  Y138.250  F7200
G1 F4093
G1  X175.526  E0.2212
G1 F4254
G1  X193.253  E0.8211
G1 F4416
G1  X211.652  E0.8523
G1 F4685
G1  X229.250  E0.8151
G1  Y137.650  F7200
G1 F4685
G1  X227.326  E0.0891
G1 F5062
G1  X206.234  E0.9770
G1 F5331
G1  X184.020  E1.0290
G1 F5385
G1  X170.750  E0.6147
G1  Y137.050  F7200
G1 F5385
G1  X179.918  E0.4247
;WIDTH:0.500000
G1 E-15.0000 F6000
G1 E-24.5000 F5400
G1 E-7.0000 F2700
G1 E-3.5000 F1620
M104 S240
G1  Y136.450 
G1  X229.250  E20.0000 F326
M73 P1 R132
G1  X179.918  E-20.0000 F351
G1  X229.250  E20.0000 F376
G1  X179.918  E-20.0000 F402
M73 Q1 S132
G1  X229.250  E20.0000 F427
G1  X179.918  E-20.0000 F452
G1  X229.250  E20.0000 F478
G1  X179.918  E-20.0000 F503
G1 E-35.0000 F2000
G1  Y136.500  F2400
G4 S0
; Filament-specific end gcode

T4

G1  X179.918 Y136.500  
M900 K0.12 ; Filament gcode LA 1.5
M900 K45 ; Filament gcode LA 1.0

G4 S0
; CP TOOLCHANGE LOAD
G1 E12.0000 F180
G1  X229.375  E42.0000 F1978
M73 Q2 S132
G1  X179.918  E6.0000 F1385
M73 P2 R131
G1  Y137.000 
; CP TOOLCHANGE WIPE
G1  X229.000  E2.2012 F800
G1  X229.750 Y136.500   E0.0404
G1  X171.000  E2.6348 F900
G1  X170.250 Y136.000   E0.0404
G1  X229.000  E2.6348 F1100
G1  Y135.500  E0.0224
G1  X171.000  E2.6012 F2100
G1  Y135.000  E0.0224
G1  X229.000  E2.6012 F2125
G1  X229.750 Y134.500   E0.0404
G1  X171.000  E2.6348 F2150
G1  X170.250 Y134.000   E0.0404
G1  X229.000  E2.6348 F2175
G1  Y133.500  E0.0224
G1  X171.000  E2.6012 F2200
G1  Y133.000  E0.0224
G1  X229.000  E2.6012 F2225
G1  X229.750 Y132.500   E0.0404
G1  X171.000  E2.6348 F2250
G1  X170.250 Y132.000   E0.0404
G1  X229.000  E2.6348 F2275
G1  Y131.500  E0.0224
G1  X171.000  E2.6012 F2300
M73 Q2 S131
G1  Y131.000  E0.0224
G1  X229.000  E2.6012 F2325
G1  X229.750 Y130.500   E0.0404
G1  X171.000  E2.6348 F2350
G1  X170.250 Y130.000   E0.0404
G1  X229.000  E2.6348 F2375
G1  Y129.500  E0.0224
G1  X171.000  E2.6012 F2400
G1  Y129.000  E0.0224
G1  X229.000  E2.6012
G1  X229.750 Y128.500   E0.0404
G1  X171.000  E2.6348
G1  X170.250 Y128.000   E0.0404
G1  X229.000  E2.6348
G1  Y127.500  E0.0224
G1  X171.000  E2.6012
G1  Y127.000  E0.0224
G1  X229.000  E2.6012
G1  X229.750 Y126.500   E0.0404
G1  X171.000  E2.6348
G1  X170.250 Y126.000   E0.0404
G1  X229.000  E2.6348
G1  Y125.500  E0.0224
G1  X171.000  E2.6012
G1  X170.000 
G1  Y125.000 
G1  X230.000  E2.2804
G1  Y139.400  E0.5473
G1  X170.000  E2.2804
G1  Y125.000  E0.5473
M220 R
G1 F6000
G4 S0
G92 E0
; CP TOOLCHANGE END
;------------------



; printing object TPU Joint concept v0.stl id:0 copy 0
;WIPE_START
G1 F8640.000
G1 X173.291 Y125.000 E-0.76000
;WIPE_END
G1 E-0.04000 F2100.000
G1 Z0.600 F10800.000
G1 X131.883 Y100.787
G1 Z0.200
G1 E0.80000 F2100.000
;TYPE:Perimeter
;WIDTH:0.42
;HEIGHT:0.2
G1 F1200.000
G1 X130.787 Y101.883 E0.04858
G1 X130.787 Y100.787 E0.03435
G1 X131.823 Y100.787 E0.03247
;WIPE_START
G1 F8640.000
G1 X130.787 Y101.883 E-0.34810
G1 X130.787 Y100.787 E-0.25297
G1 X131.475 Y100.787 E-0.15892
;WIPE_END
G1 E-0.04000 F2100.000
G1 Z0.600 F10800.000
G1 X130.787 Y108.117
G1 Z0.200
G1 E0.80000 F2100.000
G1 F1200.000
G1 X131.883 Y109.213 E0.04858
G1 X130.787 Y109.213 E0.03435
G1 X130.787 Y108.177 E0.03247
;WIPE_START
G1 F8640.000
G1 X131.883 Y109.213 E-0.34810
G1 X130.787 Y109.213 E-0.25297
G1 X130.787 Y108.525 E-0.15893
;WIPE_END
G1 E-0.04000 F2100.000
G1 Z0.600 F10800.000
G1 X132.001 Y109.213
G1 Z0.200
G1 E0.80000 F2100.000
G1 F1200.000
G1 X132.001 Y100.787 E0.26419
G1 X139.213 Y100.787 E0.22612
G1 X139.213 Y109.213 E0.26419
G1 X132.061 Y109.213 E0.22423
G1 X131.624 Y108.421 F10800.000
;TYPE:External perimeter
G1 F1200.000
G1 X131.624 Y101.579 E0.21454
G1 X130.410 Y102.793 E0.05384
G1 X130.410 Y100.410 E0.07472
G1 X139.590 Y100.410 E0.28783
G1 X139.590 Y109.590 E0.28783
G1 X130.410 Y109.590 E0.28783
G1 X130.410 Y107.207 E0.07472
G1 X131.582 Y108.379 E0.05196
G1 X132.011 Y108.320 F10800.000
;WIPE_START
G1 F8640.000
G1 X131.602 Y105.087 E-0.76000
;WIPE_END
G1 E-0.04000 F2100.000
G1 Z0.600 F10800.000
G1 X119.213 Y101.883
G1 Z0.200
G1 E0.80000 F2100.000
;TYPE:Perimeter
G1 F1200.000
G1 X118.117 Y100.787 E0.04858
G1 X119.213 Y100.787 E0.03435
G1 X119.213 Y101.823 E0.03247
;WIPE_START
G1 F8640.000
G1 X118.117 Y100.787 E-0.34810
G1 X119.213 Y100.787 E-0.25297
G1 X119.213 Y101.475 E-0.15893
;WIPE_END
G1 E-0.04000 F2100.000
G1 Z0.600 F10800.000
G1 X119.213 Y108.117
G1 Z0.200
G1 E0.80000 F2100.000
G1 F1200.000
G1 X119.213 Y109.213 E0.03435
G1 X118.117 Y109.213 E0.03435
G1 X119.170 Y108.160 E0.04670
;WIPE_START
G1 F8640.000
G1 X119.213 Y109.213 E-0.24338
G1 X118.117 Y109.213 E-0.25297
G1 X118.925 Y108.406 E-0.26365
;WIPE_END
G1 E-0.04000 F2100.000
G1 Z0.600 F10800.000
G1 X117.999 Y109.213
G1 Z0.200
G1 E0.80000 F2100.000
G1 F1200.000
G1 X110.787 Y109.213 E0.22612
G1 X110.787 Y100.787 E0.26419
G1 X117.999 Y100.787 E0.22612
G1 X117.999 Y109.153 E0.26231
;WIPE_START
G1 F8640.000
G1 X114.707 Y109.180 E-0.76000
;WIPE_END
G1 E-0.04000 F2100.000
G1 Z0.600 F10800.000
G1 X118.376 Y101.579
G1 Z0.200
G1 E0.80000 F2100.000
;TYPE:External perimeter
G1 F1200.000
G1 X118.376 Y108.421 E0.21454
M73 P2 R130
G1 X119.590 Y107.207 E0.05384
G1 X119.590 Y109.590 E0.07472
G1 X110.410 Y109.590 E0.28783
G1 X110.410 Y100.410 E0.28783
G1 X119.590 Y100.410 E0.28783
G1 X119.590 Y102.793 E0.07472
G1 X118.418 Y101.621 E0.05196
G1 X117.989 Y101.680 F10800.000
;WIPE_START
G1 F8640.000
G1 X118.398 Y104.913 E-0.76000
;WIPE_END
G1 E-0.04000 F2100.000
G1 Z0.600 F10800.000
G1 X117.106 Y100.900
G1 Z0.200
G1 E0.80000 F2100.000
;TYPE:Solid infill
;WIDTH:0.428304
G1 F1200.000
G1 X117.716 Y101.510 E0.02765
G1 X117.716 Y102.055 E0.01746
G1 X116.730 Y101.070 E0.04466
G1 X116.185 Y101.070 E0.01746
G1 X117.716 Y102.600 E0.06936
G1 X117.716 Y103.145 E0.01746
G1 X115.640 Y101.070 E0.09406
G1 X115.095 Y101.070 E0.01746
G1 X117.716 Y103.690 E0.11876
G1 X117.716 Y104.235 E0.01746
G1 X114.550 Y101.070 E0.14346
G1 X114.005 Y101.070 E0.01746
G1 X117.716 Y104.780 E0.16816
G1 X117.716 Y105.325 E0.01746
G1 X113.460 Y101.070 E0.19286
G1 X112.915 Y101.070 E0.01746
G1 X117.716 Y105.871 E0.21756
G1 X117.716 Y106.416 E0.01746
G1 X112.370 Y101.070 E0.24226
G1 X111.825 Y101.070 E0.01746
G1 X117.716 Y106.961 E0.26695
G1 X117.716 Y107.506 E0.01746
G1 X111.280 Y101.070 E0.29165
G1 X111.070 Y101.070 E0.00674
G1 X111.070 Y101.405 E0.01072
G1 X117.716 Y108.051 E0.30119
G1 X117.716 Y108.596 E0.01746
G1 X111.070 Y101.950 E0.30119
G1 X111.070 Y102.495 E0.01746
G1 X117.505 Y108.930 E0.29165
G1 X116.960 Y108.930 E0.01746
G1 X111.070 Y103.040 E0.26695
G1 X111.070 Y103.585 E0.01746
G1 X116.415 Y108.930 E0.24225
G1 X115.870 Y108.930 E0.01746
G1 X111.070 Y104.130 E0.21755
G1 X111.070 Y104.675 E0.01746
G1 X115.325 Y108.930 E0.19285
G1 X114.780 Y108.930 E0.01746
G1 X111.070 Y105.220 E0.16815
G1 X111.070 Y105.765 E0.01746
G1 X114.235 Y108.930 E0.14345
G1 X113.690 Y108.930 E0.01746
G1 X111.070 Y106.310 E0.11875
G1 X111.070 Y106.855 E0.01746
G1 X113.145 Y108.930 E0.09405
G1 X112.600 Y108.930 E0.01746
G1 X111.070 Y107.400 E0.06936
G1 X111.070 Y107.945 E0.01746
G1 X112.055 Y108.930 E0.04466
G1 X111.510 Y108.930 E0.01746
G1 X110.900 Y108.320 E0.02765
;WIPE_START
G1 F8640.000
G1 X111.510 Y108.930 E-0.19921
G1 X112.055 Y108.930 E-0.12585
G1 X111.070 Y107.945 E-0.32178
G1 X111.070 Y107.455 E-0.11316
;WIPE_END
G1 E-0.04000 F2100.000
G1 Z0.600 F10800.000
G1 X130.900 Y108.684
G1 Z0.200
G1 E0.80000 F2100.000
;WIDTH:0.495415
G1 F1200.000
G1 X131.316 Y109.100 E0.02214
;WIPE_START
G1 F8640.000
G1 X130.900 Y108.684 E-0.13585
;WIPE_END
G1 E-0.66415 F2100.000
G1 Z0.600 F10800.000
G1 X138.320 Y100.900
G1 Z0.200
G1 E0.80000 F2100.000
;WIDTH:0.428304
G1 F1200.000
G1 X138.930 Y101.510 E0.02765
G1 X138.930 Y102.055 E0.01746
G1 X137.945 Y101.070 E0.04466
G1 X137.400 Y101.070 E0.01746
G1 X138.930 Y102.600 E0.06936
G1 X138.930 Y103.145 E0.01746
G1 X136.855 Y101.070 E0.09406
G1 X136.310 Y101.070 E0.01746
G1 X138.930 Y103.690 E0.11876
G1 X138.930 Y104.235 E0.01746
G1 X135.765 Y101.070 E0.14346
G1 X135.220 Y101.070 E0.01746
G1 X138.930 Y104.780 E0.16816
G1 X138.930 Y105.325 E0.01746
G1 X134.674 Y101.070 E0.19286
G1 X134.129 Y101.070 E0.01746
G1 X138.930 Y105.871 E0.21756
G1 X138.930 Y106.416 E0.01746
G1 X133.584 Y101.070 E0.24226
