; generated by PrusaSlicer 2.3.0+win64 on 2021-05-20 at 21:05:44 UTC

; 

; external perimeters extrusion width = 0.45mm
; perimeters extrusion width = 0.45mm
; infill extrusion width = 0.45mm
; solid infill extrusion width = 0.45mm
; top infill extrusion width = 0.40mm
; first layer extrusion width = 0.42mm

M73 P0 R18
M73 Q0 S18
M201 X1000 Y1000 Z200 E8000 ; sets maximum accelerations, mm/sec^2
M203 X200 Y200 Z12 E120 ; sets maximum feedrates, mm/sec
M204 P1250 R1250 T1250 ; sets acceleration (P, T) and retract acceleration (R), mm/sec^2
M205 X8.00 Y8.00 Z0.40 E4.50 ; sets the jerk limits, mm/sec
M205 S0 T0 ; sets the minimum extruding and travel feed rate, mm/sec
M107
;TYPE:Custom
M862.3 P "MK3SMMU2S" ; printer model check
M862.1 P0.4 ; nozzle diameter check
M115 U3.9.3 ; tell printer latest fw version
G90 ; use absolute coordinates
M83 ; extruder relative mode
M104 S220 ; set extruder temp
M140 S50 ; set bed temp
M190 S50 ; wait for bed temp
M109 S220 ; wait for extruder temp
G28 W ; home all without mesh bed level
G80 ; mesh bed leveling

; Send the filament type to the MMU2.0 unit.
; E stands for extruder number, F stands for filament type (0: default; 1:flex; 2: PVA)
M403 E0 F0
M403 E1 F0
M403 E2 F0
M403 E3 F0
M403 E4 F0


;go outside print area
G1 Y-3.0 F1000.0
G1 Z0.4 F1000.0
; select extruder
T3
; initial load
G1 X55.0 E29.0 F1073.0
G1 X5.0 E29.0 F1800.0
G1 X55.0 E8.0 F2000.0
G1 Z0.3 F1000.0
G92 E0.0
G1 X240.0 E25.0 F2200.0
M73 P1 R18
M73 Q1 S18
G1 Y-2.0 F1000.0
G1 X55.0 E25 F1400.0
M73 P1 R17
G1 Z0.20 F1000.0
G1 X5.0 E4.0 F1000.0
G92 E0.0


M221 S95
G92 E0.0

; Don't change E values below. Excessive value can damage the printer.
M907 E430 ; set extruder motor current
G21 ; set units to millimeters
G90 ; use absolute coordinates
M83 ; use relative distances for extrusion
T3
M900 K0
;LAYER_CHANGE
;Z:0.2
;HEIGHT:0.2
;BEFORE_LAYER_CHANGE
G92 E0.0
;0.2


M73 P2 R17
M73 Q2 S17
G1 E-1.60000 F3000.000
G1 Z0.200 F10800.000
;AFTER_LAYER_CHANGE
;0.2
G1 Z0.400
G1 X106.169 Y89.919
G1 Z0.200
G1 E1.60000 F3000.000
M204 S1000
;TYPE:Skirt
;WIDTH:0.42
G1 F1193.382
G1 X107.834 Y88.047 E0.08953
G1 X109.681 Y86.361 E0.08939
G1 X111.692 Y84.875 E0.08939
G1 X113.850 Y83.604 E0.08953
G1 X116.076 Y82.584 E0.08749
G1 X118.448 Y81.780 E0.08953
G1 X119.782 Y81.444 E0.04919
G1 X122.198 Y81.035 E0.08757
G1 X124.724 Y80.873 E0.09048
G1 X127.196 Y80.971 E0.08844
G1 X129.672 Y81.327 E0.08939
G1 X132.101 Y81.938 E0.08953
G1 X134.400 Y82.777 E0.08749
G1 X136.701 Y83.896 E0.09143
G1 X138.778 Y85.190 E0.08749
G1 X139.937 Y86.051 E0.05161
G1 X141.774 Y87.653 E0.08711
G1 X143.445 Y89.439 E0.08744
G1 X144.958 Y91.435 E0.08953
G1 X146.255 Y93.573 E0.08939
G1 X147.325 Y95.838 E0.08953
G1 X148.155 Y98.201 E0.08953
G1 X148.734 Y100.634 E0.08939
G1 X149.059 Y103.118 E0.08953
G1 X149.125 Y105.565 E0.08749
G1 X148.937 Y108.062 E0.08953
G1 X148.723 Y109.422 E0.04919
G1 X148.153 Y111.804 E0.08757
G1 X147.304 Y114.213 E0.09130
G1 X146.254 Y116.429 E0.08763
G1 X144.955 Y118.570 E0.08953
G1 X143.443 Y120.562 E0.08939
G1 X141.733 Y122.388 E0.08940
G1 X139.841 Y124.028 E0.08953
G1 X137.833 Y125.435 E0.08763
G1 X135.649 Y126.653 E0.08939
G1 X134.397 Y127.225 E0.04919
G1 X132.099 Y128.062 E0.08744
G1 X129.670 Y128.673 E0.08953
G1 X127.194 Y129.029 E0.08939
G1 X124.722 Y129.127 E0.08844
G1 X122.195 Y128.965 E0.09048
G1 X119.782 Y128.556 E0.08749
G1 X117.368 Y127.888 E0.08953
G1 X116.076 Y127.416 E0.04919
G1 X113.852 Y126.397 E0.08743
G1 X111.694 Y125.126 E0.08953
G1 X109.682 Y123.640 E0.08939
G1 X107.832 Y121.951 E0.08953
G1 X106.170 Y120.083 E0.08939
G1 X104.737 Y118.093 E0.08763
G1 X103.491 Y115.925 E0.08939
G1 X102.903 Y114.681 E0.04919
G1 X102.035 Y112.394 E0.08743
G1 X101.393 Y109.973 E0.08953
G1 X101.005 Y107.502 E0.08939
G1 X100.875 Y105.001 E0.08953
G1 X101.005 Y102.499 E0.08953
G1 X101.392 Y100.029 E0.08939
G1 X102.035 Y97.608 E0.08953
G1 X102.903 Y95.319 E0.08749
G1 X103.491 Y94.075 E0.04919
G1 X104.736 Y91.908 E0.08934
G1 X106.134 Y89.967 E0.08548
; printing object TestBelt.stl_3 id:0 copy 0
;WIPE_START
G1 F8640.000
G1 X107.834 Y88.047 E-0.84591
G1 X109.343 Y86.669 E-0.67409
;WIPE_END
G1 E-0.08000 F3000.000
G1 Z0.400 F10800.000
G1 X104.407 Y106.670
M73 Q3 S17
G1 Z0.200
G1 E1.60000 F3000.000
;TYPE:External perimeter
G1 F1193.382
G1 X104.266 Y106.360 E0.01215
M73 P3 R17
G1 X104.232 Y105.679 E0.02439
G1 X104.342 Y105.357 E0.01215
G1 X104.623 Y105.202 E0.01149
G1 X104.880 Y105.131 E0.00949
G1 X104.948 Y105.067 E0.00337
G1 X104.962 Y104.968 E0.00357
G1 X104.926 Y104.901 E0.00273
G1 X104.880 Y104.869 E0.00200
G1 X104.623 Y104.798 E0.00950
G1 X104.342 Y104.643 E0.01149
G1 X104.232 Y104.321 E0.01215
G1 X104.266 Y103.640 E0.02439
G1 X104.407 Y103.331 E0.01213
G1 X104.703 Y103.203 E0.01153
G1 X104.964 Y103.158 E0.00946
G1 X105.038 Y103.100 E0.00337
G1 X105.062 Y103.004 E0.00357
G1 X105.032 Y102.933 E0.00273
G1 X104.989 Y102.897 E0.00200
G1 X104.741 Y102.802 E0.00950
G1 X104.477 Y102.619 E0.01149
G1 X104.399 Y102.288 E0.01215
G1 X104.499 Y101.613 E0.02439
G1 X104.670 Y101.320 E0.01215
G1 X104.976 Y101.222 E0.01149
G1 X105.241 Y101.203 E0.00949
G1 X105.288 Y101.182 E0.00184
G1 X105.343 Y101.114 E0.00312
G1 X105.350 Y101.025 E0.00322
G1 X105.292 Y100.945 E0.00350
G1 X105.054 Y100.826 E0.00950
G1 X104.809 Y100.619 E0.01149
G1 X104.764 Y100.282 E0.01215
G1 X104.929 Y99.620 E0.02439
G1 X105.128 Y99.345 E0.01213
G1 X105.443 Y99.277 E0.01153
G1 X105.708 Y99.284 E0.00946
G1 X105.793 Y99.242 E0.00337
G1 X105.835 Y99.152 E0.00357
G1 X105.819 Y99.077 E0.00273
G1 X105.784 Y99.033 E0.00200
G1 X105.560 Y98.891 E0.00950
G1 X105.336 Y98.660 E0.01149
G1 X105.324 Y98.321 E0.01215
G1 X105.553 Y97.678 E0.02439
G1 X105.778 Y97.424 E0.01213
G1 X106.099 Y97.387 E0.01153
G1 X106.361 Y97.420 E0.00946
G1 X106.450 Y97.387 E0.00337
G1 X106.500 Y97.301 E0.00357
G1 X106.492 Y97.225 E0.00273
G1 X106.462 Y97.178 E0.00200
G1 X106.252 Y97.015 E0.00950
G1 X106.052 Y96.763 E0.01149
G1 X106.073 Y96.424 E0.01215
G1 X106.365 Y95.807 E0.02439
G1 X106.614 Y95.575 E0.01215
G1 X106.935 Y95.571 E0.01149
G1 X107.194 Y95.629 E0.00949
G1 X107.285 Y95.605 E0.00337
G1 X107.344 Y95.524 E0.00357
G1 X107.343 Y95.448 E0.00273
G1 X107.318 Y95.398 E0.00200
G1 X107.125 Y95.215 E0.00950
G1 X106.950 Y94.945 E0.01149
G1 X107.005 Y94.610 E0.01215
G1 X107.356 Y94.024 E0.02439
G1 X107.626 Y93.818 E0.01215
G1 X107.946 Y93.845 E0.01149
G1 X108.198 Y93.929 E0.00949
G1 X108.291 Y93.913 E0.00337
G1 X108.358 Y93.839 E0.00357
G1 X108.365 Y93.763 E0.00273
G1 X108.344 Y93.711 E0.00200
G1 X108.170 Y93.510 E0.00950
G1 X108.023 Y93.224 E0.01149
G1 X108.110 Y92.895 E0.01215
G1 X108.516 Y92.347 E0.02439
G1 X108.805 Y92.169 E0.01213
G1 X109.122 Y92.227 E0.01153
G1 X109.364 Y92.335 E0.00946
G1 X109.459 Y92.329 E0.00337
G1 X109.532 Y92.261 E0.00357
G1 X109.546 Y92.186 E0.00273
G1 X109.531 Y92.132 E0.00200
G1 X109.377 Y91.915 E0.00950
G1 X109.259 Y91.616 E0.01149
G1 X109.378 Y91.298 E0.01215
G1 X109.836 Y90.792 E0.02439
G1 X110.141 Y90.643 E0.01215
G1 X110.450 Y90.732 E0.01149
G1 X110.681 Y90.863 E0.00949
G1 X110.775 Y90.866 E0.00337
G1 X110.855 Y90.806 E0.00357
G1 X110.877 Y90.732 E0.00273
G1 X110.867 Y90.677 E0.00200
G1 X110.735 Y90.446 E0.00950
G1 X110.647 Y90.138 E0.01149
G1 X110.796 Y89.832 E0.01215
G1 X111.302 Y89.374 E0.02439
G1 X111.620 Y89.255 E0.01213
G1 X111.919 Y89.374 E0.01153
G1 X112.136 Y89.527 E0.00946
G1 X112.229 Y89.539 E0.00337
G1 X112.315 Y89.488 E0.00357
G1 X112.343 Y89.417 E0.00273
G1 X112.338 Y89.361 E0.00200
G1 X112.230 Y89.118 E0.00950
G1 X112.173 Y88.802 E0.01149
G1 X112.351 Y88.513 E0.01215
G1 X112.899 Y88.106 E0.02439
G1 X113.227 Y88.019 E0.01213
G1 X113.514 Y88.167 E0.01153
G1 X113.714 Y88.340 E0.00946
G1 X113.806 Y88.362 E0.00337
G1 X113.896 Y88.318 E0.00357
G1 X113.932 Y88.251 E0.00273
G1 X113.932 Y88.195 E0.00200
G1 X113.849 Y87.942 E0.00950
G1 X113.822 Y87.622 E0.01149
G1 X114.028 Y87.352 E0.01215
G1 X114.613 Y87.001 E0.02439
G1 X114.948 Y86.947 E0.01213
G1 X115.219 Y87.122 E0.01153
G1 X115.402 Y87.314 E0.00946
G1 X115.491 Y87.344 E0.00337
G1 X115.585 Y87.310 E0.00357
G1 X115.627 Y87.246 E0.00273
G1 X115.633 Y87.190 E0.00200
G1 X115.574 Y86.931 E0.00950
G1 X115.579 Y86.610 E0.01149
G1 X115.811 Y86.361 E0.01215
G1 X116.428 Y86.069 E0.02439
G1 X116.767 Y86.048 E0.01215
G1 X117.018 Y86.248 E0.01149
G1 X117.181 Y86.458 E0.00949
G1 X117.267 Y86.497 E0.00337
G1 X117.364 Y86.472 E0.00357
G1 X117.412 Y86.412 E0.00273
G1 X117.424 Y86.358 E0.00200
G1 X117.391 Y86.094 E0.00950
G1 X117.427 Y85.775 E0.01149
G1 X117.682 Y85.550 E0.01215
G1 X118.324 Y85.320 E0.02439
G1 X118.664 Y85.332 E0.01215
G1 X118.895 Y85.556 E0.01149
G1 X119.037 Y85.781 E0.00949
G1 X119.118 Y85.828 E0.00337
G1 X119.217 Y85.812 E0.00357
G1 X119.270 Y85.758 E0.00273
G1 X119.287 Y85.704 E0.00200
G1 X119.280 Y85.439 E0.00950
G1 X119.348 Y85.125 E0.01149
G1 X119.624 Y84.926 E0.01215
G1 X120.286 Y84.760 E0.02439
G1 X120.622 Y84.805 E0.01213
G1 X120.830 Y85.052 E0.01153
G1 X120.949 Y85.288 E0.00946
G1 X121.026 Y85.343 E0.00337
G1 X121.125 Y85.338 E0.00357
G1 X121.184 Y85.288 E0.00273
G1 X121.206 Y85.237 E0.00200
G1 X121.225 Y84.972 E0.00950
G1 X121.323 Y84.666 E0.01149
G1 X121.617 Y84.495 E0.01215
G1 X122.292 Y84.395 E0.02439
G1 X122.622 Y84.473 E0.01213
G1 X122.806 Y84.739 E0.01153
G1 X122.901 Y84.986 E0.00946
G1 X122.972 Y85.048 E0.00337
G1 X123.071 Y85.052 E0.00357
G1 X123.135 Y85.009 E0.00273
G1 X123.162 Y84.960 E0.00200
G1 X123.207 Y84.698 E0.00950
G1 X123.334 Y84.403 E0.01149
G1 X123.643 Y84.262 E0.01215
G1 X124.325 Y84.228 E0.02439
G1 X124.646 Y84.339 E0.01215
G1 X124.802 Y84.620 E0.01149
G1 X124.873 Y84.876 E0.00949
G1 X124.937 Y84.945 E0.00337
G1 X125.036 Y84.959 E0.00357
G1 X125.103 Y84.922 E0.00273
G1 X125.135 Y84.876 E0.00200
G1 X125.205 Y84.620 E0.00950
G1 X125.361 Y84.339 E0.01149
G1 X125.682 Y84.229 E0.01212
G1 X126.365 Y84.262 E0.02444
G1 X126.673 Y84.403 E0.01212
G1 X126.801 Y84.698 E0.01149
G1 X126.846 Y84.960 E0.00949
G1 X126.903 Y85.035 E0.00337
G1 X127.000 Y85.058 E0.00357
G1 X127.070 Y85.028 E0.00273
G1 X127.107 Y84.986 E0.00200
G1 X127.202 Y84.738 E0.00950
G1 X127.384 Y84.473 E0.01149
G1 X127.715 Y84.395 E0.01215
G1 X128.390 Y84.495 E0.02439
G1 X128.684 Y84.666 E0.01215
G1 X128.782 Y84.972 E0.01149
G1 X128.801 Y85.237 E0.00949
G1 X128.851 Y85.317 E0.00337
G1 X128.945 Y85.350 E0.00357
G1 X129.018 Y85.327 E0.00273
G1 X129.058 Y85.288 E0.00200
G1 X129.177 Y85.051 E0.00950
G1 X129.385 Y84.805 E0.01149
G1 X129.722 Y84.760 E0.01215
G1 X130.384 Y84.926 E0.02439
G1 X130.659 Y85.125 E0.01215
G1 X130.727 Y85.439 E0.01149
G1 X130.720 Y85.704 E0.00949
G1 X130.762 Y85.789 E0.00337
G1 X130.852 Y85.831 E0.00357
G1 X130.927 Y85.815 E0.00273
G1 X130.971 Y85.781 E0.00200
G1 X131.113 Y85.556 E0.00950
G1 X131.343 Y85.332 E0.01149
G1 X131.683 Y85.320 E0.01215
G1 X132.325 Y85.550 E0.02439
G1 X132.580 Y85.775 E0.01215
G1 X132.617 Y86.094 E0.01149
G1 X132.584 Y86.358 E0.00949
G1 X132.617 Y86.446 E0.00337
G1 X132.703 Y86.497 E0.00357
G1 X132.779 Y86.488 E0.00273
G1 X132.826 Y86.458 E0.00200
G1 X132.989 Y86.248 E0.00950
G1 X133.241 Y86.048 E0.01149
G1 X133.580 Y86.069 E0.01215
G1 X134.197 Y86.361 E0.02439
G1 X134.428 Y86.610 E0.01215
G1 X134.433 Y86.931 E0.01149
G1 X134.374 Y87.190 E0.00949
G1 X134.399 Y87.281 E0.00337
G1 X134.479 Y87.340 E0.00357
G1 X134.556 Y87.340 E0.00273
G1 X134.606 Y87.314 E0.00200
G1 X134.789 Y87.121 E0.00950
G1 X135.059 Y86.947 E0.01149
G1 X135.394 Y87.001 E0.01215
G1 X135.979 Y87.352 E0.02439
G1 X136.185 Y87.622 E0.01213
G1 X136.158 Y87.943 E0.01153
G1 X136.075 Y88.195 E0.00946
G1 X136.090 Y88.288 E0.00337
G1 X136.165 Y88.354 E0.00357
G1 X136.241 Y88.361 E0.00273
G1 X136.293 Y88.340 E0.00200
G1 X136.494 Y88.166 E0.00950
G1 X136.780 Y88.019 E0.01149
G1 X137.108 Y88.106 E0.01215
G1 X137.656 Y88.513 E0.02439
G1 X137.835 Y88.802 E0.01215
G1 X137.777 Y89.118 E0.01149
G1 X137.669 Y89.361 E0.00949
G1 X137.675 Y89.455 E0.00337
G1 X137.743 Y89.528 E0.00357
G1 X137.818 Y89.543 E0.00273
G1 X137.872 Y89.527 E0.00200
G1 X138.089 Y89.374 E0.00950
G1 X138.387 Y89.255 E0.01149
G1 X138.706 Y89.374 E0.01215
G1 X139.211 Y89.832 E0.02439
G1 X139.361 Y90.137 E0.01213
G1 X139.272 Y90.447 E0.01153
G1 X139.141 Y90.677 E0.00946
G1 X139.138 Y90.772 E0.00337
G1 X139.198 Y90.852 E0.00357
G1 X139.271 Y90.873 E0.00273
G1 X139.326 Y90.863 E0.00200
G1 X139.557 Y90.732 E0.00950
G1 X139.866 Y90.643 E0.01149
G1 X140.171 Y90.792 E0.01215
G1 X140.630 Y91.298 E0.02439
G1 X140.748 Y91.616 E0.01213
G1 X140.629 Y91.916 E0.01153
G1 X140.477 Y92.132 E0.00946
G1 X140.464 Y92.226 E0.00337
G1 X140.516 Y92.311 E0.00357
G1 X140.587 Y92.339 E0.00273
G1 X140.643 Y92.335 E0.00200
G1 X140.886 Y92.227 E0.00950
G1 X141.202 Y92.169 E0.01149
G1 X141.491 Y92.347 E0.01215
G1 X141.897 Y92.895 E0.02439
G1 X141.984 Y93.224 E0.01213
G1 X141.837 Y93.510 E0.01153
G1 X141.663 Y93.711 E0.00946
G1 X141.642 Y93.803 E0.00337
G1 X141.685 Y93.893 E0.00357
G1 X141.753 Y93.928 E0.00273
G1 X141.809 Y93.929 E0.00200
G1 X142.061 Y93.845 E0.00950
G1 X142.381 Y93.818 E0.01149
G1 X142.652 Y94.024 E0.01215
G1 X143.003 Y94.610 E0.02439
G1 X143.057 Y94.945 E0.01215
G1 X142.882 Y95.215 E0.01149
G1 X142.690 Y95.398 E0.00949
G1 X142.659 Y95.487 E0.00337
G1 X142.694 Y95.581 E0.00357
G1 X142.758 Y95.623 E0.00273
G1 X142.813 Y95.629 E0.00200
G1 X143.072 Y95.571 E0.00950
G1 X143.394 Y95.575 E0.01149
G1 X143.643 Y95.807 E0.01215
G1 X143.934 Y96.424 E0.02439
G1 X143.955 Y96.763 E0.01213
G1 X143.755 Y97.015 E0.01153
G1 X143.546 Y97.178 E0.00946
G1 X143.507 Y97.264 E0.00337
G1 X143.532 Y97.360 E0.00357
G1 X143.591 Y97.408 E0.00273
G1 X143.646 Y97.420 E0.00200
G1 X143.910 Y97.387 E0.00950
G1 X144.229 Y97.423 E0.01149
G1 X144.454 Y97.678 E0.01215
G1 X144.684 Y98.321 E0.02439
G1 X144.672 Y98.660 E0.01213
G1 X144.447 Y98.891 E0.01153
G1 X144.223 Y99.033 E0.00946
G1 X144.176 Y99.115 E0.00337
G1 X144.191 Y99.213 E0.00357
G1 X144.246 Y99.267 E0.00273
G1 X144.299 Y99.284 E0.00200
G1 X144.565 Y99.277 E0.00950
G1 X144.879 Y99.344 E0.01149
G1 X145.078 Y99.620 E0.01215
G1 X145.244 Y100.282 E0.02439
G1 X145.198 Y100.618 E0.01213
G1 X144.952 Y100.827 E0.01153
G1 X144.716 Y100.945 E0.00946
G1 X144.661 Y101.022 E0.00337
G1 X144.666 Y101.122 E0.00357
G1 X144.715 Y101.180 E0.00273
G1 X144.767 Y101.203 E0.00200
G1 X145.032 Y101.222 E0.00950
G1 X145.338 Y101.320 E0.01149
G1 X145.509 Y101.613 E0.01215
G1 X145.609 Y102.288 E0.02439
G1 X145.531 Y102.619 E0.01213
G1 X145.265 Y102.802 E0.01153
G1 X145.018 Y102.897 E0.00946
G1 X144.956 Y102.968 E0.00337
G1 X144.952 Y103.068 E0.00357
G1 X144.995 Y103.131 E0.00273
G1 X145.044 Y103.158 E0.00200
G1 X145.306 Y103.203 E0.00950
G1 X145.601 Y103.330 E0.01149
G1 X145.742 Y103.640 E0.01215
G1 X145.775 Y104.321 E0.02439
G1 X145.665 Y104.643 E0.01215
G1 X145.384 Y104.798 E0.01149
G1 X145.128 Y104.869 E0.00949
G1 X145.059 Y104.933 E0.00337
G1 X145.045 Y105.032 E0.00357
G1 X145.082 Y105.099 E0.00273
G1 X145.128 Y105.131 E0.00200
G1 X145.384 Y105.202 E0.00950
G1 X145.665 Y105.357 E0.01149
G1 X145.775 Y105.679 E0.01215
G1 X145.742 Y106.360 E0.02439
G1 X145.601 Y106.670 E0.01215
G1 X145.305 Y106.797 E0.01149
G1 X145.044 Y106.842 E0.00949
G1 X144.969 Y106.900 E0.00337
G1 X144.945 Y106.996 E0.00357
G1 X144.975 Y107.067 E0.00273
G1 X145.018 Y107.103 E0.00200
G1 X145.266 Y107.198 E0.00950
G1 X145.530 Y107.381 E0.01149
G1 X145.609 Y107.712 E0.01215
G1 X145.509 Y108.387 E0.02439
G1 X145.338 Y108.680 E0.01215
G1 X145.032 Y108.778 E0.01149
G1 X144.767 Y108.797 E0.00949
G1 X144.687 Y108.847 E0.00337
G1 X144.653 Y108.941 E0.00357
G1 X144.676 Y109.014 E0.00273
G1 X144.715 Y109.055 E0.00200
G1 X144.953 Y109.174 E0.00950
G1 X145.198 Y109.381 E0.01149
G1 X145.244 Y109.718 E0.01215
G1 X145.078 Y110.380 E0.02439
G1 X144.879 Y110.656 E0.01215
G1 X144.565 Y110.723 E0.01149
G1 X144.299 Y110.716 E0.00949
G1 X144.215 Y110.758 E0.00337
G1 X144.173 Y110.848 E0.00357
G1 X144.188 Y110.923 E0.00273
G1 X144.223 Y110.967 E0.00200
G1 X144.448 Y111.109 E0.00950
G1 X144.672 Y111.340 E0.01149
G1 X144.684 Y111.679 E0.01215
G1 X144.454 Y112.322 E0.02439
G1 X144.229 Y112.577 E0.01215
G1 X143.910 Y112.613 E0.01149
